;FLAVOR:Marlin
;TIME:14295
;Filament used: 3.25498m
;Layer height: 0.1
;MINX:87.543
;MINY:87.604
;MINZ:0.2
;MAXX:147.476
;MAXY:147.395
;MAXZ:89.6
;Generated with Cura_SteamEngine 4.8.0
M140 S110
M105
M190 S110
M104 S255
M105
M109 S255
M82 ;absolute extrusion mode
; Ender 3 Custom Start G-code
G92 E0 ; Reset Extruder
G28 ; Home all axes
G1 Z2.0 F3000 ; Move Z Axis up little to prevent scratching of Heat Bed
G1 X0.1 Y20 Z0.3 F5000.0 ; Move to start position
G1 X0.1 Y200.0 Z0.3 F1500.0 E15 ; Draw the first line
G1 X0.4 Y200.0 Z0.3 F5000.0 ; Move to side a little
G1 X0.4 Y20 Z0.3 F1500.0 E30 ; Draw the second line
G92 E0 ; Reset Extruder
G1 Z2.0 F3000 ; Move Z Axis up little to prevent scratching of Heat Bed
G1 X5 Y20 Z0.3 F5000.0 ; Move over to prevent blob squish
G92 E0
G92 E0
G1 F2700 E-5
;LAYER_COUNT:897
;LAYER:0
M107
G0 F6000 X96.54 Y96.088 Z0.2
;TYPE:SKIRT
G1 F2700 E0
G1 F1200 X97.203 Y95.425 E0.03119
G1 X97.99 Y94.768 E0.06528
G1 X98.869 Y94.101 E0.10198
G1 X99.052 Y93.965 E0.10957
G1 X101.163 Y92.432 E0.19634
G1 X101.729 Y92.033 E0.21937
G1 X102.518 Y91.526 E0.25057
G1 X103.327 Y91.098 E0.28101
G1 X103.751 Y90.899 E0.29658
G1 X104.144 Y90.724 E0.31089
G1 X106.62 Y89.648 E0.40069
G1 X107.25 Y89.385 E0.42339
G1 X108.13 Y89.061 E0.45458
G1 X108.999 Y88.821 E0.48457
G1 X109.804 Y88.635 E0.51205
G1 X112.819 Y87.978 E0.61468
G1 X113.541 Y87.832 E0.63918
G1 X114.467 Y87.686 E0.67036
G1 X115.388 Y87.619 E0.70107
G1 X115.865 Y87.607 E0.71694
G1 X116.173 Y87.604 E0.72719
G1 X119.111 Y87.606 E0.8249
G1 X119.717 Y87.615 E0.84506
G1 X120.654 Y87.669 E0.87628
G1 X121.634 Y87.812 E0.90922
G1 X122.709 Y88.019 E0.94563
G1 X122.943 Y88.067 E0.95358
G1 X125.085 Y88.529 E1.02646
G1 X125.756 Y88.684 E1.04936
G1 X126.66 Y88.934 E1.08056
G1 X127.551 Y89.265 E1.11217
G1 X128.339 Y89.597 E1.14061
G1 X130.721 Y90.649 E1.22722
G1 X131.479 Y90.995 E1.25493
G1 X132.314 Y91.422 E1.28613
G1 X133.172 Y91.962 E1.31985
G1 X133.497 Y92.188 E1.33301
G1 X133.685 Y92.322 E1.34069
G1 X136.237 Y94.178 E1.44564
G1 X136.767 Y94.575 E1.46767
G1 X137.493 Y95.169 E1.49887
G1 X138.185 Y95.843 E1.531
G1 X138.953 Y96.662 E1.56834
G1 X140.76 Y98.657 E1.65787
G1 X141.2 Y99.158 E1.68004
G1 X141.788 Y99.889 E1.71125
G1 X142.252 Y100.569 E1.73863
G1 X142.429 Y100.851 E1.7497
G1 X142.639 Y101.201 E1.76328
G1 X144.102 Y103.737 E1.86065
G1 X144.428 Y104.32 E1.88287
G1 X144.85 Y105.158 E1.91408
G1 X145.222 Y106.09 E1.94745
G1 X145.581 Y107.127 E1.98395
G1 X145.865 Y107.998 E2.01442
G1 X146.041 Y108.552 E2.03376
G1 X146.399 Y109.698 E2.07369
G1 X146.659 Y110.575 E2.10411
G1 X146.886 Y111.485 E2.13531
G1 X147.025 Y112.33 E2.16379
G1 X147.117 Y113.077 E2.18882
G1 X147.364 Y115.352 E2.26493
G1 X147.426 Y115.996 E2.28645
G1 X147.476 Y116.932 E2.31763
G1 X147.441 Y117.939 E2.35114
G1 X147.357 Y118.975 E2.38571
G1 X147.337 Y119.195 E2.39306
G1 X147.048 Y122.037 E2.48807
G1 X146.973 Y122.684 E2.50974
G1 X146.825 Y123.61 E2.54093
G1 X146.613 Y124.474 E2.57051
G1 X146.543 Y124.716 E2.57889
G1 X146.43 Y125.08 E2.59157
G1 X145.424 Y128.15 E2.69902
G1 X145.212 Y128.765 E2.72066
G1 X144.869 Y129.638 E2.75185
G1 X144.463 Y130.46 E2.78235
G1 X143.998 Y131.307 E2.81448
G1 X142.696 Y133.594 E2.90201
G1 X142.324 Y134.226 E2.92641
G1 X141.814 Y135.013 E2.9576
G1 X141.25 Y135.741 E2.98823
G1 X141.066 Y135.959 E2.99771
G1 X140.847 Y136.211 E3.00882
G1 X138.825 Y138.464 E3.10951
G1 X138.217 Y139.121 E3.13928
G1 X137.551 Y139.781 E3.17047
G1 X136.825 Y140.385 E3.20188
G1 X136.495 Y140.635 E3.21565
G1 X135.951 Y141.033 E3.23807
G1 X135.65 Y141.257 E3.25054
G1 X133.946 Y142.506 E3.32081
G1 X133.399 Y142.895 E3.34314
G1 X132.612 Y143.406 E3.37435
G1 X131.808 Y143.836 E3.40467
G1 X131.403 Y144.028 E3.41958
G1 X130.94 Y144.236 E3.43646
G1 X128.174 Y145.446 E3.53688
G1 X127.521 Y145.722 E3.56046
G1 X126.643 Y146.05 E3.59163
G1 X125.73 Y146.304 E3.62315
G1 X124.851 Y146.507 E3.65316
G1 X122.472 Y147.024 E3.73413
G1 X121.771 Y147.166 E3.75792
G1 X120.845 Y147.313 E3.7891
G1 X119.943 Y147.379 E3.81918
G1 X119.634 Y147.389 E3.82947
G1 X119.281 Y147.395 E3.84121
G1 X115.944 Y147.395 E3.9522
G1 X115.518 Y147.389 E3.96637
G1 X115.131 Y147.377 E3.97925
G1 X114.685 Y147.355 E3.9941
G1 X113.751 Y147.269 E4.02529
G1 X113.121 Y147.164 E4.04654
G1 X112.309 Y147.005 E4.07406
G1 X110.196 Y146.56 E4.14588
G1 X109.308 Y146.359 E4.17616
G1 X108.403 Y146.113 E4.20735
G1 X107.59 Y145.818 E4.23612
G1 X107.416 Y145.747 E4.24237
G1 X107.096 Y145.61 E4.25395
G1 X106.713 Y145.439 E4.2679
G1 X103.878 Y144.151 E4.37146
G1 X103.256 Y143.858 E4.39433
G1 X102.426 Y143.423 E4.4255
G1 X101.625 Y142.911 E4.45712
G1 X100.788 Y142.322 E4.49116
G1 X99.147 Y141.128 E4.55866
G1 X98.459 Y140.613 E4.58724
G1 X98.037 Y140.28 E4.60512
G1 X97.815 Y140.096 E4.61471
G1 X97.5 Y139.826 E4.62851
G1 X97.282 Y139.631 E4.63824
G1 X96.64 Y139.007 E4.66802
G1 X96.432 Y138.788 E4.67806
G1 X96.087 Y138.412 E4.69503
G1 X94.316 Y136.424 E4.78359
G1 X93.874 Y135.914 E4.80603
G1 X93.291 Y135.18 E4.83721
G1 X92.766 Y134.388 E4.86881
G1 X92.284 Y133.586 E4.89994
G1 X90.885 Y131.186 E4.99233
G1 X90.549 Y130.592 E5.01503
G1 X90.122 Y129.757 E5.04622
G1 X89.777 Y128.912 E5.07658
G1 X89.639 Y128.519 E5.09043
G1 X89.445 Y127.927 E5.11115
G1 X88.689 Y125.539 E5.19446
G1 X88.483 Y124.855 E5.21822
G1 X88.251 Y123.946 E5.24943
G1 X88.096 Y123.004 E5.28118
G1 X87.971 Y121.965 E5.31599
G1 X87.657 Y118.958 E5.41654
G1 X87.587 Y118.181 E5.44249
G1 X87.543 Y117.244 E5.47369
G1 X87.585 Y116.246 E5.50691
G1 X87.682 Y115.133 E5.54407
G1 X87.703 Y114.915 E5.55136
G1 X87.92 Y112.901 E5.61873
G1 X87.997 Y112.27 E5.63987
G1 X88.15 Y111.344 E5.67109
G1 X88.4 Y110.375 E5.70437
G1 X88.694 Y109.417 E5.7377
G1 X88.756 Y109.222 E5.74451
G1 X89.553 Y106.789 E5.82966
G1 X89.759 Y106.187 E5.85082
G1 X90.101 Y105.313 E5.88204
G1 X90.535 Y104.435 E5.91461
G1 X90.995 Y103.601 E5.94629
G1 X91.102 Y103.412 E5.95352
G1 X92.3 Y101.339 E6.03315
G1 X92.652 Y100.748 E6.05603
G1 X93.166 Y99.964 E6.08721
G1 X93.772 Y99.194 E6.1198
G1 X94.392 Y98.475 E6.15138
G1 X94.531 Y98.317 E6.15838
G1 X96.143 Y96.52 E6.23867
G1 X96.54 Y96.088 E6.25818
G0 F6000 X96.834 Y96.359
G1 F1200 X97.486 Y95.708 E6.28883
G1 X98.231 Y95.087 E6.32109
G1 X99.11 Y94.42 E6.35779
G1 X99.287 Y94.289 E6.36511
G1 X101.394 Y92.759 E6.45172
G1 X101.96 Y92.36 E6.47475
G1 X102.734 Y91.863 E6.50534
G1 X103.499 Y91.459 E6.53412
G1 X103.677 Y91.374 E6.54068
G1 X103.915 Y91.264 E6.5494
G1 X104.304 Y91.09 E6.56357
G1 X106.774 Y90.017 E6.65314
G1 X107.404 Y89.754 E6.67585
G1 X108.269 Y89.437 E6.70649
G1 X109.09 Y89.211 E6.73481
G1 X109.889 Y89.026 E6.76209
G1 X112.898 Y88.37 E6.86452
G1 X113.62 Y88.224 E6.88902
G1 X114.529 Y88.081 E6.91962
G1 X115.4 Y88.019 E6.94867
G1 X115.87 Y88.007 E6.96431
G1 X116.173 Y88.004 E6.97438
G1 X119.105 Y88.006 E7.0719
G1 X119.711 Y88.015 E7.09206
G1 X120.63 Y88.069 E7.12268
G1 X121.558 Y88.205 E7.15387
G1 X122.633 Y88.412 E7.19029
G1 X122.859 Y88.458 E7.19796
G1 X124.995 Y88.919 E7.27064
G1 X125.666 Y89.074 E7.29354
G1 X126.553 Y89.32 E7.32416
G1 X127.396 Y89.634 E7.35408
G1 X128.355 Y90.039 E7.3887
G1 X130.56 Y91.014 E7.46889
G1 X131.312 Y91.359 E7.49641
G1 X132.132 Y91.779 E7.52705
G1 X132.944 Y92.29 E7.55896
G1 X133.269 Y92.516 E7.57213
G1 X133.45 Y92.645 E7.57952
G1 X135.997 Y94.498 E7.68428
G1 X136.527 Y94.895 E7.7063
G1 X137.239 Y95.479 E7.73693
G1 X137.894 Y96.117 E7.76734
G1 X138.526 Y96.789 E7.79803
G1 X138.657 Y96.931 E7.80445
G1 X140.348 Y98.796 E7.88818
G1 X140.899 Y99.422 E7.91592
G1 X141.476 Y100.14 E7.94656
G1 X141.913 Y100.782 E7.97239
G1 X142.09 Y101.064 E7.98346
G1 X142.293 Y101.401 E7.99655
G1 X143.753 Y103.933 E8.09376
G1 X144.079 Y104.516 E8.11598
G1 X144.493 Y105.338 E8.14659
G1 X144.844 Y106.221 E8.17819
G1 X145.203 Y107.258 E8.21469
G1 X145.272 Y107.464 E8.22192
G1 X145.484 Y108.12 E8.24485
G1 X145.659 Y108.671 E8.26407
G1 X146.017 Y109.817 E8.30401
G1 X146.275 Y110.688 E8.33422
G1 X146.498 Y111.581 E8.36483
G1 X146.628 Y112.379 E8.39173
G1 X146.72 Y113.12 E8.41656
G1 X146.966 Y115.39 E8.4925
G1 X147.028 Y116.034 E8.51402
G1 X147.077 Y116.954 E8.54466
G1 X147.042 Y117.907 E8.57638
G1 X146.958 Y118.943 E8.61095
G1 X146.939 Y119.155 E8.61803
G1 X146.667 Y121.839 E8.70776
G1 X146.575 Y122.638 E8.73451
G1 X146.43 Y123.547 E8.76513
G1 X146.229 Y124.362 E8.79305
G1 X146.159 Y124.604 E8.80142
G1 X146.05 Y124.956 E8.81368
G1 X145.099 Y127.862 E8.91538
G1 X144.834 Y128.634 E8.94253
G1 X144.497 Y129.491 E8.97315
G1 X144.112 Y130.268 E9.002
G1 X143.65 Y131.11 E9.03394
G1 X142.351 Y133.391 E9.12125
G1 X141.979 Y134.023 E9.14564
G1 X141.478 Y134.795 E9.17625
G1 X140.944 Y135.483 E9.20521
G1 X140.76 Y135.701 E9.2147
G1 X140.549 Y135.944 E9.22541
G1 X138.527 Y138.197 E9.32609
G1 X137.924 Y138.849 E9.35563
G1 X137.269 Y139.496 E9.38625
G1 X136.583 Y140.067 E9.41594
G1 X136.259 Y140.312 E9.42945
G1 X135.715 Y140.71 E9.45187
G1 X135.414 Y140.934 E9.46435
G1 X133.714 Y142.18 E9.53445
G1 X133.167 Y142.569 E9.55678
G1 X132.394 Y143.07 E9.58741
G1 X131.634 Y143.476 E9.61607
G1 X131.487 Y143.547 E9.6215
G1 X131.238 Y143.663 E9.63064
G1 X130.779 Y143.87 E9.64739
G1 X128.019 Y145.078 E9.74759
G1 X127.366 Y145.354 E9.77117
G1 X126.503 Y145.675 E9.8018
G1 X125.639 Y145.915 E9.83162
G1 X124.766 Y146.117 E9.86142
G1 X122.542 Y146.601 E9.93713
G1 X121.691 Y146.774 E9.96601
G1 X120.782 Y146.917 E9.99661
G1 X119.93 Y146.979 E10.02503
G1 X119.621 Y146.989 E10.03531
G1 X119.281 Y146.995 E10.04662
G1 X115.95 Y146.995 E10.15741
G1 X115.524 Y146.989 E10.17158
G1 X115.151 Y146.977 E10.18399
G1 X114.705 Y146.955 E10.19884
G1 X113.788 Y146.87 E10.22947
G1 X113.197 Y146.772 E10.2494
G1 X112.546 Y146.645 E10.27146
G1 X110.113 Y146.132 E10.35416
G1 X109.396 Y145.969 E10.37862
G1 X108.508 Y145.726 E10.40924
G1 X107.741 Y145.447 E10.43638
G1 X107.567 Y145.376 E10.44263
G1 X107.258 Y145.245 E10.4538
G1 X106.878 Y145.075 E10.46764
G1 X104.184 Y143.852 E10.56605
G1 X103.427 Y143.496 E10.59387
G1 X102.612 Y143.068 E10.62449
G1 X101.855 Y142.584 E10.65437
G1 X101.171 Y142.104 E10.68216
G1 X99.261 Y140.715 E10.76071
G1 X98.698 Y140.293 E10.78412
G1 X98.292 Y139.972 E10.80133
G1 X98.07 Y139.788 E10.81092
G1 X97.767 Y139.528 E10.8242
G1 X97.549 Y139.333 E10.83393
G1 X96.93 Y138.732 E10.86262
G1 X96.722 Y138.513 E10.87267
G1 X96.386 Y138.146 E10.88922
G1 X94.619 Y136.162 E10.97758
G1 X94.177 Y135.652 E11.00003
G1 X93.605 Y134.931 E11.03064
G1 X93.108 Y134.182 E11.06054
G1 X92.629 Y133.384 E11.09149
G1 X91.233 Y130.989 E11.1837
G1 X90.897 Y130.395 E11.2064
G1 X90.479 Y129.575 E11.23701
G1 X90.153 Y128.776 E11.26571
G1 X90.019 Y128.394 E11.27917
G1 X89.826 Y127.806 E11.29976
G1 X89.072 Y125.424 E11.38286
G1 X88.866 Y124.74 E11.40662
G1 X88.639 Y123.848 E11.43723
G1 X88.493 Y122.956 E11.46729
G1 X88.369 Y121.924 E11.50186
G1 X88.04 Y118.76 E11.60767
G1 X87.985 Y118.145 E11.6282
G1 X87.943 Y117.226 E11.6588
G1 X87.983 Y116.281 E11.69026
G1 X88.1 Y114.957 E11.73447
G1 X88.299 Y113.102 E11.79652
G1 X88.394 Y112.318 E11.82279
G1 X88.545 Y111.41 E11.8534
G1 X88.782 Y110.492 E11.88494
G1 X89.076 Y109.534 E11.91827
G1 X89.887 Y107.052 E12.00511
G1 X90.138 Y106.316 E12.03098
G1 X90.474 Y105.459 E12.06159
G1 X90.885 Y104.629 E12.0924
G1 X91.345 Y103.795 E12.12408
G1 X91.448 Y103.612 E12.13106
G1 X92.644 Y101.544 E12.21052
G1 X92.996 Y100.953 E12.2334
G1 X93.501 Y100.183 E12.26402
G1 X94.075 Y99.455 E12.29486
G1 X94.695 Y98.736 E12.32643
G1 X94.829 Y98.584 E12.33317
G1 X96.437 Y96.791 E12.41328
G1 X96.834 Y96.359 E12.43279
G0 F6000 X97.129 Y96.629
G1 F1200 X97.769 Y95.992 E12.46283
G1 X98.473 Y95.406 E12.49329
G1 X99.352 Y94.739 E12.52999
G1 X99.522 Y94.613 E12.53703
G1 X101.624 Y93.086 E12.62344
G1 X102.19 Y92.687 E12.64648
G1 X102.95 Y92.2 E12.6765
G1 X103.672 Y91.82 E12.70363
G1 X104.078 Y91.629 E12.71856
G1 X104.463 Y91.457 E12.73258
G1 X106.929 Y90.386 E12.822
G1 X107.559 Y90.123 E12.84471
G1 X108.407 Y89.813 E12.87474
G1 X109.18 Y89.601 E12.9014
G1 X109.975 Y89.417 E12.92854
G1 X112.977 Y88.762 E13.03074
G1 X113.699 Y88.616 E13.05524
G1 X114.592 Y88.477 E13.08529
G1 X115.412 Y88.419 E13.11264
G1 X115.874 Y88.407 E13.12801
G1 X116.173 Y88.404 E13.13795
G1 X119.099 Y88.406 E13.23527
G1 X119.705 Y88.415 E13.25543
G1 X120.607 Y88.468 E13.28548
G1 X121.483 Y88.598 E13.31494
G1 X122.558 Y88.805 E13.35135
G1 X122.774 Y88.849 E13.35868
G1 X124.905 Y89.309 E13.43119
G1 X125.576 Y89.464 E13.4541
G1 X126.446 Y89.706 E13.48413
G1 X127.24 Y90.002 E13.51231
G1 X128.193 Y90.405 E13.54673
G1 X130.526 Y91.438 E13.63159
G1 X131.145 Y91.722 E13.65424
G1 X131.949 Y92.135 E13.68431
G1 X132.715 Y92.619 E13.71444
G1 X133.215 Y92.969 E13.73474
G1 X135.757 Y94.818 E13.83929
G1 X136.287 Y95.215 E13.86131
G1 X136.985 Y95.788 E13.89135
G1 X137.602 Y96.391 E13.92005
G1 X138.234 Y97.063 E13.95073
G1 X140.051 Y99.065 E14.04065
G1 X140.159 Y99.185 E14.04602
G1 X140.599 Y99.686 E14.0682
G1 X141.164 Y100.39 E14.09822
G1 X141.574 Y100.994 E14.1225
G1 X141.751 Y101.276 E14.13357
G1 X141.947 Y101.601 E14.1462
G1 X143.404 Y104.128 E14.24322
G1 X143.73 Y104.711 E14.26543
G1 X144.135 Y105.518 E14.29546
G1 X144.466 Y106.352 E14.32531
G1 X144.825 Y107.389 E14.36181
G1 X145.087 Y108.193 E14.38993
G1 X145.277 Y108.791 E14.4108
G1 X145.681 Y110.087 E14.45595
G1 X145.892 Y110.801 E14.48071
G1 X146.109 Y111.678 E14.51076
G1 X146.232 Y112.429 E14.53607
G1 X146.322 Y113.163 E14.56067
G1 X146.568 Y115.429 E14.63648
G1 X146.63 Y116.073 E14.658
G1 X146.677 Y116.974 E14.68801
G1 X146.644 Y117.874 E14.71796
G1 X146.56 Y118.91 E14.75253
G1 X146.541 Y119.114 E14.75935
G1 X146.253 Y121.945 E14.85399
G1 X146.178 Y122.592 E14.87566
G1 X146.035 Y123.483 E14.90567
G1 X145.844 Y124.251 E14.93199
G1 X145.774 Y124.493 E14.94037
G1 X145.67 Y124.831 E14.95213
G1 X144.668 Y127.889 E15.05916
G1 X144.456 Y128.504 E15.0808
G1 X144.124 Y129.344 E15.11084
G1 X143.761 Y130.076 E15.13802
G1 X143.302 Y130.912 E15.16974
G1 X142.006 Y133.188 E15.25685
G1 X141.634 Y133.82 E15.28124
G1 X141.142 Y134.577 E15.31127
G1 X140.639 Y135.225 E15.33855
G1 X140.455 Y135.443 E15.34804
G1 X140.251 Y135.677 E15.35837
G1 X138.117 Y138.053 E15.46459
G1 X137.631 Y138.577 E15.48836
G1 X136.988 Y139.212 E15.51841
G1 X136.34 Y139.75 E15.54643
G1 X136.023 Y139.989 E15.55963
G1 X135.551 Y140.334 E15.57908
G1 X135.177 Y140.612 E15.59458
G1 X133.606 Y141.765 E15.65939
G1 X132.935 Y142.243 E15.68679
G1 X132.177 Y142.734 E15.71683
G1 X131.46 Y143.116 E15.74385
G1 X131.074 Y143.299 E15.75806
G1 X130.619 Y143.503 E15.77464
G1 X127.863 Y144.709 E15.8747
G1 X127.21 Y144.985 E15.89828
G1 X126.363 Y145.3 E15.92834
G1 X125.549 Y145.525 E15.95643
G1 X124.681 Y145.726 E15.98606
G1 X122.313 Y146.24 E16.06665
G1 X121.612 Y146.382 E16.09044
G1 X120.72 Y146.522 E16.12047
G1 X119.917 Y146.58 E16.14725
G1 X119.608 Y146.59 E16.15753
G1 X119.281 Y146.595 E16.16841
G1 X115.955 Y146.595 E16.27903
G1 X115.529 Y146.589 E16.2932
G1 X115.17 Y146.578 E16.30515
G1 X114.724 Y146.556 E16.32
G1 X113.825 Y146.471 E16.35004
G1 X113.274 Y146.379 E16.36862
G1 X112.474 Y146.222 E16.39573
G1 X110.202 Y145.742 E16.47297
G1 X109.485 Y145.579 E16.49742
G1 X108.614 Y145.34 E16.52746
G1 X107.892 Y145.077 E16.55302
G1 X107.718 Y145.006 E16.55927
G1 X107.421 Y144.879 E16.57002
G1 X107.044 Y144.711 E16.58374
G1 X104.219 Y143.427 E16.68695
G1 X103.597 Y143.134 E16.70982
G1 X102.798 Y142.714 E16.73984
G1 X102.085 Y142.256 E16.76803
G1 X101.259 Y141.675 E16.80162
G1 X99.501 Y140.395 E16.87395
G1 X98.938 Y139.973 E16.89735
G1 X98.547 Y139.664 E16.91392
G1 X98.325 Y139.48 E16.92351
G1 X98.034 Y139.229 E16.9363
G1 X97.816 Y139.034 E16.94602
G1 X97.22 Y138.456 E16.97364
G1 X97.012 Y138.237 E16.98368
G1 X96.685 Y137.88 E16.99979
G1 X94.921 Y135.9 E17.08798
G1 X94.479 Y135.39 E17.11043
G1 X93.918 Y134.682 E17.14048
G1 X93.451 Y133.975 E17.16866
G1 X92.975 Y133.183 E17.19939
G1 X91.581 Y130.792 E17.29144
G1 X91.245 Y130.198 E17.31414
G1 X90.836 Y129.393 E17.34418
G1 X90.529 Y128.64 E17.37122
G1 X90.399 Y128.268 E17.38433
G1 X90.207 Y127.685 E17.40474
G1 X89.455 Y125.308 E17.48766
G1 X89.249 Y124.624 E17.51142
G1 X89.027 Y123.749 E17.54145
G1 X88.89 Y122.908 E17.56979
