;FLAVOR:Marlin
;TIME:22468
;Filament used: 12.3243m
;Layer height: 0.3
;MINX:50.349
;MINY:78.159
;MINZ:0.2
;MAXX:139.865
;MAXY:182.759
;MAXZ:20
;Generated with Cura_SteamEngine 4.8.0
M140 S110
M105
M190 S110
M104 S255
M105
M109 S255
M82 ;absolute extrusion mode
; Ender 3 Custom Start G-code
G92 E0 ; Reset Extruder
G28 ; Home all axes
G1 Z2.0 F3000 ; Move Z Axis up little to prevent scratching of Heat Bed
G1 X0.1 Y20 Z0.3 F5000.0 ; Move to start position
G1 X0.1 Y200.0 Z0.3 F1500.0 E15 ; Draw the first line
G1 X0.4 Y200.0 Z0.3 F5000.0 ; Move to side a little
G1 X0.4 Y20 Z0.3 F1500.0 E30 ; Draw the second line
G92 E0 ; Reset Extruder
G1 Z2.0 F3000 ; Move Z Axis up little to prevent scratching of Heat Bed
G1 X5 Y20 Z0.3 F5000.0 ; Move over to prevent blob squish
G92 E0
G92 E0
G1 F1500 E-8
;LAYER_COUNT:67
;LAYER:0
M107
G1 F300 Z0.4
;MESH:Ender3_Original_Mini_tray.stl
G0 F6000 X129.914 Y181.792 Z0.4
;TYPE:WALL-INNER
G1 F300 Z0.2
G1 F1500 E0
G1 F1200 X54.339 Y181.793 E2.51363
G1 X51.322 Y181.787 E2.61398
G1 X51.315 Y178.835 E2.71216
G1 X51.317 Y178.282 E2.73056
G1 X51.316 Y82.087 E5.93002
G1 X51.321 Y79.132 E6.0283
G1 X54.25 Y79.124 E6.12572
G1 X54.796 Y79.126 E6.14388
G1 X131.963 Y79.125 E8.71046
G1 X135.053 Y79.131 E8.81324
G1 X135.466 Y79.153 E8.82699
G1 X135.887 Y79.22 E8.84117
G1 X136.258 Y79.323 E8.85398
G1 X136.635 Y79.468 E8.86741
G1 X136.994 Y79.655 E8.88088
G1 X137.328 Y79.874 E8.89416
G1 X137.63 Y80.118 E8.90707
G1 X137.929 Y80.421 E8.92123
G1 X138.167 Y80.716 E8.93384
G1 X138.38 Y81.048 E8.94696
G1 X138.571 Y81.428 E8.9611
G1 X138.711 Y81.791 E8.97405
G1 X138.809 Y82.168 E8.987
G1 X138.873 Y82.577 E9.00077
G1 X138.893 Y82.97 E9.01386
G1 X138.9 Y86.038 E9.1159
G1 X138.898 Y86.582 E9.13399
G1 X138.899 Y166.875 E11.80455
G1 X138.893 Y169.784 E11.9013
G1 X136.106 Y169.792 E11.994
G1 X133.684 Y169.783 E12.07456
G1 X133.683 Y169.783 E12.07459
G1 X133.481 Y169.783 E12.08131
G1 X133.483 Y169.985 E12.08564
G1 X133.484 Y169.986 E12.08569
G1 X133.496 Y170.769 E12.11173
G1 X133.496 Y178.795 E12.37868
G1 X133.49 Y181.786 E12.47816
G1 X130.475 Y181.794 E12.57844
G1 X129.914 Y181.792 E12.5971
G0 F6000 X129.913 Y182.192
;TYPE:WALL-OUTER
G1 F1200 X54.339 Y182.193 E15.1107
G1 X51.178 Y182.187 E15.21584
G1 X51.031 Y182.144 E15.22093
G1 X50.922 Y181.937 E15.22871
G1 X50.915 Y178.834 E15.33192
G1 X50.917 Y178.281 E15.35031
G1 X50.916 Y82.087 E18.54974
G1 X50.921 Y78.989 E18.65278
G1 X50.965 Y78.84 E18.65794
G1 X51.171 Y78.732 E18.66568
G1 X54.25 Y78.724 E18.76809
G1 X54.797 Y78.726 E18.78628
G1 X131.963 Y78.725 E21.35283
G1 X135.055 Y78.731 E21.45567
G1 X135.514 Y78.755 E21.47096
G1 X135.967 Y78.828 E21.48622
G1 X136.386 Y78.944 E21.50068
G1 X136.804 Y79.105 E21.51558
G1 X137.196 Y79.309 E21.53028
G1 X137.565 Y79.55 E21.54494
G1 X137.899 Y79.821 E21.55924
G1 X138.224 Y80.15 E21.57462
G1 X138.49 Y80.48 E21.58872
G1 X138.732 Y80.856 E21.60359
G1 X138.934 Y81.259 E21.61859
G1 X139.093 Y81.673 E21.63334
G1 X139.201 Y82.085 E21.6475
G1 X139.271 Y82.533 E21.66259
G1 X139.293 Y82.969 E21.67711
G1 X139.3 Y86.039 E21.77921
G1 X139.298 Y86.583 E21.79731
G1 X139.299 Y166.875 E24.46783
G1 X139.293 Y169.968 E24.5707
G1 X139.262 Y170.064 E24.57406
G1 X139.169 Y170.155 E24.57839
G1 X139.041 Y170.184 E24.58275
G1 X136.106 Y170.192 E24.68037
G1 X133.887 Y170.184 E24.75418
G1 X133.896 Y170.769 E24.77364
G1 X133.896 Y178.795 E25.04058
G1 X133.89 Y181.97 E25.14618
G1 X133.859 Y182.066 E25.14954
G1 X133.765 Y182.157 E25.15389
G1 X133.639 Y182.186 E25.15819
G1 X130.475 Y182.194 E25.26343
G1 X129.913 Y182.192 E25.28212
G0 F6000 X129.913 Y181.752
G0 X129.916 Y181.402
;TYPE:SKIN
G1 F1200 X54.341 Y181.403 E27.79575
G1 X51.712 Y181.397 E27.88319
G1 X51.705 Y178.837 E27.96834
G1 X51.707 Y178.284 E27.98673
G1 X51.706 Y82.089 E31.18619
G1 X51.711 Y79.521 E31.2716
G1 X54.249 Y79.514 E31.35602
G1 X54.794 Y79.516 E31.37414
G1 X131.961 Y79.515 E33.94073
G1 X135.032 Y79.521 E34.04287
G1 X135.423 Y79.541 E34.05589
G1 X135.807 Y79.603 E34.06883
G1 X136.139 Y79.696 E34.0803
G1 X136.474 Y79.824 E34.09223
G1 X136.797 Y79.992 E34.10434
G1 X137.094 Y80.187 E34.11615
G1 X137.379 Y80.417 E34.12833
G1 X137.629 Y80.67 E34.14016
G1 X137.858 Y80.954 E34.1523
G1 X138.036 Y81.233 E34.1633
G1 X138.213 Y81.587 E34.17647
G1 X138.338 Y81.91 E34.18799
G1 X138.425 Y82.245 E34.1995
G1 X138.485 Y82.62 E34.21213
G1 X138.503 Y82.98 E34.22412
G1 X138.51 Y86.036 E34.32576
G1 X138.508 Y86.58 E34.34386
G1 X138.509 Y166.873 E37.01441
G1 X138.503 Y169.396 E37.09833
G1 X136.106 Y169.402 E37.17805
G1 X133.085 Y169.391 E37.27853
G1 X133.106 Y170.769 E37.32437
G1 X133.106 Y178.795 E37.59132
G1 X133.1 Y181.397 E37.67786
G1 X130.476 Y181.404 E37.76513
G1 X129.916 Y181.402 E37.78376
G1 F1500 E29.78376
G1 F300 Z0.4
G0 F6000 X52.26 Y181.237 Z0.4
G1 F300 Z0.2
G1 F1500 E37.78376
G1 F1200 X51.869 Y180.846 E37.80215
G0 F6000 X51.868 Y180.278
G1 F1200 X52.827 Y181.238 E37.84728
G0 F6000 X53.394 Y181.239
G1 F1200 X51.866 Y179.711 E37.91916
G0 F6000 X51.865 Y179.144
G1 F1200 X53.961 Y181.24 E38.01775
G0 F6000 X54.527 Y181.241
G1 F1200 X51.865 Y178.579 E38.14296
G0 F6000 X51.866 Y178.014
G1 F1200 X55.093 Y181.241 E38.29475
G0 F6000 X55.659 Y181.241
G1 F1200 X51.866 Y177.448 E38.47316
G0 F6000 X51.866 Y176.882
G1 F1200 X56.224 Y181.241 E38.67817
G0 F6000 X56.79 Y181.241
G1 F1200 X51.866 Y176.317 E38.90978
G0 F6000 X51.866 Y175.751
G1 F1200 X57.356 Y181.241 E39.16801
G0 F6000 X57.921 Y181.241
G1 F1200 X51.866 Y175.185 E39.45284
G0 F6000 X51.866 Y174.62
G1 F1200 X58.487 Y181.241 E39.76427
G0 F6000 X59.053 Y181.241
G1 F1200 X51.866 Y174.054 E40.10233
G0 F6000 X51.866 Y173.488
G1 F1200 X59.619 Y181.241 E40.46701
G0 F6000 X60.184 Y181.241
G1 F1200 X51.866 Y172.922 E40.85828
G0 F6000 X51.866 Y172.357
G1 F1200 X60.75 Y181.241 E41.27616
G0 F6000 X61.316 Y181.241
G1 F1200 X51.866 Y171.791 E41.72066
G0 F6000 X51.866 Y171.225
G1 F1200 X61.881 Y181.241 E42.19176
G0 F6000 X62.447 Y181.241
G1 F1200 X51.866 Y170.66 E42.68945
G0 F6000 X51.866 Y170.094
G1 F1200 X63.013 Y181.241 E43.21377
G0 F6000 X63.578 Y181.241
G1 F1200 X51.866 Y169.528 E43.76469
G0 F6000 X51.866 Y168.963
G1 F1200 X64.144 Y181.241 E44.34221
G0 F6000 X64.71 Y181.241
G1 F1200 X51.866 Y168.397 E44.94636
G0 F6000 X51.866 Y167.831
G1 F1200 X65.275 Y181.241 E45.5771
G0 F6000 X65.841 Y181.241
G1 F1200 X51.866 Y167.266 E46.23444
G0 F6000 X51.866 Y166.7
G1 F1200 X66.407 Y181.241 E46.9184
G0 F6000 X66.972 Y181.241
G1 F1200 X51.866 Y166.134 E47.62897
G0 F6000 X51.866 Y165.569
G1 F1200 X67.538 Y181.241 E48.36613
G0 F6000 X68.104 Y181.241
G1 F1200 X51.866 Y165.003 E49.12991
G0 F6000 X51.866 Y164.437
G1 F1200 X68.669 Y181.241 E49.9203
G0 F6000 X69.235 Y181.241
G1 F1200 X51.866 Y163.871 E50.73731
G0 F6000 X51.866 Y163.306
G1 F1200 X69.801 Y181.241 E51.58092
G0 F6000 X70.367 Y181.241
G1 F1200 X51.866 Y162.74 E52.45115
G0 F6000 X51.866 Y162.174
G1 F1200 X70.932 Y181.241 E53.34798
G0 F6000 X71.498 Y181.241
G1 F1200 X51.866 Y161.609 E54.2714
G0 F6000 X51.866 Y161.043
G1 F1200 X72.064 Y181.241 E55.22146
G0 F6000 X72.629 Y181.241
G1 F1200 X51.866 Y160.477 E56.19811
G0 F6000 X51.866 Y159.912
G1 F1200 X73.195 Y181.241 E57.20136
G0 F6000 X73.761 Y181.241
G1 F1200 X51.866 Y159.346 E58.23123
G0 F6000 X51.866 Y158.78
G1 F1200 X74.326 Y181.241 E59.28771
G0 F6000 X74.892 Y181.241
G1 F1200 X51.866 Y158.215 E60.37078
G0 F6000 X51.866 Y157.649
G1 F1200 X75.458 Y181.241 E61.48047
G0 F6000 X76.023 Y181.241
G1 F1200 X51.866 Y157.083 E62.61677
G0 F6000 X51.866 Y156.518
G1 F1200 X76.589 Y181.241 E63.77966
G0 F6000 X77.155 Y181.241
G1 F1200 X51.866 Y155.952 E64.96918
G0 F6000 X51.866 Y155.386
G1 F1200 X77.72 Y181.241 E66.1853
G0 F6000 X78.286 Y181.241
G1 F1200 X51.866 Y154.821 E67.42801
G0 F6000 X51.866 Y154.255
G1 F1200 X78.852 Y181.241 E68.69735
G0 F6000 X79.417 Y181.241
G1 F1200 X51.866 Y153.689 E69.99329
G0 F6000 X51.866 Y153.123
G1 F1200 X79.983 Y181.241 E71.31585
G0 F6000 X80.549 Y181.241
G1 F1200 X51.866 Y152.558 E72.66501
G0 F6000 X51.866 Y151.992
G1 F1200 X81.115 Y181.241 E74.04079
G0 F6000 X81.68 Y181.241
G1 F1200 X51.866 Y151.426 E75.44318
G0 F6000 X51.866 Y150.861
G1 F1200 X82.246 Y181.241 E76.87216
G0 F6000 X82.812 Y181.241
G1 F1200 X51.866 Y150.295 E78.32776
G0 F6000 X51.866 Y149.729
G1 F1200 X83.377 Y181.241 E79.80997
G0 F6000 X83.943 Y181.241
G1 F1200 X51.866 Y149.164 E81.31877
G0 F6000 X51.866 Y148.598
G1 F1200 X84.509 Y181.241 E82.8542
G0 F6000 X85.074 Y181.241
G1 F1200 X51.866 Y148.032 E84.41622
G0 F6000 X51.866 Y147.467
G1 F1200 X85.64 Y181.241 E86.00485
G0 F6000 X86.206 Y181.241
G1 F1200 X51.866 Y146.901 E87.6201
G0 F6000 X51.866 Y146.335
G1 F1200 X86.771 Y181.241 E89.26194
G0 F6000 X87.337 Y181.241
G1 F1200 X51.866 Y145.77 E90.93039
G0 F6000 X51.866 Y145.204
G1 F1200 X87.903 Y181.241 E92.62546
G0 F6000 X88.468 Y181.241
G1 F1200 X51.866 Y144.638 E94.34713
G0 F6000 X51.866 Y144.073
G1 F1200 X89.034 Y181.241 E96.0954
G0 F6000 X89.6 Y181.241
G1 F1200 X51.866 Y143.507 E97.87029
G0 F6000 X51.866 Y142.941
G1 F1200 X90.166 Y181.241 E99.67181
G0 F6000 X90.731 Y181.241
G1 F1200 X51.866 Y142.375 E101.49992
G0 F6000 X51.866 Y141.81
G1 F1200 X91.297 Y181.241 E103.35463
G0 F6000 X91.863 Y181.241
G1 F1200 X51.866 Y141.244 E105.23597
G0 F6000 X51.866 Y140.678
G1 F1200 X92.428 Y181.241 E107.14391
G0 F6000 X92.994 Y181.241
G1 F1200 X51.866 Y140.113 E109.07844
G0 F6000 X51.866 Y139.547
G1 F1200 X93.56 Y181.241 E111.0396
G0 F6000 X94.125 Y181.241
G1 F1200 X51.866 Y138.981 E113.02736
G0 F6000 X51.866 Y138.416
G1 F1200 X94.691 Y181.241 E115.04171
G0 F6000 X95.257 Y181.241
G1 F1200 X51.866 Y137.85 E117.08269
G0 F6000 X51.866 Y137.284
G1 F1200 X95.822 Y181.241 E119.15027
G0 F6000 X96.388 Y181.241
G1 F1200 X51.866 Y136.719 E121.24445
G0 F6000 X51.866 Y136.153
G1 F1200 X96.954 Y181.241 E123.36525
G0 F6000 X97.519 Y181.241
G1 F1200 X51.866 Y135.587 E125.51265
G0 F6000 X51.866 Y135.022
G1 F1200 X98.085 Y181.241 E127.68665
G0 F6000 X98.651 Y181.241
G1 F1200 X51.866 Y134.456 E129.88727
G0 F6000 X51.866 Y133.89
G1 F1200 X99.216 Y181.241 E132.1145
G0 F6000 X99.782 Y181.241
G1 F1200 X51.866 Y133.324 E134.36834
G0 F6000 X51.866 Y132.759
G1 F1200 X100.348 Y181.241 E136.64879
G0 F6000 X100.914 Y181.241
G1 F1200 X51.866 Y132.193 E138.95585
G0 F6000 X51.866 Y131.627
G1 F1200 X101.479 Y181.241 E141.28952
G0 F6000 X102.045 Y181.241
G1 F1200 X51.866 Y131.062 E143.64979
G0 F6000 X51.866 Y130.496
G1 F1200 X102.611 Y181.241 E146.03668
G0 F6000 X103.176 Y181.241
G1 F1200 X51.866 Y129.93 E148.45017
G0 F6000 X51.866 Y129.365
G1 F1200 X103.742 Y181.241 E150.89025
G0 F6000 X104.308 Y181.241
G1 F1200 X51.866 Y128.799 E153.35696
G0 F6000 X51.866 Y128.233
G1 F1200 X104.873 Y181.241 E155.85027
G0 F6000 X105.439 Y181.241
G1 F1200 X51.866 Y127.668 E158.37018
G0 F6000 X51.866 Y127.102
G1 F1200 X106.005 Y181.241 E160.91672
G0 F6000 X106.57 Y181.241
G1 F1200 X51.866 Y126.536 E163.48985
G0 F6000 X51.866 Y125.971
G1 F1200 X107.136 Y181.241 E166.08958
G0 F6000 X107.702 Y181.241
G1 F1200 X51.866 Y125.405 E168.71593
G0 F6000 X51.866 Y124.839
G1 F1200 X108.267 Y181.241 E171.36889
G0 F6000 X108.833 Y181.241
G1 F1200 X51.866 Y124.274 E174.04844
G0 F6000 X51.866 Y123.708
G1 F1200 X109.399 Y181.241 E176.75462
G0 F6000 X109.965 Y181.241
G1 F1200 X51.866 Y123.142 E179.48742
G0 F6000 X51.866 Y122.576
G1 F1200 X110.53 Y181.241 E182.24681
G0 F6000 X111.096 Y181.241
G1 F1200 X51.866 Y122.011 E185.03281
G0 F6000 X51.866 Y121.445
G1 F1200 X111.662 Y181.241 E187.84543
G0 F6000 X112.227 Y181.241
G1 F1200 X51.866 Y120.879 E190.68465
G0 F6000 X51.866 Y120.314
G1 F1200 X112.793 Y181.241 E193.55047
G0 F6000 X113.359 Y181.241
G1 F1200 X51.866 Y119.748 E196.44291
G0 F6000 X51.866 Y119.182
G1 F1200 X113.924 Y181.241 E199.36195
G0 F6000 X114.49 Y181.241
G1 F1200 X51.866 Y118.617 E202.3076
G0 F6000 X51.866 Y118.051
G1 F1200 X115.056 Y181.241 E205.27986
G0 F6000 X115.621 Y181.241
G1 F1200 X51.866 Y117.485 E208.27872
G0 F6000 X51.866 Y116.92
G1 F1200 X116.187 Y181.241 E211.30419
G0 F6000 X116.753 Y181.241
G1 F1200 X51.866 Y116.354 E214.35627
G0 F6000 X51.866 Y115.788
G1 F1200 X117.318 Y181.241 E217.43496
G0 F6000 X117.884 Y181.241
G1 F1200 X51.866 Y115.223 E220.54024
G0 F6000 X51.866 Y114.657
G1 F1200 X118.45 Y181.241 E223.67215
G0 F6000 X119.015 Y181.241
G1 F1200 X51.866 Y114.091 E226.83065
G0 F6000 X51.866 Y113.525
G1 F1200 X119.581 Y181.241 E230.01578
G0 F6000 X120.147 Y181.241
G1 F1200 X51.866 Y112.96 E233.22751
G0 F6000 X51.866 Y112.394
G1 F1200 X120.713 Y181.241 E236.46586
G0 F6000 X121.278 Y181.241
G1 F1200 X51.866 Y111.828 E239.73082
G0 F6000 X51.866 Y111.263
G1 F1200 X121.844 Y181.241 E243.02237
G0 F6000 X122.41 Y181.241
G1 F1200 X51.866 Y110.697 E246.34054
G0 F6000 X51.866 Y110.131
G1 F1200 X122.975 Y181.241 E249.68531
G0 F6000 X123.541 Y181.241
G1 F1200 X51.866 Y109.566 E253.05668
G0 F6000 X51.866 Y109
G1 F1200 X124.107 Y181.241 E256.45468
G0 F6000 X124.672 Y181.241
G1 F1200 X51.866 Y108.434 E259.87927
G0 F6000 X51.866 Y107.869
G1 F1200 X125.238 Y181.241 E263.33047
G0 F6000 X125.804 Y181.241
G1 F1200 X51.866 Y107.303 E266.80829
G0 F6000 X51.866 Y106.737
G1 F1200 X126.369 Y181.241 E270.3127
G0 F6000 X126.935 Y181.241
G1 F1200 X51.866 Y106.172 E273.84372
G0 F6000 X51.866 Y105.606
G1 F1200 X127.501 Y181.241 E277.40136
G0 F6000 X128.066 Y181.241
G1 F1200 X51.866 Y105.04 E280.98559
G0 F6000 X51.866 Y104.475
G1 F1200 X128.632 Y181.241 E284.59643
G0 F6000 X129.198 Y181.241
G1 F1200 X51.866 Y103.909 E288.23389
G0 F6000 X51.866 Y103.343
G1 F1200 X129.763 Y181.241 E291.89795
G0 F6000 X130.331 Y181.242
G1 F1200 X51.866 Y102.777 E295.5887
G0 F6000 X51.866 Y102.212
G1 F1200 X130.896 Y181.242 E299.30603
G0 F6000 X131.46 Y181.24
G1 F1200 X51.866 Y101.646 E303.04989
G0 F6000 X51.866 Y101.08
G1 F1200 X132.024 Y181.239 E306.8203
G0 F6000 X132.589 Y181.238
G1 F1200 X51.866 Y100.515 E310.61726
G0 F6000 X51.866 Y99.949
G1 F1200 X132.941 Y181.024 E314.43078
G0 F6000 X132.943 Y180.46
G1 F1200 X51.866 Y99.383 E318.2444
G0 F6000 X51.866 Y98.818
G1 F1200 X132.943 Y179.895 E322.05801
G0 F6000 X132.945 Y179.331
G1 F1200 X51.866 Y98.252 E325.87172
G0 F6000 X51.866 Y97.686
G1 F1200 X132.945 Y178.766 E329.68545
G0 F6000 X132.945 Y178.2
G1 F1200 X51.866 Y97.121 E333.49916
G0 F6000 X51.866 Y96.555
G1 F1200 X132.945 Y177.635 E337.31289
G0 F6000 X132.945 Y177.069
G1 F1200 X51.866 Y95.989 E341.12662
G0 F6000 X51.866 Y95.424
G1 F1200 X132.945 Y176.503 E344.94032
G0 F6000 X132.945 Y175.938
G1 F1200 X51.866 Y94.858 E348.75406
G0 F6000 X51.866 Y94.292
G1 F1200 X132.945 Y175.372 E352.56779
G0 F6000 X132.945 Y174.806
G1 F1200 X51.866 Y93.727 E356.38149
G0 F6000 X51.866 Y93.161
G1 F1200 X132.945 Y174.241 E360.19523
G0 F6000 X132.945 Y173.675
G1 F1200 X51.866 Y92.595 E364.00896
G0 F6000 X51.866 Y92.029
G1 F1200 X132.945 Y173.109 E367.82269
G0 F6000 X132.945 Y172.543
G1 F1200 X51.866 Y91.464 E371.6364
G0 F6000 X51.866 Y90.898
G1 F1200 X132.945 Y171.978 E375.45013
G0 F6000 X132.945 Y171.412
G1 F1200 X51.866 Y90.332 E379.26386
G0 F6000 X51.866 Y89.767
G1 F1200 X132.945 Y170.846 E383.07757
G0 F6000 X132.938 Y170.274
G1 F1200 X51.866 Y89.201 E386.89097
G0 F6000 X51.866 Y88.635
G1 F1200 X132.93 Y169.699 E390.70397
G0 F6000 X133.025 Y169.229
G1 F1200 X51.866 Y88.07 E394.52144
G0 F6000 X51.866 Y87.504
G1 F1200 X133.592 Y169.231 E398.3656
G0 F6000 X134.16 Y169.233
G1 F1200 X51.866 Y86.938 E402.23648
G0 F6000 X51.866 Y86.373
G1 F1200 X134.728 Y169.235 E406.13406
G0 F6000 X135.296 Y169.237
G1 F1200 X51.866 Y85.807 E410.05835
G0 F6000 X51.866 Y85.241
G1 F1200 X135.864 Y169.239 E414.00936
G0 F6000 X136.429 Y169.239
G1 F1200 X51.866 Y84.676 E417.98694
G0 F6000 X51.866 Y84.11
G1 F1200 X136.994 Y169.238 E421.9911
G0 F6000 X137.558 Y169.236
G1 F1200 X51.866 Y83.544 E426.02179
G0 F6000 X51.866 Y82.978
G1 F1200 X138.122 Y169.235 E430.07903
G0 F6000 X138.344 Y168.891
G1 F1200 X51.866 Y82.413 E434.14669
G0 F6000 X51.866 Y81.847
G1 F1200 X138.346 Y168.327 E438.21445
G0 F6000 X138.346 Y167.762
G1 F1200 X51.867 Y81.283 E442.28215
G0 F6000 X51.868 Y80.718
G1 F1200 X138.348 Y167.198 E446.34991
G0 F6000 X138.348 Y166.633
G1 F1200 X51.869 Y80.154 E450.41762
G0 F6000 X51.96 Y79.678
