;FLAVOR:Marlin
;TIME:5136
;Filament used: 2.32574m
;Layer height: 0.2
;MINX:89.596
;MINY:81.788
;MINZ:0.2
;MAXX:153.44
;MAXY:123.544
;MAXZ:32
;Generated with Cura_SteamEngine 4.8.0
M140 S110
M105
M190 S110
M104 S240
M105
M109 S240
M82 ;absolute extrusion mode
; Ender 3 Custom Start G-code
G92 E0 ; Reset Extruder
G28 ; Home all axes
G1 Z2.0 F3000 ; Move Z Axis up little to prevent scratching of Heat Bed
G1 X0.1 Y20 Z0.3 F5000.0 ; Move to start position
G1 X0.1 Y200.0 Z0.3 F1500.0 E15 ; Draw the first line
G1 X0.4 Y200.0 Z0.3 F5000.0 ; Move to side a little
G1 X0.4 Y20 Z0.3 F1500.0 E30 ; Draw the second line
G92 E0 ; Reset Extruder
G1 Z2.0 F3000 ; Move Z Axis up little to prevent scratching of Heat Bed
G1 X5 Y20 Z0.3 F5000.0 ; Move over to prevent blob squish
G92 E0
G92 E0
G1 F2700 E-5
;LAYER_COUNT:160
;LAYER:0
M107
G0 F6000 X93.226 Y90.399 Z0.2
;TYPE:SKIRT
G1 F2700 E0
G1 F1200 X93.896 Y89.742 E0.03121
G1 X94.508 Y89.23 E0.05775
G1 X94.745 Y89.046 E0.06773
G1 X95.51 Y88.503 E0.09893
G1 X96.46 Y87.953 E0.13544
G1 X96.705 Y87.827 E0.1446
G1 X96.959 Y87.7 E0.15405
G1 X97.49 Y87.444 E0.17366
G1 X98.351 Y87.074 E0.20483
G1 X99.54 Y86.696 E0.24632
G1 X99.751 Y86.642 E0.25357
G1 X100.065 Y86.567 E0.2643
G1 X100.669 Y86.433 E0.28488
G1 X101.385 Y86.285 E0.3092
G1 X102.315 Y86.134 E0.34054
G1 X103.534 Y85.989 E0.38137
G1 X106.14 Y85.643 E0.4688
G1 X108.623 Y85.24 E0.55247
G1 X109.936 Y85.01 E0.5968
G1 X110.229 Y84.963 E0.60667
G1 X110.798 Y84.88 E0.6258
G1 X113.36 Y84.469 E0.7121
G1 X115.874 Y83.992 E0.79721
G1 X118.278 Y83.465 E0.87906
G1 X120.761 Y82.847 E0.96417
G1 X121.985 Y82.504 E1.00645
G1 X123.036 Y82.222 E1.04264
G1 X123.952 Y82.018 E1.07385
G1 X124.881 Y81.892 E1.10503
G1 X125.406 Y81.857 E1.12254
G1 X125.566 Y81.85 E1.12786
G1 X125.918 Y81.84 E1.13957
G1 X126.464 Y81.834 E1.15774
G1 X130.936 Y81.832 E1.30647
G1 X132.312 Y81.851 E1.35225
G1 X135.422 Y81.841 E1.45568
G1 X136.339 Y81.824 E1.48619
G1 X141.071 Y81.788 E1.64358
G1 X141.725 Y81.792 E1.66533
G1 X142.662 Y81.838 E1.69654
G1 X143.591 Y81.963 E1.72771
G1 X144.507 Y82.167 E1.75893
G1 X145.402 Y82.449 E1.79014
G1 X146.269 Y82.805 E1.82131
G1 X147.103 Y83.234 E1.8525
G1 X147.897 Y83.733 E1.88369
G1 X148.646 Y84.297 E1.91488
G1 X149.345 Y84.923 E1.94609
G1 X149.858 Y85.46 E1.97079
G1 X150.01 Y85.63 E1.97837
G1 X150.605 Y86.355 E2.00957
G1 X151.136 Y87.128 E2.04076
G1 X151.599 Y87.944 E2.07196
G1 X151.991 Y88.796 E2.10316
G1 X152.381 Y89.918 E2.14267
G1 X152.474 Y90.241 E2.15384
G1 X152.694 Y91.153 E2.18505
G1 X152.837 Y92.08 E2.21624
G1 X152.9 Y93.016 E2.24745
G1 X152.901 Y93.519 E2.26418
G1 X152.874 Y94.772 E2.30586
G1 X152.855 Y97.352 E2.39167
G1 X152.908 Y99.884 E2.47591
G1 X153.03 Y102.391 E2.55939
G1 X153.227 Y104.916 E2.64363
G1 X153.367 Y106.282 E2.6893
G1 X153.401 Y106.679 E2.70255
G1 X153.44 Y107.727 E2.73743
G1 X153.438 Y107.928 E2.74412
G1 X153.426 Y108.345 E2.75799
G1 X153.407 Y108.742 E2.77121
G1 X153.281 Y109.958 E2.81187
G1 X153.234 Y110.251 E2.82174
G1 X153.046 Y111.17 E2.85294
G1 X152.889 Y111.735 E2.87245
G1 X152.785 Y112.074 E2.88424
G1 X152.329 Y113.297 E2.92765
G1 X152.218 Y113.548 E2.93678
G1 X152.055 Y113.899 E2.94965
G1 X151.942 Y114.132 E2.95826
G1 X151.498 Y114.958 E2.98945
G1 X150.995 Y115.728 E3.02005
G1 X150.717 Y116.117 E3.03595
G1 X150.424 Y116.508 E3.0522
G1 X149.667 Y117.39 E3.09086
G1 X149.373 Y117.698 E3.10502
G1 X149.116 Y117.959 E3.1172
G1 X148.965 Y118.107 E3.12423
G1 X148.42 Y118.606 E3.14881
G1 X147.966 Y118.993 E3.16865
G1 X147.828 Y119.108 E3.17463
G1 X147.218 Y119.582 E3.20032
G1 X146.835 Y119.856 E3.21598
G1 X146.534 Y120.067 E3.22821
G1 X146.263 Y120.251 E3.23911
G1 X145.828 Y120.537 E3.25642
G1 X145.513 Y120.737 E3.26883
G1 X145.2 Y120.926 E3.28099
G1 X144.631 Y121.259 E3.30292
G1 X144.15 Y121.524 E3.32119
G1 X143.627 Y121.796 E3.34079
G1 X143.371 Y121.925 E3.35033
G1 X142.846 Y122.179 E3.36972
G1 X142.482 Y122.347 E3.38306
G1 X142.144 Y122.495 E3.39533
G1 X141.781 Y122.648 E3.40843
G1 X140.576 Y123.076 E3.45096
G1 X139.634 Y123.308 E3.48323
G1 X138.707 Y123.452 E3.51443
G1 X137.703 Y123.519 E3.5479
G1 X136.676 Y123.54 E3.58207
G1 X136.459 Y123.542 E3.58928
G1 X133.548 Y123.544 E3.6861
G1 X126.299 Y123.541 E3.92721
G1 X125.625 Y123.531 E3.94963
G1 X124.688 Y123.477 E3.98084
G1 X123.785 Y123.348 E4.01118
G1 X123.495 Y123.293 E4.021
G1 X121.131 Y122.82 E4.10119
G1 X118.636 Y122.392 E4.18538
G1 X116.123 Y122.035 E4.2698
G1 X113.636 Y121.754 E4.35305
G1 X111.151 Y121.542 E4.436
G1 X109.742 Y121.466 E4.48293
G1 X108.57 Y121.39 E4.52199
G1 X107.638 Y121.289 E4.55317
G1 X106.603 Y121.071 E4.58835
G1 X106.602 Y121.077 E4.58856
G1 X105.239 Y120.756 E4.63513
G1 X104.336 Y120.502 E4.66633
G1 X103.728 Y120.283 E4.68782
G1 X103.185 Y120.069 E4.70723
G1 X102.847 Y119.929 E4.7194
G1 X102.332 Y119.706 E4.73807
G1 X101.769 Y119.443 E4.75874
G1 X100.99 Y119.052 E4.78773
G1 X100.17 Y118.596 E4.81893
G1 X99.553 Y118.188 E4.84354
G1 X99.124 Y117.87 E4.8613
G1 X98.273 Y117.207 E4.89718
G1 X95.135 Y114.864 E5.02743
G1 X94.96 Y114.74 E5.03456
G1 X94.462 Y114.364 E5.05532
G1 X94.024 Y114.013 E5.07399
G1 X93.318 Y113.396 E5.10517
G1 X92.667 Y112.721 E5.13636
G1 X92.076 Y111.993 E5.16755
G1 X91.549 Y111.217 E5.19875
G1 X91.09 Y110.399 E5.22995
G1 X90.702 Y109.545 E5.26115
G1 X90.389 Y108.661 E5.29234
G1 X90.13 Y107.654 E5.32692
G1 X90.111 Y107.562 E5.33004
G1 X89.987 Y106.842 E5.35434
G1 X89.954 Y106.603 E5.36237
G1 X89.854 Y105.356 E5.40398
G1 X89.827 Y104.204 E5.4423
G1 X89.663 Y100.434 E5.56781
G1 X89.616 Y99.697 E5.59238
G1 X89.596 Y98.76 E5.62355
G1 X89.656 Y97.824 E5.65474
G1 X89.796 Y96.896 E5.68596
G1 X90.014 Y95.984 E5.71715
G1 X90.279 Y95.174 E5.74549
G1 X90.415 Y94.819 E5.75814
G1 X90.655 Y94.225 E5.77944
G1 X91.043 Y93.371 E5.81064
G1 X91.503 Y92.554 E5.84183
G1 X92.03 Y91.778 E5.87303
G1 X92.826 Y90.826 E5.9143
G1 X93.226 Y90.399 E5.93376
G0 F6000 X93.518 Y90.672
G1 F1200 X94.176 Y90.028 E5.96438
G1 X94.754 Y89.546 E5.98941
G1 X94.991 Y89.362 E5.99939
G1 X95.742 Y88.83 E6.03
G1 X96.643 Y88.309 E6.06462
G1 X96.888 Y88.183 E6.07378
G1 X97.133 Y88.061 E6.08289
G1 X97.664 Y87.805 E6.10249
G1 X98.51 Y87.441 E6.13313
G1 X99.639 Y87.084 E6.17251
G1 X99.85 Y87.03 E6.17975
G1 X100.152 Y86.957 E6.19009
G1 X100.75 Y86.824 E6.21046
G1 X101.466 Y86.676 E6.23478
G1 X102.362 Y86.531 E6.26497
G1 X103.628 Y86.381 E6.30737
G1 X106.155 Y86.044 E6.39216
G1 X108.719 Y85.629 E6.47855
G1 X110.004 Y85.404 E6.52194
G1 X110.287 Y85.358 E6.53148
G1 X110.915 Y85.266 E6.55259
G1 X113.432 Y84.862 E6.63737
G1 X115.963 Y84.382 E6.72306
G1 X118.381 Y83.853 E6.80538
G1 X120.838 Y83.241 E6.8896
G1 X122.089 Y82.89 E6.93281
G1 X123.14 Y82.608 E6.96901
G1 X124.039 Y82.408 E6.99964
G1 X124.951 Y82.287 E7.03024
G1 X125.424 Y82.256 E7.046
G1 X125.584 Y82.249 E7.05133
G1 X125.922 Y82.24 E7.06258
G1 X126.465 Y82.234 E7.08064
G1 X130.93 Y82.232 E7.22914
G1 X132.308 Y82.251 E7.27498
G1 X135.43 Y82.241 E7.37882
G1 X136.342 Y82.224 E7.40916
G1 X141.069 Y82.188 E7.56638
G1 X141.723 Y82.192 E7.58814
G1 X142.642 Y82.238 E7.61874
G1 X143.554 Y82.363 E7.64936
G1 X144.452 Y82.567 E7.67999
G1 X145.329 Y82.848 E7.71062
G1 X146.178 Y83.204 E7.74124
G1 X146.993 Y83.632 E7.77185
G1 X147.768 Y84.13 E7.80249
G1 X148.496 Y84.693 E7.8331
G1 X149.173 Y85.317 E7.86372
G1 X149.56 Y85.727 E7.88248
G1 X149.712 Y85.897 E7.89006
G1 X150.295 Y86.609 E7.92067
G1 X150.815 Y87.369 E7.9513
G1 X151.266 Y88.172 E7.98193
G1 X151.646 Y89.01 E8.01253
G1 X151.996 Y90.029 E8.04837
G1 X152.089 Y90.352 E8.05955
G1 X152.305 Y91.247 E8.09017
G1 X152.443 Y92.157 E8.12078
G1 X152.501 Y93.51 E8.16583
G1 X152.474 Y94.76 E8.20741
G1 X152.455 Y97.357 E8.29379
G1 X152.508 Y99.912 E8.37879
G1 X152.63 Y102.406 E8.46184
G1 X152.828 Y104.949 E8.54667
G1 X152.95 Y106.126 E8.58603
G1 X153.002 Y106.714 E8.60566
G1 X153.04 Y107.723 E8.63925
G1 X153.038 Y107.924 E8.64593
G1 X153.027 Y108.326 E8.65931
G1 X153.008 Y108.723 E8.67253
G1 X152.886 Y109.895 E8.71172
G1 X152.839 Y110.188 E8.72159
G1 X152.654 Y111.09 E8.75221
G1 X152.507 Y111.618 E8.77044
G1 X152.403 Y111.957 E8.78224
G1 X151.963 Y113.135 E8.82406
G1 X151.852 Y113.386 E8.83319
G1 X151.696 Y113.725 E8.8456
G1 X151.583 Y113.958 E8.85421
G1 X151.145 Y114.768 E8.88484
G1 X150.669 Y115.495 E8.91374
G1 X150.391 Y115.884 E8.92965
G1 X150.108 Y116.263 E8.94538
G1 X149.378 Y117.114 E8.98267
G1 X149.084 Y117.422 E8.99683
G1 X148.836 Y117.673 E9.00857
G1 X148.685 Y117.821 E9.0156
G1 X148.159 Y118.302 E9.03931
G1 X147.71 Y118.686 E9.05896
G1 X147.572 Y118.801 E9.06493
G1 X146.984 Y119.257 E9.08968
G1 X146.606 Y119.529 E9.10517
G1 X146.305 Y119.74 E9.1174
G1 X146.043 Y119.917 E9.12791
G1 X145.608 Y120.203 E9.14523
G1 X145.305 Y120.396 E9.15718
G1 X144.998 Y120.58 E9.16908
G1 X144.429 Y120.913 E9.19101
G1 X143.966 Y121.169 E9.2086
G1 X143.443 Y121.441 E9.22821
G1 X143.196 Y121.566 E9.23742
G1 X142.88 Y121.72 E9.24911
G1 X142.314 Y121.983 E9.26987
G1 X141.989 Y122.127 E9.28169
G1 X141.626 Y122.28 E9.29479
G1 X140.464 Y122.692 E9.3358
G1 X139.539 Y122.919 E9.36748
G1 X138.629 Y123.058 E9.3981
G1 X137.695 Y123.119 E9.42923
G1 X136.668 Y123.14 E9.46339
G1 X136.458 Y123.142 E9.47038
G1 X133.548 Y123.144 E9.56716
G1 X126.305 Y123.141 E9.80807
G1 X125.631 Y123.131 E9.83049
G1 X124.712 Y123.077 E9.86111
G1 X123.858 Y122.955 E9.8898
G1 X123.573 Y122.901 E9.89945
G1 X121.199 Y122.426 E9.97997
G1 X118.694 Y121.997 E10.0645
G1 X116.188 Y121.64 E10.14869
G1 X113.681 Y121.357 E10.2326
G1 X111.173 Y121.143 E10.31632
G1 X109.768 Y121.067 E10.36312
G1 X108.596 Y120.991 E10.40219
G1 X107.681 Y120.891 E10.4328
G1 X106.695 Y120.683 E10.46632
G1 X106.694 Y120.688 E10.46649
G1 X105.331 Y120.367 E10.51306
G1 X104.445 Y120.117 E10.54368
G1 X103.874 Y119.911 E10.56387
G1 X103.331 Y119.697 E10.58328
G1 X103.006 Y119.562 E10.59499
G1 X102.491 Y119.339 E10.61365
G1 X101.948 Y119.086 E10.63358
G1 X101.169 Y118.695 E10.66257
G1 X100.365 Y118.246 E10.69319
G1 X99.784 Y117.862 E10.71636
G1 X99.37 Y117.555 E10.7335
G1 X98.503 Y116.879 E10.77007
G1 X95.366 Y114.538 E10.90025
G1 X95.192 Y114.414 E10.90736
G1 X94.712 Y114.052 E10.92736
G1 X94.274 Y113.701 E10.94602
G1 X93.582 Y113.094 E10.97664
G1 X92.944 Y112.43 E11.00727
G1 X92.367 Y111.713 E11.03788
G1 X91.853 Y110.949 E11.0685
G1 X91.409 Y110.143 E11.09911
G1 X91.035 Y109.301 E11.12975
G1 X90.737 Y108.43 E11.16037
G1 X90.522 Y107.573 E11.18976
G1 X90.503 Y107.481 E11.19288
G1 X90.384 Y106.787 E11.2163
G1 X90.351 Y106.548 E11.22433
G1 X90.254 Y105.347 E11.2644
G1 X90.227 Y104.177 E11.30333
G1 X90.062 Y100.392 E11.42934
G1 X90.016 Y99.672 E11.45333
G1 X89.997 Y98.751 E11.48397
G1 X90.058 Y97.833 E11.51457
G1 X90.198 Y96.923 E11.5452
G1 X90.417 Y96.028 E11.57584
G1 X90.654 Y95.312 E11.60093
G1 X90.786 Y94.969 E11.61315
G1 X91.026 Y94.375 E11.63446
G1 X91.408 Y93.537 E11.66509
G1 X91.86 Y92.736 E11.69568
G1 X92.381 Y91.976 E11.72633
G1 X93.118 Y91.099 E11.76443
G1 X93.518 Y90.672 E11.78389
G0 F6000 X93.81 Y90.946
G1 F1200 X94.456 Y90.315 E11.81392
G1 X94.999 Y89.862 E11.83744
G1 X95.236 Y89.678 E11.84742
G1 X95.973 Y89.156 E11.87746
G1 X96.826 Y88.664 E11.91021
G1 X97.071 Y88.538 E11.91938
G1 X97.306 Y88.421 E11.92811
G1 X97.837 Y88.165 E11.94771
G1 X98.667 Y87.809 E11.97775
G1 X99.738 Y87.471 E12.01511
G1 X99.949 Y87.417 E12.02235
G1 X100.24 Y87.348 E12.0323
G1 X100.831 Y87.216 E12.05244
G1 X101.547 Y87.068 E12.07676
G1 X102.409 Y86.928 E12.1058
G1 X103.661 Y86.779 E12.14774
G1 X106.235 Y86.437 E12.2341
G1 X108.774 Y86.026 E12.31965
G1 X110.073 Y85.798 E12.36351
G1 X110.345 Y85.754 E12.37268
G1 X110.97 Y85.662 E12.39369
G1 X113.493 Y85.258 E12.47867
G1 X116.024 Y84.778 E12.56436
G1 X118.491 Y84.237 E12.64836
G1 X120.947 Y83.626 E12.73253
G1 X122.193 Y83.276 E12.77558
G1 X123.244 Y82.994 E12.81177
G1 X124.125 Y82.799 E12.84178
G1 X125.441 Y82.656 E12.88581
G1 X125.601 Y82.649 E12.89114
G1 X125.927 Y82.64 E12.90199
G1 X126.465 Y82.634 E12.91988
G1 X130.925 Y82.632 E13.06822
G1 X132.304 Y82.651 E13.11409
G1 X135.439 Y82.641 E13.21836
G1 X136.345 Y82.624 E13.2485
G1 X141.066 Y82.588 E13.40553
G1 X141.72 Y82.592 E13.42728
G1 X142.622 Y82.638 E13.45732
G1 X143.517 Y82.763 E13.48738
G1 X144.397 Y82.967 E13.51742
G1 X145.255 Y83.247 E13.54744
G1 X146.085 Y83.603 E13.57748
G1 X146.881 Y84.03 E13.60752
G1 X147.635 Y84.527 E13.63756
G1 X148.343 Y85.088 E13.6676
G1 X149.262 Y85.993 E13.7105
G1 X149.414 Y86.163 E13.71809
G1 X149.985 Y86.863 E13.74813
G1 X150.493 Y87.61 E13.77818
G1 X150.932 Y88.399 E13.80821
G1 X151.3 Y89.223 E13.83822
G1 X151.612 Y90.14 E13.87044
G1 X151.705 Y90.463 E13.88162
G1 X151.916 Y91.341 E13.91165
G1 X152.049 Y92.234 E13.94168
G1 X152.101 Y93.502 E13.98389
G1 X152.074 Y94.749 E14.02538
G1 X152.055 Y97.363 E14.11232
G1 X152.108 Y99.906 E14.19692
G1 X152.233 Y102.456 E14.28184
G1 X152.429 Y104.981 E14.36607
G1 X152.57 Y106.351 E14.41188
G1 X152.604 Y106.748 E14.42513
G1 X152.64 Y107.719 E14.45745
G1 X152.638 Y107.92 E14.46413
G1 X152.627 Y108.307 E14.47701
G1 X152.608 Y108.704 E14.49023
G1 X152.491 Y109.832 E14.52795
G1 X152.444 Y110.125 E14.53782
G1 X152.262 Y111.009 E14.56784
G1 X152.124 Y111.501 E14.58483
G1 X152.02 Y111.84 E14.59663
G1 X151.598 Y112.973 E14.63684
G1 X151.487 Y113.224 E14.64597
G1 X151.336 Y113.55 E14.65792
G1 X151.223 Y113.783 E14.66653
G1 X150.793 Y114.577 E14.69656
G1 X150.344 Y115.263 E14.72383
G1 X150.066 Y115.652 E14.73973
G1 X149.791 Y116.019 E14.75499
G1 X149.088 Y116.838 E14.79089
G1 X148.794 Y117.146 E14.80505
G1 X148.556 Y117.387 E14.81631
G1 X148.405 Y117.535 E14.82335
G1 X147.899 Y117.999 E14.84618
G1 X147.454 Y118.379 E14.86564
G1 X147.316 Y118.494 E14.87162
G1 X146.75 Y118.933 E14.89544
G1 X146.376 Y119.201 E14.91074
G1 X146.075 Y119.412 E14.92297
G1 X145.824 Y119.583 E14.93307
G1 X145.389 Y119.869 E14.95039
G1 X145.096 Y120.054 E14.96191
G1 X144.796 Y120.235 E14.97357
G1 X144.227 Y120.568 E14.99549
G1 X143.781 Y120.814 E15.01243
G1 X143.258 Y121.086 E15.03204
G1 X143.02 Y121.206 E15.04091
G1 X142.704 Y121.36 E15.0526
G1 X142.51 Y121.452 E15.05974
G1 X142.146 Y121.62 E15.07307
G1 X141.834 Y121.758 E15.08442
G1 X141.471 Y121.911 E15.09752
G1 X140.353 Y122.308 E15.13698
G1 X139.444 Y122.53 E15.1681
G1 X138.551 Y122.664 E15.19814
G1 X137.687 Y122.719 E15.22693
G1 X136.66 Y122.74 E15.2611
G1 X136.458 Y122.742 E15.26782
G1 X133.548 Y122.744 E15.3646
G1 X126.311 Y122.741 E15.60531
G1 X125.637 Y122.731 E15.62773
G1 X124.735 Y122.678 E15.65778
G1 X123.931 Y122.561 E15.6848
G1 X123.652 Y122.509 E15.69424
G1 X121.246 Y122.028 E15.77585
G1 X118.78 Y121.605 E15.85907
G1 X116.218 Y121.241 E15.94514
G1 X113.724 Y120.958 E16.02862
G1 X111.195 Y120.743 E16.11304
G1 X109.794 Y120.668 E16.1597
G1 X108.622 Y120.592 E16.19876
G1 X107.724 Y120.493 E16.22881
G1 X106.787 Y120.294 E16.26067
G1 X105.423 Y119.977 E16.30725
G1 X104.554 Y119.732 E16.33728
G1 X104.021 Y119.539 E16.35613
G1 X103.478 Y119.325 E16.37554
G1 X103.165 Y119.195 E16.38682
G1 X102.65 Y118.972 E16.40548
G1 X102.127 Y118.728 E16.42468
G1 X101.348 Y118.337 E16.45367
G1 X100.56 Y117.897 E16.48369
G1 X99.978 Y117.509 E16.50695
G1 X99.616 Y117.239 E16.52197
G1 X98.756 Y116.569 E16.55823
G1 X95.604 Y114.216 E16.68906
G1 X95.424 Y114.088 E16.6964
G1 X94.962 Y113.74 E16.71564
G1 X94.524 Y113.389 E16.73431
G1 X93.845 Y112.793 E16.76436
G1 X93.222 Y112.14 E16.79438
G1 X92.658 Y111.434 E16.82443
G1 X92.159 Y110.681 E16.85448
G1 X91.729 Y109.887 E16.88451
G1 X91.371 Y109.059 E16.91451
G1 X91.087 Y108.201 E16.94457
G1 X90.914 Y107.492 E16.96884
G1 X90.895 Y107.4 E16.97197
G1 X90.78 Y106.732 E16.99451
G1 X90.747 Y106.493 E17.00254
G1 X90.654 Y105.337 E17.04111
G1 X90.626 Y104.152 E17.08054
G1 X90.463 Y100.396 E17.20558
G1 X90.415 Y99.646 E17.23057
G1 X90.397 Y98.743 E17.26061
G1 X90.459 Y97.842 E17.29065
G1 X90.601 Y96.95 E17.32069
G1 X90.821 Y96.074 E17.35073
G1 X91.029 Y95.451 E17.37258
G1 X91.157 Y95.119 E17.38441
G1 X91.397 Y94.525 E17.40572
G1 X91.772 Y93.703 E17.43577
G1 X92.218 Y92.918 E17.4658
G1 X92.732 Y92.176 E17.49582
G1 X93.41 Y91.373 E17.53078
G1 X93.81 Y90.946 E17.55024
G1 F2700 E12.55024
G0 F6000 X127.181 Y98.359
G1 F2700 E17.55024
