;FLAVOR:Marlin
;TIME:9274
;Filament used: 5.33357m
;Layer height: 0.2
;MINX:82.926
;MINY:77.452
;MINZ:0.3
;MAXX:142.176
;MAXY:157.427
;MAXZ:9.9
;Generated with Cura_SteamEngine 4.8.0
M140 S110
M105
M190 S110
M104 S255
M105
M109 S255
M82 ;absolute extrusion mode
; Ender 3 Custom Start G-code
G92 E0 ; Reset Extruder
G28 ; Home all axes
G1 Z2.0 F3000 ; Move Z Axis up little to prevent scratching of Heat Bed
G1 X0.1 Y20 Z0.3 F5000.0 ; Move to start position
G1 X0.1 Y200.0 Z0.3 F1500.0 E15 ; Draw the first line
G1 X0.4 Y200.0 Z0.3 F5000.0 ; Move to side a little
G1 X0.4 Y20 Z0.3 F1500.0 E30 ; Draw the second line
G92 E0 ; Reset Extruder
G1 Z2.0 F3000 ; Move Z Axis up little to prevent scratching of Heat Bed
G1 X5 Y20 Z0.3 F5000.0 ; Move over to prevent blob squish
G92 E0
G92 E0
G1 F2700 E-8
;LAYER_COUNT:49
;LAYER:0
M107
G0 F6000 X85.211 Y79.855 Z0.3
;TYPE:SKIRT
G1 F2700 E0
G1 F1200 X85.328 Y79.738 E0.00825
G1 X85.914 Y79.208 E0.04767
G1 X86.55 Y78.741 E0.08704
G1 X87.23 Y78.34 E0.12642
G1 X87.948 Y78.01 E0.16585
G1 X88.695 Y77.755 E0.20523
G1 X89.464 Y77.576 E0.24462
G1 X90.248 Y77.476 E0.28405
G1 X90.843 Y77.453 E0.31376
G1 X132.72 Y77.452 E2.40301
G1 X133.706 Y77.515 E2.4523
G1 X134.122 Y77.568 E2.47322
G1 X134.899 Y77.707 E2.5126
G1 X135.523 Y77.879 E2.5449
G1 X136.075 Y78.078 E2.57417
G1 X136.447 Y78.228 E2.59418
G1 X137.4 Y78.69 E2.64702
G1 X137.421 Y78.702 E2.64823
G1 X138.256 Y79.253 E2.69814
G1 X138.576 Y79.495 E2.71815
G1 X139.181 Y80.002 E2.75753
G1 X139.692 Y80.524 E2.79398
G1 X139.758 Y80.598 E2.79892
G1 X140.1 Y81.01 E2.82564
G1 X140.297 Y81.264 E2.84167
G1 X140.749 Y81.911 E2.88105
G1 X141.036 Y82.411 E2.90981
G1 X141.086 Y82.506 E2.91517
G1 X141.371 Y83.108 E2.9484
G1 X141.495 Y83.402 E2.96432
G1 X141.765 Y84.144 E3.00371
G1 X141.898 Y84.635 E3.02909
G1 X141.916 Y84.711 E3.03299
G1 X142.053 Y85.446 E3.07029
G1 X142.098 Y85.773 E3.08675
G1 X142.142 Y86.156 E3.10599
G1 X142.176 Y86.889 E3.1426
G1 X142.175 Y111.911 E4.39095
G1 X142.113 Y112.895 E4.44014
G1 X142.062 Y113.296 E4.46031
G1 X141.923 Y114.073 E4.49969
G1 X141.779 Y114.606 E4.52723
G1 X141.554 Y115.245 E4.56103
G1 X141.406 Y115.613 E4.58082
G1 X141.074 Y116.33 E4.62024
G1 X140.647 Y117.048 E4.66192
G1 X140.592 Y117.13 E4.66684
G1 X140.314 Y117.518 E4.69065
G1 X140.114 Y117.78 E4.7071
G1 X139.987 Y117.93 E4.7169
G1 X140.008 Y117.959 E4.71869
G1 X140.555 Y118.986 E4.77674
G1 X140.716 Y119.352 E4.79669
G1 X141.076 Y120.35 E4.84962
G1 X141.23 Y120.979 E4.88193
G1 X141.289 Y121.273 E4.89689
G1 X141.418 Y122.21 E4.94408
G1 X141.43 Y122.366 E4.95188
G1 X141.453 Y122.964 E4.98174
G1 X141.452 Y147.982 E6.22989
G1 X141.389 Y148.969 E6.27923
G1 X141.338 Y149.369 E6.29935
G1 X141.199 Y150.146 E6.33873
G1 X141.056 Y150.676 E6.36612
G1 X140.833 Y151.309 E6.3996
G1 X140.685 Y151.678 E6.41944
G1 X140.196 Y152.682 E6.47515
G1 X139.664 Y153.488 E6.52333
G1 X139.41 Y153.825 E6.54439
G1 X138.903 Y154.431 E6.58381
G1 X138.338 Y154.982 E6.62318
G1 X138.015 Y155.252 E6.64418
G1 X137.706 Y155.496 E6.66383
G1 X137.077 Y155.944 E6.70235
G1 X137.052 Y155.96 E6.70383
G1 X136.366 Y156.351 E6.74323
G1 X136.008 Y156.521 E6.763
G1 X135.647 Y156.681 E6.7827
G1 X134.629 Y157.05 E6.83672
G1 X133.985 Y157.207 E6.86979
G1 X133.688 Y157.266 E6.8849
G1 X132.762 Y157.392 E6.93152
G1 X132.605 Y157.404 E6.93938
G1 X132.011 Y157.427 E6.96903
G1 X119.619 Y157.427 E7.58727
G1 X118.83 Y157.387 E7.62669
G1 X118.05 Y157.268 E7.66605
G1 X117.285 Y157.07 E7.70548
G1 X116.545 Y156.796 E7.74484
G1 X115.836 Y156.448 E7.78425
G1 X115.165 Y156.03 E7.82369
G1 X114.541 Y155.547 E7.86306
G1 X114.104 Y155.142 E7.89278
G1 X113.987 Y155.025 E7.90104
G1 X113.457 Y154.439 E7.94046
G1 X113.008 Y153.827 E7.97832
G1 X97.503 Y153.827 E8.75187
G1 X97.202 Y153.821 E8.76689
G1 X96.84 Y153.807 E8.78497
G1 X96.478 Y153.785 E8.80306
G1 X96.185 Y153.76 E8.81773
G1 X95.68 Y153.7 E8.8431
G1 X95.317 Y153.645 E8.86142
G1 X94.84 Y153.558 E8.88561
G1 X94.548 Y153.495 E8.90051
G1 X94.12 Y153.39 E8.9225
G1 X93.779 Y153.296 E8.94015
G1 X93.295 Y153.145 E8.96544
G1 X93.001 Y153.043 E8.98097
G1 X92.614 Y152.897 E9.0016
G1 X92.295 Y152.767 E9.01879
G1 X91.848 Y152.568 E9.0432
G1 X91.529 Y152.414 E9.06087
G1 X91.056 Y152.165 E9.08754
G1 X90.793 Y152.015 E9.10264
G1 X90.458 Y151.814 E9.12214
G1 X90.148 Y151.616 E9.14049
G1 X89.736 Y151.333 E9.16542
G1 X89.5 Y151.16 E9.18002
G1 X89.153 Y150.891 E9.20193
G1 X88.87 Y150.658 E9.22022
G1 X88.46 Y150.295 E9.24754
G1 X88.208 Y150.056 E9.26486
G1 X87.912 Y149.759 E9.28578
G1 X87.699 Y149.534 E9.30124
G1 X87.408 Y149.209 E9.323
G1 X87.183 Y148.943 E9.34039
G1 X86.848 Y148.519 E9.36735
G1 X86.639 Y148.234 E9.38498
G1 X86.386 Y147.867 E9.40722
G1 X86.216 Y147.605 E9.4228
G1 X85.972 Y147.203 E9.44626
G1 X85.797 Y146.894 E9.46398
G1 X85.546 Y146.413 E9.49104
G1 X85.395 Y146.097 E9.50852
G1 X85.234 Y145.736 E9.52824
G1 X85.116 Y145.453 E9.54353
G1 X84.95 Y145.019 E9.56672
G1 X84.836 Y144.692 E9.58399
G1 X84.675 Y144.174 E9.61106
G1 X84.593 Y143.873 E9.62662
G1 X84.502 Y143.501 E9.64573
G1 X84.428 Y143.165 E9.66289
G1 X84.331 Y142.641 E9.68948
G1 X84.277 Y142.28 E9.70769
G1 X84.226 Y141.863 E9.72865
G1 X84.198 Y141.568 E9.74343
G1 X84.168 Y141.098 E9.76693
G1 X84.156 Y140.748 E9.7844
G1 X84.151 Y140.481 E9.79772
G1 X84.151 Y130.478 E10.29677
G1 X84.157 Y130.178 E10.31174
G1 X84.171 Y129.814 E10.32992
G1 X84.196 Y129.425 E10.34937
G1 X84.222 Y129.132 E10.36404
G1 X84.279 Y128.653 E10.38811
G1 X84.332 Y128.303 E10.40577
G1 X84.415 Y127.847 E10.42889
G1 X84.481 Y127.537 E10.4447
G1 X84.595 Y127.073 E10.46854
G1 X84.69 Y126.731 E10.48625
G1 X84.823 Y126.298 E10.50885
G1 X84.921 Y126.011 E10.52398
G1 X85.092 Y125.558 E10.54813
G1 X85.224 Y125.238 E10.5654
G1 X85.412 Y124.819 E10.58832
G1 X85.57 Y124.492 E10.60644
G1 X85.801 Y124.05 E10.63132
G1 X85.945 Y123.795 E10.64593
G1 X86.177 Y123.411 E10.66831
G1 X86.368 Y123.114 E10.68593
G1 X86.636 Y122.723 E10.70958
G1 X86.817 Y122.476 E10.72485
G1 X87.079 Y122.139 E10.74615
G1 X87.312 Y121.855 E10.76448
G1 X87.682 Y121.435 E10.7924
G1 X87.92 Y121.184 E10.80966
G1 X88.216 Y120.888 E10.83054
G1 X87.769 Y120.723 E10.85432
G1 X87.06 Y120.375 E10.89372
G1 X86.389 Y119.958 E10.93313
G1 X85.765 Y119.474 E10.97253
G1 X85.328 Y119.069 E11.00226
G1 X85.211 Y118.952 E11.01051
G1 X84.681 Y118.366 E11.04993
G1 X84.214 Y117.73 E11.0893
G1 X83.813 Y117.05 E11.12868
G1 X83.483 Y116.332 E11.1681
G1 X83.228 Y115.585 E11.20748
G1 X83.049 Y114.816 E11.24688
G1 X82.949 Y114.032 E11.28631
G1 X82.926 Y113.437 E11.31601
G1 X82.926 Y85.37 E12.71628
G1 X82.966 Y84.581 E12.7557
G1 X83.085 Y83.801 E12.79506
G1 X83.283 Y83.036 E12.83448
G1 X83.557 Y82.296 E12.87385
G1 X83.905 Y81.587 E12.91326
G1 X84.323 Y80.916 E12.9527
G1 X84.806 Y80.292 E12.99206
G1 X85.211 Y79.855 E13.02179
G0 F6000 X85.493 Y80.137
G1 F1200 X85.61 Y80.02 E13.03004
G1 X86.182 Y79.506 E13.06841
G1 X86.804 Y79.053 E13.1068
G1 X87.469 Y78.667 E13.14516
G1 X88.171 Y78.352 E13.18355
G1 X88.902 Y78.112 E13.22193
G1 X89.653 Y77.949 E13.26027
G1 X90.418 Y77.865 E13.29867
G1 X90.843 Y77.853 E13.31988
G1 X132.72 Y77.852 E15.40913
G1 X133.655 Y77.911 E15.45587
G1 X134.071 Y77.964 E15.47679
G1 X134.828 Y78.101 E15.51517
G1 X135.402 Y78.26 E15.54489
G1 X135.925 Y78.449 E15.57263
G1 X136.297 Y78.599 E15.59264
G1 X137.201 Y79.037 E15.64276
G1 X137.222 Y79.049 E15.64397
G1 X138.015 Y79.572 E15.69136
G1 X138.335 Y79.814 E15.71138
G1 X138.923 Y80.309 E15.74972
G1 X139.394 Y80.79 E15.78331
G1 X139.46 Y80.864 E15.78826
G1 X139.784 Y81.255 E15.81359
G1 X139.981 Y81.509 E15.82963
G1 X140.421 Y82.14 E15.868
G1 X140.682 Y82.597 E15.89426
G1 X140.732 Y82.692 E15.89962
G1 X141.002 Y83.263 E15.93113
G1 X141.126 Y83.557 E15.94705
G1 X141.388 Y84.281 E15.98546
G1 X141.509 Y84.728 E16.00856
G1 X141.527 Y84.804 E16.01246
G1 X141.657 Y85.5 E16.04778
G1 X141.702 Y85.827 E16.06425
G1 X141.743 Y86.194 E16.08268
G1 X141.776 Y86.889 E16.11739
G1 X141.775 Y111.911 E17.36574
G1 X141.716 Y112.845 E17.41243
G1 X141.665 Y113.246 E17.4326
G1 X141.528 Y114.003 E17.47098
G1 X141.396 Y114.49 E17.49615
G1 X141.183 Y115.096 E17.5282
G1 X141.035 Y115.464 E17.54799
G1 X140.711 Y116.162 E17.58638
G1 X140.315 Y116.825 E17.62491
G1 X140.26 Y116.907 E17.62983
G1 X139.996 Y117.275 E17.65243
G1 X139.796 Y117.537 E17.66887
G1 X139.482 Y117.907 E17.69308
G1 X139.681 Y118.19 E17.71034
G1 X140.189 Y119.147 E17.7644
G1 X140.35 Y119.513 E17.78435
G1 X140.691 Y120.46 E17.83456
G1 X140.837 Y121.058 E17.86527
G1 X140.896 Y121.352 E17.88023
G1 X141.019 Y122.24 E17.92496
G1 X141.031 Y122.396 E17.93277
G1 X141.053 Y122.964 E17.96112
G1 X141.052 Y147.982 E19.20928
G1 X140.993 Y148.918 E19.25607
G1 X140.942 Y149.318 E19.27618
G1 X140.805 Y150.075 E19.31457
G1 X140.673 Y150.56 E19.33964
G1 X140.462 Y151.16 E19.37137
G1 X140.314 Y151.529 E19.39121
G1 X139.85 Y152.482 E19.44409
G1 X139.344 Y153.247 E19.48985
G1 X139.09 Y153.584 E19.5109
G1 X138.596 Y154.173 E19.54926
G1 X137.767 Y154.938 E19.60553
G1 X137.458 Y155.182 E19.62518
G1 X136.836 Y155.623 E19.66322
G1 X135.845 Y156.155 E19.71933
G1 X135.484 Y156.315 E19.73903
G1 X134.519 Y156.665 E19.79024
G1 X133.907 Y156.814 E19.82167
G1 X133.61 Y156.873 E19.83678
G1 X132.732 Y156.993 E19.88099
G1 X132.575 Y157.005 E19.88884
G1 X132.011 Y157.027 E19.917
G1 X119.619 Y157.027 E20.53524
G1 X118.851 Y156.987 E20.57361
G1 X118.091 Y156.868 E20.61199
G1 X117.348 Y156.67 E20.65035
G1 X116.629 Y156.396 E20.68874
G1 X115.943 Y156.049 E20.72709
G1 X115.296 Y155.633 E20.76547
G1 X114.696 Y155.152 E20.80383
G1 X114.386 Y154.86 E20.82508
G1 X114.269 Y154.743 E20.83333
G1 X113.755 Y154.171 E20.8717
G1 X113.302 Y153.549 E20.91009
G1 X113.231 Y153.427 E20.91713
G1 X97.503 Y153.427 E21.7018
G1 X97.217 Y153.421 E21.71608
G1 X96.855 Y153.407 E21.73415
G1 X96.512 Y153.386 E21.75129
G1 X96.219 Y153.361 E21.76597
G1 X95.739 Y153.304 E21.79008
G1 X95.376 Y153.249 E21.8084
G1 X94.924 Y153.167 E21.83132
G1 X94.632 Y153.104 E21.84622
G1 X94.226 Y153.004 E21.86708
G1 X93.885 Y152.91 E21.88473
G1 X93.426 Y152.767 E21.90871
G1 X93.132 Y152.665 E21.92424
G1 X92.765 Y152.527 E21.9438
G1 X92.446 Y152.397 E21.96098
G1 X92.022 Y152.208 E21.98414
G1 X91.703 Y152.054 E22.00182
G1 X91.254 Y151.818 E22.02712
G1 X90.991 Y151.668 E22.04223
G1 X90.674 Y151.476 E22.06072
G1 X90.364 Y151.278 E22.07907
G1 X89.972 Y151.01 E22.10276
G1 X89.736 Y150.837 E22.11736
G1 X89.407 Y150.582 E22.13813
G1 X89.124 Y150.349 E22.15641
G1 X88.736 Y150.005 E22.18228
G1 X88.484 Y149.766 E22.19961
G1 X88.202 Y149.484 E22.21951
G1 X87.989 Y149.259 E22.23497
G1 X87.713 Y148.951 E22.2556
G1 X87.488 Y148.685 E22.27298
G1 X87.171 Y148.282 E22.29856
G1 X86.962 Y147.997 E22.31619
G1 X86.721 Y147.649 E22.33731
G1 X86.551 Y147.387 E22.35289
G1 X86.32 Y147.006 E22.37512
G1 X86.145 Y146.697 E22.39284
G1 X85.907 Y146.241 E22.4185
G1 X85.756 Y145.925 E22.43597
G1 X85.603 Y145.582 E22.45471
G1 X85.485 Y145.299 E22.47001
G1 X85.327 Y144.887 E22.49202
G1 X85.213 Y144.56 E22.5093
G1 X85.061 Y144.069 E22.53494
G1 X84.979 Y143.768 E22.55051
G1 X84.892 Y143.415 E22.56865
G1 X84.818 Y143.079 E22.58581
G1 X84.726 Y142.582 E22.61103
G1 X84.672 Y142.221 E22.62924
G1 X84.624 Y141.825 E22.64914
G1 X84.596 Y141.53 E22.66392
G1 X84.567 Y141.085 E22.68617
G1 X84.555 Y140.735 E22.70364
G1 X84.551 Y140.481 E22.71632
G1 X84.551 Y130.478 E23.21537
G1 X84.556 Y130.194 E23.22954
G1 X84.57 Y129.83 E23.24771
G1 X84.594 Y129.46 E23.26621
G1 X84.62 Y129.167 E23.28089
G1 X84.674 Y128.713 E23.3037
G1 X84.727 Y128.363 E23.32136
G1 X84.806 Y127.93 E23.34332
G1 X84.872 Y127.62 E23.35913
G1 X84.98 Y127.18 E23.38173
G1 X85.075 Y126.838 E23.39944
G1 X85.202 Y126.428 E23.42085
G1 X85.3 Y126.141 E23.43598
G1 X85.462 Y125.71 E23.45896
G1 X85.594 Y125.39 E23.47623
G1 X85.772 Y124.993 E23.49793
G1 X85.93 Y124.666 E23.51605
G1 X86.149 Y124.246 E23.53968
G1 X86.293 Y123.991 E23.55429
G1 X86.513 Y123.627 E23.57551
G1 X86.704 Y123.33 E23.59313
G1 X86.959 Y122.959 E23.61559
G1 X87.14 Y122.712 E23.63087
G1 X87.388 Y122.392 E23.65106
G1 X87.621 Y122.108 E23.66939
G1 X87.972 Y121.71 E23.69587
G1 X88.21 Y121.459 E23.71312
G1 X88.492 Y121.178 E23.73298
G1 X88.718 Y120.964 E23.74851
G1 X89 Y120.711 E23.76741
G1 X88.572 Y120.597 E23.78951
G1 X87.853 Y120.323 E23.8279
G1 X87.167 Y119.976 E23.86625
G1 X86.52 Y119.56 E23.90463
G1 X85.92 Y119.079 E23.94299
G1 X85.61 Y118.787 E23.96424
G1 X85.493 Y118.67 E23.9725
G1 X84.979 Y118.098 E24.01086
G1 X84.526 Y117.476 E24.04925
G1 X84.14 Y116.811 E24.08761
G1 X83.825 Y116.109 E24.126
G1 X83.585 Y115.378 E24.16438
G1 X83.422 Y114.627 E24.20272
G1 X83.338 Y113.862 E24.24112
G1 X83.326 Y113.437 E24.26233
G1 X83.326 Y85.37 E25.6626
G1 X83.366 Y84.602 E25.70097
G1 X83.485 Y83.842 E25.73935
G1 X83.683 Y83.099 E25.77771
G1 X83.957 Y82.38 E25.8161
G1 X84.304 Y81.694 E25.85445
G1 X84.72 Y81.047 E25.89282
G1 X85.201 Y80.447 E25.93119
G1 X85.493 Y80.137 E25.95244
G0 F6000 X85.776 Y80.42
G1 F1200 X85.893 Y80.303 E25.96069
G1 X86.45 Y79.803 E25.99803
G1 X87.056 Y79.366 E26.03531
G1 X87.706 Y78.995 E26.07265
G1 X88.392 Y78.696 E26.10998
G1 X89.106 Y78.472 E26.14732
G1 X89.839 Y78.325 E26.18461
G1 X90.843 Y78.253 E26.23483
G1 X132.72 Y78.252 E28.32408
G1 X133.605 Y78.308 E28.36833
G1 X134.021 Y78.361 E28.38925
G1 X134.757 Y78.495 E28.42657
G1 X135.28 Y78.642 E28.45367
G1 X135.776 Y78.82 E28.47996
G1 X136.148 Y78.97 E28.49998
G1 X137.003 Y79.384 E28.54737
G1 X137.024 Y79.396 E28.54858
G1 X137.773 Y79.891 E28.59337
G1 X138.093 Y80.133 E28.61338
G1 X138.665 Y80.615 E28.6507
G1 X139.095 Y81.057 E28.68147
G1 X139.161 Y81.131 E28.68641
G1 X139.468 Y81.5 E28.71036
G1 X139.665 Y81.754 E28.7264
G1 X140.092 Y82.369 E28.76375
G1 X140.328 Y82.784 E28.78757
G1 X140.378 Y82.879 E28.79292
G1 X140.634 Y83.419 E28.82274
G1 X140.758 Y83.713 E28.83866
G1 X141.011 Y84.416 E28.87593
G1 X141.12 Y84.82 E28.89681
G1 X141.138 Y84.896 E28.90071
G1 X141.261 Y85.555 E28.93415
G1 X141.306 Y85.882 E28.95062
G1 X141.345 Y86.232 E28.96819
G1 X141.376 Y86.889 E29.001
G1 X141.375 Y111.911 E30.24936
G1 X141.319 Y112.794 E30.2935
G1 X141.268 Y113.195 E30.31366
G1 X141.134 Y113.931 E30.35099
G1 X141.014 Y114.373 E30.37384
G1 X140.811 Y114.947 E30.40421
G1 X140.663 Y115.315 E30.424
G1 X140.348 Y115.993 E30.4613
G1 X139.982 Y116.602 E30.49675
G1 X139.927 Y116.684 E30.50167
G1 X139.678 Y117.032 E30.52302
G1 X139.478 Y117.294 E30.53947
G1 X138.993 Y117.864 E30.5768
G1 X138.975 Y117.881 E30.57804
G1 X139.353 Y118.42 E30.61088
G1 X139.822 Y119.308 E30.66099
G1 X139.983 Y119.674 E30.68093
G1 X140.307 Y120.57 E30.72847
G1 X140.445 Y121.137 E30.75758
G1 X140.504 Y121.431 E30.77254
G1 X140.62 Y122.271 E30.81485
G1 X140.632 Y122.427 E30.82265
G1 X140.653 Y122.964 E30.84947
G1 X140.652 Y147.982 E32.09762
G1 X140.596 Y148.867 E32.14186
G1 X140.545 Y149.267 E32.16198
G1 X140.411 Y150.003 E32.1993
G1 X140.291 Y150.443 E32.22205
G1 X140.091 Y151.011 E32.2521
G1 X139.943 Y151.38 E32.27193
G1 X139.504 Y152.281 E32.32193
G1 X139.025 Y153.006 E32.36529
G1 X138.771 Y153.343 E32.38634
G1 X138.289 Y153.916 E32.4237
G1 X137.519 Y154.624 E32.47588
G1 X137.21 Y154.868 E32.49553
G1 X136.62 Y155.286 E32.5316
G1 X135.683 Y155.79 E32.58468
G1 X135.322 Y155.95 E32.60438
G1 X134.409 Y156.281 E32.65283
G1 X133.829 Y156.422 E32.68261
G1 X133.532 Y156.481 E32.69772
G1 X132.701 Y156.595 E32.73956
G1 X132.544 Y156.607 E32.74742
G1 X132.011 Y156.627 E32.77403
G1 X119.619 Y156.627 E33.39227
G1 X118.872 Y156.587 E33.42959
G1 X118.134 Y156.468 E33.46688
G1 X117.412 Y156.27 E33.50424
G1 X116.716 Y155.997 E33.54153
G1 X116.053 Y155.65 E33.57887
G1 X115.43 Y155.235 E33.61621
G1 X114.669 Y154.577 E33.66641
G1 X114.552 Y154.46 E33.67466
G1 X114.052 Y153.903 E33.712
G1 X113.615 Y153.297 E33.74928
G1 X113.461 Y153.027 E33.76478
G1 X97.503 Y153.027 E34.56093
G1 X97.232 Y153.022 E34.57446
G1 X96.87 Y153.008 E34.59253
G1 X96.546 Y152.988 E34.60872
G1 X96.253 Y152.963 E34.6234
G1 X95.799 Y152.909 E34.64621
G1 X95.436 Y152.854 E34.66452
G1 X95.009 Y152.776 E34.68618
G1 X94.717 Y152.713 E34.70108
G1 X94.333 Y152.618 E34.72082
G1 X93.992 Y152.524 E34.73846
G1 X93.558 Y152.389 E34.76114
