;FLAVOR:Marlin
;TIME:8175
;Filament used: 4.47219m
;Layer height: 0.2
;MINX:88.177
;MINY:78.128
;MINZ:0.3
;MAXX:140.47
;MAXY:160.491
;MAXZ:9.7
;Generated with Cura_SteamEngine 4.8.0
M140 S100
M105
M190 S100
M104 S255
M105
M109 S255
M82 ;absolute extrusion mode
; Ender 3 Custom Start G-code
G92 E0 ; Reset Extruder
G28 ; Home all axes
G1 Z2.0 F3000 ; Move Z Axis up little to prevent scratching of Heat Bed
G1 X0.1 Y20 Z0.3 F5000.0 ; Move to start position
G1 X0.1 Y200.0 Z0.3 F1500.0 E15 ; Draw the first line
G1 X0.4 Y200.0 Z0.3 F5000.0 ; Move to side a little
G1 X0.4 Y20 Z0.3 F1500.0 E30 ; Draw the second line
G92 E0 ; Reset Extruder
G1 Z2.0 F3000 ; Move Z Axis up little to prevent scratching of Heat Bed
G1 X5 Y20 Z0.3 F5000.0 ; Move over to prevent blob squish
G92 E0
G92 E0
G1 F2700 E-8
;LAYER_COUNT:48
;LAYER:0
M107
G0 F6000 X94.943 Y84.551 Z0.3
;TYPE:SKIRT
G1 F2700 E0
G1 F1200 X95.739 Y83.769 E0.05567
G1 X95.826 Y83.695 E0.06137
G1 X96.126 Y83.452 E0.08063
G1 X98.103 Y81.932 E0.20504
G1 X98.752 Y81.483 E0.24442
G1 X99.197 Y81.228 E0.27
G1 X99.961 Y80.822 E0.31317
G1 X100.87 Y80.411 E0.36294
G1 X102.088 Y79.952 E0.42788
G1 X102.987 Y79.674 E0.47482
G1 X104.595 Y79.281 E0.55741
G1 X105.371 Y79.133 E0.59682
G1 X106.157 Y79.063 E0.63619
G1 X106.947 Y79.074 E0.67561
G1 X107.567 Y79.139 E0.70671
G1 X109.807 Y79.464 E0.81963
G1 X110.582 Y79.617 E0.85904
G1 X111.337 Y79.847 E0.89842
G1 X111.785 Y80.035 E0.92266
G1 X115.193 Y79.851 E1.09293
G1 X115.504 Y79.817 E1.10854
G1 X115.908 Y79.761 E1.12889
G1 X116.307 Y79.716 E1.14892
G1 X117.265 Y79.633 E1.1969
G1 X117.559 Y79.417 E1.2151
G1 X118.239 Y79.016 E1.25448
G1 X118.957 Y78.686 E1.2939
G1 X119.704 Y78.431 E1.33328
G1 X120.473 Y78.252 E1.37268
G1 X121.257 Y78.152 E1.41211
G1 X121.83 Y78.129 E1.44072
G1 X122.227 Y78.128 E1.46052
G1 X131.843 Y78.145 E1.94027
G1 X132.631 Y78.186 E1.97963
G1 X133.412 Y78.307 E2.01906
G1 X134.176 Y78.506 E2.05845
G1 X134.916 Y78.782 E2.09785
G1 X135.624 Y79.131 E2.13724
G1 X136.294 Y79.549 E2.17663
G1 X136.918 Y80.034 E2.21606
G1 X137.272 Y80.358 E2.24
G1 X137.389 Y80.472 E2.24815
G1 X137.926 Y81.051 E2.28755
G1 X138.402 Y81.682 E2.32698
G1 X138.811 Y82.357 E2.36636
G1 X139.151 Y83.07 E2.40577
G1 X139.416 Y83.814 E2.44517
G1 X139.605 Y84.581 E2.48458
G1 X139.715 Y85.363 E2.52398
G1 X139.745 Y85.944 E2.55301
G1 X139.753 Y86.533 E2.58239
G1 X139.753 Y87.502 E2.63074
G1 X139.713 Y88.291 E2.67015
G1 X139.594 Y89.071 E2.70952
G1 X139.396 Y89.836 E2.74894
G1 X139.122 Y90.576 E2.78831
G1 X138.774 Y91.285 E2.82771
G1 X138.356 Y91.956 E2.86715
G1 X138.316 Y92.008 E2.87042
G1 X138.316 Y110.03 E3.76955
G1 X138.466 Y110.234 E3.78218
G1 X138.867 Y110.914 E3.82156
G1 X139.197 Y111.632 E3.86099
G1 X139.452 Y112.379 E3.90037
G1 X139.631 Y113.148 E3.93976
G1 X139.731 Y113.932 E3.97919
G1 X139.754 Y114.532 E4.00914
G1 X139.753 Y115.965 E4.08064
G1 X139.712 Y116.754 E4.12005
G1 X139.592 Y117.535 E4.15948
G1 X139.394 Y118.299 E4.19885
G1 X139.119 Y119.039 E4.23824
G1 X138.969 Y119.345 E4.25524
G1 X139.204 Y119.857 E4.28334
G1 X139.459 Y120.604 E4.32272
G1 X139.518 Y120.859 E4.33578
G1 X139.753 Y121.308 E4.36107
G1 X140.047 Y122.041 E4.40047
G1 X140.265 Y122.8 E4.43986
G1 X140.405 Y123.577 E4.47925
G1 X140.469 Y124.572 E4.529
G1 X140.47 Y143.492 E5.47292
G1 X140.467 Y150.752 E5.83512
G1 X140.427 Y151.541 E5.87454
G1 X140.307 Y152.321 E5.91391
G1 X140.109 Y153.086 E5.95333
G1 X139.834 Y153.826 E5.99272
G1 X139.51 Y154.486 E6.0294
G1 X139.403 Y154.9 E6.05073
G1 X139.129 Y155.64 E6.0901
G1 X138.781 Y156.349 E6.1295
G1 X138.363 Y157.02 E6.16894
G1 X137.88 Y157.644 E6.20831
G1 X137.475 Y158.081 E6.23804
G1 X137.358 Y158.198 E6.24629
G1 X136.772 Y158.728 E6.28571
G1 X136.136 Y159.195 E6.32508
G1 X135.456 Y159.596 E6.36446
G1 X134.738 Y159.926 E6.40389
G1 X133.991 Y160.181 E6.44327
G1 X133.222 Y160.36 E6.48266
G1 X132.438 Y160.46 E6.52209
G1 X131.869 Y160.483 E6.5505
G1 X129.433 Y160.491 E6.67203
G1 X123.286 Y160.491 E6.97871
G1 X122.497 Y160.451 E7.01812
G1 X121.717 Y160.332 E7.05748
G1 X121.273 Y160.227 E7.08025
G1 X120.52 Y159.99 E7.11963
G1 X119.795 Y159.678 E7.15901
G1 X119.297 Y159.41 E7.18722
G1 X118.47 Y158.926 E7.23503
G1 X117.589 Y158.423 E7.28564
G1 X115.85 Y157.462 E7.38477
G1 X115.171 Y157.026 E7.42502
G1 X114.721 Y157.57 E7.46025
G1 X114.158 Y158.126 E7.49972
G1 X114.047 Y158.225 E7.50714
G1 X113.432 Y158.72 E7.54653
G1 X112.77 Y159.151 E7.58594
G1 X112.067 Y159.512 E7.62537
G1 X111.332 Y159.8 E7.66475
G1 X110.572 Y160.013 E7.70413
G1 X109.793 Y160.147 E7.74356
G1 X108.886 Y160.204 E7.7889
G1 X96.126 Y160.255 E8.42551
G1 X95.337 Y160.218 E8.46491
G1 X94.556 Y160.102 E8.50431
G1 X93.791 Y159.907 E8.54369
G1 X93.049 Y159.636 E8.5831
G1 X92.339 Y159.291 E8.62249
G1 X91.667 Y158.876 E8.66189
G1 X91.04 Y158.396 E8.70128
G1 X90.603 Y157.994 E8.73091
G1 X90.485 Y157.877 E8.7392
G1 X89.953 Y157.293 E8.77861
G1 X89.483 Y156.659 E8.81799
G1 X89.079 Y155.98 E8.8574
G1 X88.747 Y155.264 E8.89678
G1 X88.488 Y154.518 E8.93618
G1 X88.306 Y153.749 E8.9756
G1 X88.202 Y152.966 E9.01501
G1 X88.177 Y152.338 E9.04636
G1 X88.177 Y151.782 E9.0741
G1 X88.211 Y151.118 E9.10727
G1 X88.2 Y151.034 E9.1115
G1 X88.177 Y150.439 E9.14121
G1 X88.177 Y124.884 E10.41615
G1 X88.217 Y124.093 E10.45566
G1 X88.177 Y123.541 E10.48328
G1 X88.177 Y122.982 E10.51116
G1 X88.217 Y122.193 E10.55058
G1 X88.336 Y121.413 E10.58994
G1 X88.534 Y120.648 E10.62937
G1 X88.808 Y119.908 E10.66874
G1 X89.156 Y119.199 E10.70814
G1 X89.574 Y118.528 E10.74758
G1 X90.057 Y117.904 E10.78695
G1 X90.485 Y117.443 E10.81833
G1 X90.603 Y117.326 E10.82662
G1 X91.191 Y116.799 E10.86601
G1 X91.83 Y116.334 E10.90544
G1 X92.512 Y115.937 E10.94481
G1 X93.231 Y115.61 E10.98422
G1 X93.284 Y115.592 E10.98701
G1 X93.034 Y115.309 E11.00585
G1 X92.974 Y115.251 E11.01001
G1 X92.397 Y114.628 E11.05238
G1 X92.019 Y114.173 E11.08189
G1 X91.546 Y113.541 E11.12127
G1 X91.139 Y112.864 E11.16068
G1 X90.803 Y112.15 E11.20005
G1 X90.54 Y111.405 E11.23947
G1 X90.355 Y110.638 E11.27883
G1 X90.248 Y109.855 E11.31826
G1 X90.22 Y109.066 E11.35765
G1 X90.272 Y108.278 E11.39704
G1 X90.404 Y107.499 E11.43646
G1 X90.614 Y106.738 E11.47585
G1 X90.983 Y105.823 E11.52507
G1 X91.094 Y105.591 E11.5379
G1 X91.47 Y104.896 E11.57732
G1 X91.915 Y104.244 E11.61671
G1 X92.423 Y103.64 E11.65608
G1 X92.99 Y103.09 E11.69549
G1 X93.61 Y102.6 E11.73492
G1 X94.276 Y102.176 E11.77431
G1 X94.981 Y101.821 E11.81369
G1 X95.719 Y101.539 E11.8531
G1 X96.481 Y101.333 E11.89248
G1 X97.261 Y101.206 E11.93191
G1 X98.211 Y101.157 E11.97937
G1 X106.984 Y101.248 E12.41708
G1 X107.772 Y101.297 E12.45647
G1 X108.551 Y101.424 E12.49585
G1 X109.314 Y101.63 E12.53527
G1 X110.052 Y101.912 E12.57469
G1 X110.757 Y102.267 E12.61407
G1 X111.554 Y102.787 E12.66155
G1 X111.659 Y102.865 E12.66807
G1 X112.269 Y103.367 E12.70749
G1 X112.728 Y103.831 E12.74005
G1 X112.728 Y98.192 E13.02138
G1 X112.421 Y98.519 E13.04376
G1 X111.677 Y99.151 E13.09246
G1 X111.574 Y99.228 E13.09887
G1 X110.919 Y99.668 E13.13824
G1 X110.222 Y100.04 E13.17766
G1 X109.491 Y100.339 E13.21706
G1 X108.734 Y100.563 E13.25645
G1 X107.958 Y100.709 E13.29584
G1 X106.975 Y100.781 E13.34501
G1 X101.582 Y100.829 E13.61408
G1 X98.228 Y100.871 E13.78143
G1 X97.439 Y100.841 E13.82082
G1 X96.657 Y100.731 E13.86022
G1 X95.89 Y100.543 E13.89962
G1 X95.146 Y100.278 E13.93902
G1 X94.433 Y99.939 E13.97841
G1 X93.757 Y99.53 E14.01782
G1 X93.127 Y99.055 E14.05719
G1 X92.547 Y98.518 E14.09662
G1 X92.025 Y97.926 E14.136
G1 X91.566 Y97.284 E14.17537
G1 X91.118 Y96.487 E14.22099
G1 X91.006 Y96.257 E14.23375
G1 X90.697 Y95.53 E14.27316
G1 X90.463 Y94.776 E14.31255
G1 X90.306 Y94.002 E14.35195
G1 X90.228 Y93.216 E14.39135
G1 X90.23 Y92.427 E14.43072
G1 X90.312 Y91.641 E14.47014
G1 X90.473 Y90.868 E14.50954
G1 X90.711 Y90.115 E14.54894
G1 X91.024 Y89.39 E14.58833
G1 X91.409 Y88.701 E14.62771
G1 X92.047 Y87.825 E14.68178
G1 X92.441 Y87.356 E14.71234
G1 X92.92 Y86.836 E14.74761
G1 X92.982 Y86.774 E14.75198
G1 X94.943 Y84.551 E14.89987
G0 F6000 X95.243 Y84.815
G1 F1200 X95.999 Y84.073 E14.95272
G1 X96.086 Y83.999 E14.95842
G1 X96.37 Y83.769 E14.97665
G1 X98.347 Y82.249 E15.10107
G1 X98.98 Y81.813 E15.13941
G1 X99.384 Y81.581 E15.16266
G1 X100.148 Y81.175 E15.20582
G1 X101.011 Y80.785 E15.25307
G1 X102.229 Y80.326 E15.31801
G1 X103.082 Y80.063 E15.36254
G1 X104.69 Y79.67 E15.44512
G1 X105.446 Y79.526 E15.48352
G1 X106.212 Y79.462 E15.52187
G1 X106.981 Y79.477 E15.56024
G1 X107.51 Y79.535 E15.58679
G1 X109.75 Y79.86 E15.69972
G1 X110.504 Y80.01 E15.73807
G1 X111.239 Y80.237 E15.77645
G1 X111.714 Y80.44 E15.80222
G1 X115.206 Y80.252 E15.97669
G1 X115.567 Y80.212 E15.99481
G1 X115.963 Y80.157 E16.01475
G1 X116.341 Y80.115 E16.03373
G1 X117.41 Y80.022 E16.08726
G1 X117.813 Y79.729 E16.11212
G1 X118.478 Y79.343 E16.15048
G1 X119.18 Y79.028 E16.18887
G1 X119.911 Y78.788 E16.22725
G1 X120.662 Y78.625 E16.26559
G1 X121.427 Y78.541 E16.30399
G1 X121.832 Y78.529 E16.3242
G1 X122.226 Y78.528 E16.34386
G1 X131.842 Y78.545 E16.82361
G1 X132.61 Y78.586 E16.86198
G1 X133.37 Y78.707 E16.90037
G1 X134.113 Y78.906 E16.93875
G1 X134.831 Y79.181 E16.9771
G1 X135.517 Y79.529 E17.01548
G1 X136.163 Y79.947 E17.05387
G1 X136.993 Y80.645 E17.10797
G1 X137.11 Y80.759 E17.11612
G1 X137.632 Y81.324 E17.1545
G1 X138.093 Y81.939 E17.19285
G1 X138.488 Y82.6 E17.23126
G1 X138.811 Y83.297 E17.26959
G1 X139.061 Y84.025 E17.30799
G1 X139.234 Y84.775 E17.34639
G1 X139.328 Y85.538 E17.38474
G1 X139.345 Y85.95 E17.40532
G1 X139.353 Y86.533 E17.43441
G1 X139.353 Y87.502 E17.48275
G1 X139.313 Y88.27 E17.52112
G1 X139.194 Y89.03 E17.5595
G1 X138.996 Y89.773 E17.59786
G1 X138.722 Y90.492 E17.63625
G1 X138.375 Y91.178 E17.6746
G1 X137.959 Y91.825 E17.71297
G1 X137.916 Y91.879 E17.71642
G1 X137.916 Y110.161 E18.62851
G1 X138.154 Y110.488 E18.64869
G1 X138.54 Y111.153 E18.68705
G1 X138.855 Y111.855 E18.72544
G1 X139.095 Y112.586 E18.76382
G1 X139.258 Y113.337 E18.80216
G1 X139.342 Y114.102 E18.84056
G1 X139.354 Y114.532 E18.86202
G1 X139.353 Y115.965 E18.93351
G1 X139.312 Y116.733 E18.97188
G1 X139.192 Y117.493 E19.01027
G1 X138.994 Y118.236 E19.04863
G1 X138.72 Y118.955 E19.08702
G1 X138.525 Y119.34 E19.10855
G1 X138.547 Y119.378 E19.11074
G1 X138.862 Y120.08 E19.14913
G1 X139.102 Y120.811 E19.18751
G1 X139.143 Y121 E19.19716
G1 X139.218 Y121.126 E19.20448
G1 X139.54 Y121.824 E19.24283
G1 X139.788 Y122.552 E19.2812
G1 X139.959 Y123.302 E19.31957
G1 X140.052 Y124.066 E19.35797
G1 X140.069 Y124.572 E19.38323
G1 X140.07 Y143.492 E20.32715
G1 X140.067 Y150.752 E20.68935
G1 X140.027 Y151.52 E20.72772
G1 X139.907 Y152.28 E20.76611
G1 X139.709 Y153.023 E20.80447
G1 X139.435 Y153.742 E20.84286
G1 X139.139 Y154.328 E20.87561
G1 X139.003 Y154.837 E20.9019
G1 X138.729 Y155.556 E20.94028
G1 X138.382 Y156.242 E20.97864
G1 X137.966 Y156.889 E21.01701
G1 X137.485 Y157.489 E21.05538
G1 X137.193 Y157.799 E21.07663
G1 X137.076 Y157.916 E21.08488
G1 X136.504 Y158.43 E21.12325
G1 X135.882 Y158.883 E21.16164
G1 X135.217 Y159.269 E21.2
G1 X134.515 Y159.584 E21.23838
G1 X133.784 Y159.824 E21.27677
G1 X133.033 Y159.987 E21.31511
G1 X132.268 Y160.071 E21.3535
G1 X131.867 Y160.083 E21.37352
G1 X129.431 Y160.091 E21.49505
G1 X123.286 Y160.091 E21.80163
G1 X122.518 Y160.051 E21.84
G1 X121.424 Y159.853 E21.89546
G1 X121.374 Y159.84 E21.89804
G1 X120.641 Y159.608 E21.9364
G1 X119.935 Y159.301 E21.97481
G1 X119.499 Y159.065 E21.99954
G1 X118.643 Y158.564 E22.04902
G1 X117.775 Y158.069 E22.09887
G1 X116.044 Y157.112 E22.19755
G1 X115.218 Y156.581 E22.24654
G1 X115.074 Y156.465 E22.25577
G1 X114.843 Y156.802 E22.27615
G1 X114.344 Y157.388 E22.31455
G1 X113.892 Y157.828 E22.34602
G1 X113.781 Y157.927 E22.35344
G1 X113.181 Y158.408 E22.39181
G1 X112.534 Y158.825 E22.43021
G1 X111.848 Y159.172 E22.46856
G1 X111.129 Y159.446 E22.50695
G1 X110.386 Y159.644 E22.54531
G1 X109.626 Y159.764 E22.5837
G1 X108.885 Y159.804 E22.62072
G1 X96.125 Y159.855 E23.25733
G1 X95.356 Y159.818 E23.29574
G1 X94.596 Y159.702 E23.33409
G1 X93.852 Y159.507 E23.37247
G1 X93.132 Y159.236 E23.41085
G1 X92.444 Y158.892 E23.44922
G1 X91.796 Y158.478 E23.48759
G1 X91.194 Y157.999 E23.52597
G1 X90.885 Y157.71 E23.54707
G1 X90.767 Y157.593 E23.55537
G1 X90.249 Y157.024 E23.59375
G1 X89.794 Y156.404 E23.63212
G1 X89.405 Y155.74 E23.67052
G1 X89.088 Y155.04 E23.70885
G1 X88.845 Y154.31 E23.74724
G1 X88.678 Y153.559 E23.78562
G1 X88.591 Y152.795 E23.82398
G1 X88.577 Y152.338 E23.84679
G1 X88.577 Y151.782 E23.87453
G1 X88.613 Y151.085 E23.90935
G1 X88.589 Y150.864 E23.92044
G1 X88.577 Y150.439 E23.94165
G1 X88.577 Y124.884 E25.2166
G1 X88.611 Y124.23 E25.24927
G1 X88.607 Y124.201 E25.25073
G1 X88.577 Y123.541 E25.28369
G1 X88.577 Y122.982 E25.31158
G1 X88.617 Y122.214 E25.34995
G1 X88.736 Y121.454 E25.38833
G1 X88.934 Y120.711 E25.42669
G1 X89.208 Y119.992 E25.46508
G1 X89.555 Y119.306 E25.50343
G1 X89.971 Y118.659 E25.54181
G1 X90.452 Y118.059 E25.58017
G1 X90.767 Y117.727 E25.603
G1 X90.885 Y117.61 E25.61129
G1 X91.458 Y117.098 E25.64963
G1 X92.082 Y116.648 E25.68801
G1 X92.749 Y116.265 E25.72639
G1 X93.452 Y115.953 E25.76476
G1 X93.984 Y115.781 E25.79265
G1 X93.323 Y115.032 E25.84249
G1 X93.252 Y114.963 E25.84743
G1 X92.705 Y114.373 E25.88757
G1 X92.327 Y113.918 E25.91708
G1 X91.867 Y113.301 E25.95548
G1 X91.473 Y112.641 E25.99383
G1 X91.15 Y111.942 E26.03224
G1 X90.902 Y111.215 E26.07056
G1 X90.73 Y110.465 E26.10895
G1 X90.637 Y109.701 E26.14735
G1 X90.623 Y108.932 E26.18572
G1 X90.69 Y108.166 E26.22408
G1 X90.836 Y107.411 E26.26245
G1 X91.059 Y106.675 E26.30082
G1 X91.344 Y105.995 E26.3376
G1 X91.455 Y105.763 E26.35043
G1 X91.822 Y105.088 E26.38876
G1 X92.258 Y104.454 E26.42715
G1 X92.757 Y103.869 E26.46551
G1 X93.314 Y103.338 E26.50391
G1 X93.924 Y102.869 E26.54229
G1 X94.578 Y102.465 E26.58065
G1 X95.271 Y102.131 E26.61903
G1 X95.995 Y101.872 E26.65739
G1 X96.742 Y101.688 E26.69577
G1 X97.504 Y101.584 E26.73414
G1 X98.207 Y101.557 E26.76924
G1 X106.98 Y101.648 E27.20695
G1 X107.747 Y101.696 E27.24529
G1 X108.506 Y101.824 E27.28369
G1 X109.247 Y102.029 E27.32205
G1 X109.963 Y102.31 E27.36042
G1 X110.646 Y102.664 E27.3988
G1 X111.316 Y103.108 E27.4389
G1 X111.421 Y103.186 E27.44543
G1 X112.014 Y103.676 E27.4838
G1 X112.552 Y104.225 E27.52215
G1 X113.031 Y104.827 E27.56053
G1 X113.072 Y104.891 E27.56433
G1 X113.128 Y104.883 E27.56715
G1 X113.128 Y97.146 E27.95315
G1 X113.075 Y97.139 E27.95582
G1 X112.604 Y97.745 E27.99411
G1 X112.071 Y98.3 E28.0325
G1 X111.438 Y98.831 E28.07372
G1 X111.335 Y98.908 E28.08013
G1 X110.696 Y99.336 E28.1185
G1 X110.016 Y99.695 E28.15687
G1 X109.302 Y99.982 E28.19526
G1 X108.562 Y100.193 E28.23365
G1 X107.805 Y100.326 E28.272
G1 X106.971 Y100.381 E28.31369
G1 X101.578 Y100.429 E28.58276
G1 X98.223 Y100.471 E28.75016
G1 X97.454 Y100.441 E28.78855
G1 X96.693 Y100.331 E28.82691
G1 X95.947 Y100.143 E28.86529
G1 X95.225 Y99.878 E28.90367
G1 X94.535 Y99.539 E28.94202
G1 X93.883 Y99.131 E28.98039
G1 X93.277 Y98.657 E29.01878
G1 X92.723 Y98.123 E29.05716
G1 X92.228 Y97.535 E29.09551
G1 X91.797 Y96.898 E29.13388
G1 X91.478 Y96.312 E29.16717
G1 X91.366 Y96.082 E29.17993
G1 X91.066 Y95.374 E29.21829
G1 X90.84 Y94.638 E29.2567
G1 X90.693 Y93.883 E29.29508
G1 X90.624 Y93.117 E29.33345
G1 X90.635 Y92.348 E29.37182
G1 X90.727 Y91.584 E29.41021
G1 X90.897 Y90.834 E29.44858
G1 X91.143 Y90.106 E29.48692
G1 X91.465 Y89.407 E29.52531
G1 X91.857 Y88.745 E29.56369
G1 X92.353 Y88.082 E29.605
G1 X92.747 Y87.613 E29.63556
G1 X93.201 Y87.12 E29.669
G1 X93.274 Y87.048 E29.67411
G1 X95.243 Y84.815 E29.82264
G0 F6000 X95.543 Y85.08
G1 F1200 X96.258 Y84.378 E29.87263
G1 X96.345 Y84.304 E29.87833
G1 X96.613 Y84.087 E29.89554
G1 X98.59 Y82.567 E30.01995
G1 X99.207 Y82.143 E30.0573
G1 X99.572 Y81.935 E30.07826
G1 X100.336 Y81.529 E30.12142
G1 X101.153 Y81.16 E30.16615
G1 X102.371 Y80.701 E30.23109
G1 X103.177 Y80.451 E30.27319
G1 X104.785 Y80.058 E30.35577
G1 X105.52 Y79.92 E30.39308
G1 X106.266 Y79.86 E30.43042
G1 X107.014 Y79.881 E30.46775
G1 X107.452 Y79.931 E30.48975
G1 X109.692 Y80.256 E30.60267
G1 X110.426 Y80.402 E30.64001
