;FLAVOR:Marlin
;TIME:368
;Filament used: 0.175215m
;Layer height: 0.2
;MINX:104.7
;MINY:106.259
;MINZ:0.3
;MAXX:131.166
;MAXY:132.706
;MAXZ:3.7
;Generated with Cura_SteamEngine 4.8.0
M140 S60
M105
M190 S60
M104 S212
M105
M109 S212
M82 ;absolute extrusion mode
; Ender 3 Custom Start G-code
G92 E0 ; Reset Extruder
G28 ; Home all axes
G1 Z2.0 F3000 ; Move Z Axis up little to prevent scratching of Heat Bed
G1 X0.1 Y20 Z0.3 F5000.0 ; Move to start position
G1 X0.1 Y200.0 Z0.3 F1500.0 E15 ; Draw the first line
G1 X0.4 Y200.0 Z0.3 F5000.0 ; Move to side a little
G1 X0.4 Y20 Z0.3 F1500.0 E30 ; Draw the second line
G92 E0 ; Reset Extruder
G1 Z2.0 F3000 ; Move Z Axis up little to prevent scratching of Heat Bed
G1 X5 Y20 Z0.3 F5000.0 ; Move over to prevent blob squish
G92 E0
G92 E0
G1 F2700 E-5
;LAYER_COUNT:18
;LAYER:0
M107
;MESH:fanplugcover.stl
G0 F6000 X114.454 Y124.335 Z0.3
;TYPE:WALL-INNER
G1 F2700 E0
G1 F1200 X120.546 Y124.335 E0.30393
G1 X123.593 Y119.059 E0.60789
G1 X120.546 Y113.782 E0.9119
G1 X114.454 Y113.782 E1.21583
G1 X111.407 Y119.059 E1.51984
G1 X114.454 Y124.335 E1.8238
G0 F6000 X114.685 Y123.935
;TYPE:WALL-OUTER
G1 F1200 X120.315 Y123.935 E2.10468
G1 X123.131 Y119.059 E2.3856
G1 X120.315 Y114.182 E2.66657
G1 X114.685 Y114.182 E2.94745
G1 X111.869 Y119.059 E3.22841
G1 X114.685 Y123.935 E3.50933
G1 F2700 E-1.49067
G0 F6000 X114.425 Y124.084
G0 X117.5 Y124.525
G0 X117.5 Y123.07
G0 X117.112 Y132.706
G0 X117.18 Y131.251
G0 X117.5 Y131.458
;TYPE:WALL-INNER
G1 F2700 E3.50933
G1 F1200 X116.347 Y131.404 E3.56691
G1 X115.222 Y131.247 E3.62358
G1 X114.11 Y130.986 E3.68057
G1 X113.023 Y130.622 E3.73776
G1 X111.977 Y130.159 E3.79483
G1 X110.966 Y129.596 E3.85256
G1 X110.035 Y128.959 E3.90884
G1 X109.138 Y128.214 E3.96702
G1 X108.345 Y127.421 E4.02297
G1 X107.6 Y126.524 E4.08114
G1 X106.96 Y125.589 E4.13767
G1 X106.402 Y124.586 E4.19493
G1 X105.937 Y123.536 E4.25222
G1 X105.574 Y122.451 E4.3093
G1 X105.31 Y121.329 E4.36681
G1 X105.154 Y120.212 E4.42308
G1 X105.101 Y119.059 E4.48066
G1 X105.154 Y117.905 E4.53829
G1 X105.31 Y116.789 E4.59451
G1 X105.574 Y115.666 E4.65207
G1 X105.937 Y114.582 E4.7091
G1 X106.4 Y113.536 E4.76617
G1 X106.963 Y112.525 E4.8239
G1 X107.6 Y111.594 E4.88018
G1 X108.345 Y110.697 E4.93835
G1 X109.138 Y109.904 E4.9943
G1 X110.035 Y109.159 E5.05248
G1 X110.966 Y108.522 E5.10876
G1 X111.977 Y107.959 E5.16649
G1 X113.023 Y107.496 E5.22356
G1 X114.107 Y107.133 E5.28059
G1 X115.225 Y106.87 E5.33789
G1 X116.347 Y106.713 E5.39441
G1 X117.5 Y106.66 E5.452
G1 X118.653 Y106.713 E5.50958
G1 X119.775 Y106.87 E5.5661
G1 X120.893 Y107.133 E5.6234
G1 X121.977 Y107.496 E5.68044
G1 X123.023 Y107.959 E5.73751
G1 X124.034 Y108.522 E5.79524
G1 X124.965 Y109.159 E5.85152
G1 X125.862 Y109.904 E5.90969
G1 X126.655 Y110.697 E5.96564
G1 X127.4 Y111.594 E6.02381
G1 X128.037 Y112.525 E6.08009
G1 X128.6 Y113.536 E6.13783
G1 X129.063 Y114.582 E6.1949
G1 X129.426 Y115.666 E6.25193
G1 X129.69 Y116.789 E6.30948
G1 X129.846 Y117.905 E6.3657
G1 X129.899 Y119.059 E6.42334
G1 X129.846 Y120.212 E6.48092
G1 X129.69 Y121.329 E6.53719
G1 X129.426 Y122.451 E6.59469
G1 X129.063 Y123.536 E6.65177
G1 X128.598 Y124.586 E6.70906
G1 X128.04 Y125.589 E6.76633
G1 X127.4 Y126.524 E6.82286
G1 X126.655 Y127.421 E6.88103
G1 X125.862 Y128.214 E6.93698
G1 X124.965 Y128.959 E6.99515
G1 X124.034 Y129.596 E7.05143
G1 X123.023 Y130.159 E7.10917
G1 X121.977 Y130.622 E7.16623
G1 X120.89 Y130.986 E7.22342
G1 X119.778 Y131.247 E7.28041
G1 X118.653 Y131.404 E7.33708
G1 X117.5 Y131.458 E7.39467
G0 F6000 X117.5 Y131.859
;TYPE:WALL-OUTER
G1 F1200 X116.317 Y131.803 E7.45375
G1 X115.152 Y131.641 E7.51243
G1 X113.998 Y131.37 E7.57157
G1 X112.873 Y130.993 E7.63077
G1 X111.794 Y130.516 E7.68963
G1 X110.761 Y129.941 E7.74861
G1 X109.789 Y129.275 E7.80739
G1 X108.87 Y128.512 E7.86698
G1 X108.047 Y127.689 E7.92505
G1 X107.284 Y126.77 E7.98464
G1 X106.618 Y125.798 E8.04343
G1 X106.043 Y124.764 E8.10245
G1 X105.566 Y123.686 E8.16127
G1 X105.189 Y122.56 E8.22051
G1 X104.916 Y121.402 E8.27986
G1 X104.755 Y120.242 E8.33829
G1 X104.7 Y119.059 E8.39737
G1 X104.755 Y117.875 E8.45651
G1 X104.916 Y116.716 E8.51489
G1 X105.189 Y115.557 E8.57429
G1 X105.566 Y114.432 E8.63349
G1 X106.043 Y113.353 E8.69234
G1 X106.618 Y112.32 E8.75133
G1 X107.284 Y111.348 E8.81011
G1 X108.047 Y110.429 E8.8697
G1 X108.87 Y109.606 E8.92777
G1 X109.789 Y108.843 E8.98736
G1 X110.761 Y108.177 E9.04615
G1 X111.794 Y107.602 E9.10513
G1 X112.873 Y107.125 E9.16399
G1 X113.998 Y106.748 E9.22318
G1 X115.152 Y106.476 E9.28233
G1 X116.317 Y106.314 E9.34101
G1 X117.5 Y106.259 E9.4001
G1 X118.683 Y106.314 E9.45918
G1 X119.848 Y106.476 E9.51786
G1 X121.002 Y106.748 E9.57701
G1 X122.127 Y107.125 E9.63621
G1 X123.206 Y107.602 E9.69506
G1 X124.239 Y108.177 E9.75405
G1 X125.211 Y108.843 E9.81283
G1 X126.13 Y109.606 E9.87242
G1 X126.953 Y110.429 E9.93049
G1 X127.716 Y111.348 E9.99008
G1 X128.382 Y112.32 E10.04887
G1 X128.957 Y113.353 E10.10785
G1 X129.434 Y114.432 E10.1667
G1 X129.811 Y115.557 E10.2259
G1 X130.084 Y116.716 E10.2853
G1 X130.245 Y117.875 E10.34368
G1 X130.3 Y119.059 E10.40282
G1 X130.245 Y120.242 E10.4619
G1 X130.084 Y121.402 E10.52033
G1 X129.811 Y122.56 E10.57968
G1 X129.434 Y123.686 E10.63893
G1 X128.957 Y124.764 E10.69774
G1 X128.382 Y125.798 E10.75676
G1 X127.716 Y126.77 E10.81555
G1 X126.953 Y127.689 E10.87514
G1 X126.13 Y128.512 E10.93321
G1 X125.211 Y129.275 E10.9928
G1 X124.239 Y129.941 E11.05158
G1 X123.206 Y130.516 E11.11057
G1 X122.127 Y130.993 E11.16942
G1 X121.002 Y131.37 E11.22862
G1 X119.848 Y131.641 E11.28776
G1 X118.683 Y131.803 E11.34644
G1 X117.5 Y131.859 E11.40552
G0 F6000 X117.5 Y131.419
G0 X117.5 Y131.068
;TYPE:SKIN
G1 F1200 X116.376 Y131.014 E11.46166
G1 X115.299 Y130.864 E11.51592
G1 X114.216 Y130.61 E11.57141
G1 X113.166 Y130.259 E11.62665
G1 X112.146 Y129.807 E11.68231
G1 X111.172 Y129.265 E11.73792
G1 X110.269 Y128.647 E11.79251
G1 X109.393 Y127.919 E11.84933
G1 X108.64 Y127.166 E11.90246
G1 X107.912 Y126.29 E11.95929
G1 X107.291 Y125.383 E12.01413
G1 X106.754 Y124.417 E12.06927
G1 X106.298 Y123.387 E12.12547
G1 X105.95 Y122.348 E12.18013
G1 X105.692 Y121.247 E12.23655
G1 X105.544 Y120.183 E12.29014
G1 X105.491 Y119.059 E12.34628
G1 X105.544 Y117.93 E12.40267
G1 X105.69 Y116.879 E12.45561
G1 X105.952 Y115.766 E12.51265
G1 X106.299 Y114.728 E12.56726
G1 X106.753 Y113.702 E12.62323
G1 X107.294 Y112.731 E12.67869
G1 X107.912 Y111.828 E12.73328
G1 X108.64 Y110.952 E12.7901
G1 X109.393 Y110.199 E12.84323
G1 X110.269 Y109.471 E12.90006
G1 X111.172 Y108.853 E12.95465
G1 X112.146 Y108.311 E13.01026
G1 X113.166 Y107.859 E13.06592
G1 X114.211 Y107.51 E13.12089
G1 X115.305 Y107.252 E13.17696
G1 X116.376 Y107.103 E13.23091
G1 X117.5 Y107.05 E13.28705
G1 X118.624 Y107.103 E13.34319
G1 X119.695 Y107.252 E13.39713
G1 X120.789 Y107.51 E13.45321
G1 X121.834 Y107.859 E13.50818
G1 X122.854 Y108.311 E13.56384
G1 X123.828 Y108.853 E13.61945
G1 X124.731 Y109.471 E13.67404
G1 X125.607 Y110.199 E13.73087
G1 X126.36 Y110.952 E13.78399
G1 X127.088 Y111.828 E13.84082
G1 X127.706 Y112.731 E13.89541
G1 X128.247 Y113.702 E13.95087
G1 X128.701 Y114.728 E14.00684
G1 X129.048 Y115.766 E14.06144
G1 X129.31 Y116.879 E14.11849
G1 X129.456 Y117.93 E14.17143
G1 X129.509 Y119.059 E14.22782
G1 X129.456 Y120.183 E14.28395
G1 X129.308 Y121.247 E14.33755
G1 X129.05 Y122.348 E14.39397
G1 X128.702 Y123.387 E14.44863
G1 X128.246 Y124.417 E14.50483
G1 X127.709 Y125.383 E14.55997
G1 X127.088 Y126.29 E14.61481
G1 X126.36 Y127.166 E14.67164
G1 X125.607 Y127.919 E14.72476
G1 X124.731 Y128.647 E14.78159
G1 X123.828 Y129.265 E14.83618
G1 X122.854 Y129.807 E14.89179
G1 X121.834 Y130.259 E14.94745
G1 X120.784 Y130.61 E15.00269
G1 X119.701 Y130.864 E15.05818
G1 X118.624 Y131.014 E15.11243
G1 X117.5 Y131.068 E15.16857
G1 F2700 E10.16857
G0 F6000 X117.5 Y131.348
G0 X116.364 Y131.194
G0 X116.161 Y132.655
G0 X116.364 Y123.07
G0 X116.364 Y124.525
G0 X114.395 Y124.452
G0 X114.229 Y124.725
G1 F2700 E15.16857
G1 F1200 X120.771 Y124.725 E15.49496
G1 X124.043 Y119.059 E15.82138
G1 X120.771 Y113.392 E16.14785
G1 X114.229 Y113.392 E16.47423
G1 X110.957 Y119.059 E16.8007
G1 X114.229 Y124.725 E17.12713
G1 F2700 E12.12713
G0 F6000 X114.395 Y124.452
G0 X115.18 Y123.076
G0 X110.771 Y130.935
G0 X111.488 Y129.647
G0 X110.28 Y128.993
G0 X110.529 Y128.631
G1 F2700 E17.12713
G1 F1200 X107.927 Y126.029 E17.31072
G0 F6000 X107.564 Y126.276
G0 X106.624 Y124.758
G0 X107.009 Y124.545
G1 F1200 X112.012 Y129.549 E17.66374
G0 F6000 X111.798 Y129.933
G0 X112.89 Y130.442
G0 X113.069 Y130.039
G1 F1200 X106.517 Y123.488 E18.12598
G0 F6000 X106.207 Y122.612
G1 F1200 X113.944 Y130.349 E18.67187
G0 F6000 X114.724 Y130.563
G1 F1200 X105.993 Y121.833 E19.28785
G0 F6000 X105.833 Y121.106
G1 F1200 X115.449 Y130.722 E19.96632
G0 F6000 X116.106 Y130.814
G1 F1200 X105.742 Y120.449 E20.69759
G0 F6000 X105.687 Y119.829
G1 F1200 X116.727 Y130.869 E21.47652
G0 F6000 X117.321 Y130.897
G1 F1200 X105.659 Y119.235 E22.29934
G0 F6000 X105.668 Y118.679
G1 F1200 X117.877 Y130.888 E23.16075
G0 F6000 X118.417 Y130.862
G1 F1200 X105.694 Y118.139 E24.05842
G0 F6000 X105.747 Y117.626
G1 F1200 X118.929 Y130.809 E24.98852
G0 F6000 X119.426 Y130.739
G1 F1200 X105.815 Y117.129 E25.94881
G0 F6000 X105.906 Y116.654
G1 F1200 X119.902 Y130.65 E26.93631
G0 F6000 X120.361 Y130.543
G1 F1200 X114.701 Y124.884 E27.33562
G0 F6000 X115.267 Y124.884
G1 F1200 X120.813 Y130.43 E27.72692
G0 F6000 X121.237 Y130.288
G1 F1200 X115.833 Y124.884 E28.1082
G0 F6000 X116.398 Y124.884
G1 F1200 X121.661 Y130.146 E28.47949
G0 F6000 X122.061 Y129.981
G1 F1200 X116.964 Y124.884 E28.83912
G0 F6000 X117.53 Y124.884
G1 F1200 X122.453 Y129.807 E29.18646
G0 F6000 X122.841 Y129.629
G1 F1200 X118.096 Y124.884 E29.52125
G0 F6000 X118.661 Y124.884
G1 F1200 X123.204 Y129.427 E29.84178
G0 F6000 X123.568 Y129.225
G1 F1200 X119.227 Y124.884 E30.14806
G0 F6000 X119.793 Y124.884
G1 F1200 X123.917 Y129.008 E30.43903
G0 F6000 X124.253 Y128.778
G1 F1200 X120.358 Y124.884 E30.71381
G0 F6000 X120.885 Y124.845
G1 F1200 X124.589 Y128.549 E30.97515
G0 F6000 X124.901 Y128.296
G1 F1200 X121.092 Y124.486 E31.24393
G0 F6000 X121.299 Y124.128
G1 F1200 X125.21 Y128.038 E31.51983
G0 F6000 X125.518 Y127.781
G1 F1200 X121.506 Y123.769 E31.8029
G0 F6000 X121.713 Y123.41
G1 F1200 X125.801 Y127.498 E32.09133
G0 F6000 X126.084 Y127.215
G1 F1200 X121.92 Y123.052 E32.38509
G0 F6000 X122.127 Y122.693
G1 F1200 X126.355 Y126.92 E32.68336
G0 F6000 X126.612 Y126.612
G1 F1200 X122.335 Y122.335 E32.98513
G0 F6000 X122.541 Y121.975
G1 F1200 X126.869 Y126.303 E33.29049
G0 F6000 X127.108 Y125.977
G1 F1200 X122.748 Y121.617 E33.59811
G0 F6000 X122.955 Y121.258
G1 F1200 X127.338 Y125.641 E33.90736
G0 F6000 X127.568 Y125.305
G1 F1200 X123.163 Y120.9 E34.21815
G0 F6000 X123.37 Y120.541
G1 F1200 X127.77 Y124.942 E34.52863
G0 F6000 X127.972 Y124.578
G1 F1200 X123.577 Y120.183 E34.83872
G0 F6000 X123.783 Y119.824
G1 F1200 X128.164 Y124.204 E35.14779
G0 F6000 X128.337 Y123.812
G1 F1200 X123.991 Y119.465 E35.45446
G0 F6000 X124.198 Y119.107
G1 F1200 X128.511 Y123.42 E35.75877
G0 F6000 X128.66 Y123.004
G1 F1200 X123.557 Y117.9 E36.11885
G0 F6000 X123.177 Y118.119
G0 X122.404 Y116.781
G0 X122.784 Y116.562
G1 F1200 X128.803 Y122.58 E36.54348
G0 F6000 X128.932 Y122.144
G1 F1200 X122.011 Y115.223 E37.0318
G0 F6000 X121.631 Y115.442
G0 X120.858 Y114.103
G0 X121.238 Y113.884
G1 F1200 X129.039 Y121.686 E37.58224
G0 F6000 X129.147 Y121.227
G1 F1200 X115.33 Y107.41 E38.5571
G0 F6000 X114.872 Y107.518
G1 F1200 X120.586 Y113.232 E38.96025
G0 F6000 X120.02 Y113.232
G1 F1200 X114.414 Y107.626 E39.35579
G0 F6000 X113.979 Y107.756
G1 F1200 X119.455 Y113.232 E39.74215
G0 F6000 X118.889 Y113.232
G1 F1200 X113.554 Y107.898 E40.11853
G0 F6000 X113.138 Y108.047
G1 F1200 X118.323 Y113.232 E40.48436
G0 F6000 X117.758 Y113.232
G1 F1200 X112.746 Y108.22 E40.83798
G0 F6000 X112.353 Y108.393
G1 F1200 X117.192 Y113.232 E41.1794
G0 F6000 X116.626 Y113.232
G1 F1200 X111.98 Y108.586 E41.5072
G0 F6000 X111.616 Y108.788
G1 F1200 X116.06 Y113.232 E41.82075
G0 F6000 X115.495 Y113.232
G1 F1200 X111.253 Y108.99 E42.12004
G0 F6000 X110.917 Y109.22
G1 F1200 X114.929 Y113.232 E42.40311
G0 F6000 X114.363 Y113.232
G1 F1200 X110.581 Y109.45 E42.66995
G0 F6000 X110.255 Y109.689
G1 F1200 X114.013 Y113.447 E42.9351
G0 F6000 X113.806 Y113.806
G1 F1200 X109.946 Y109.946 E43.20744
G0 F6000 X109.638 Y110.204
G1 F1200 X113.598 Y114.164 E43.48684
G0 F6000 X113.391 Y114.523
G1 F1200 X109.342 Y110.474 E43.77252
G0 F6000 X109.059 Y110.756
G1 F1200 X113.184 Y114.881 E44.06356
G0 F6000 X112.977 Y115.24
G1 F1200 X108.777 Y111.039 E44.35993
G0 F6000 X108.518 Y111.347
G1 F1200 X112.77 Y115.599 E44.65993
G0 F6000 X112.563 Y115.957
G1 F1200 X108.261 Y111.655 E44.96346
G0 F6000 X108.008 Y111.968
G1 F1200 X112.356 Y116.316 E45.27023
G0 F6000 X112.149 Y116.674
G1 F1200 X107.778 Y112.304 E45.5786
G0 F6000 X107.548 Y112.639
G1 F1200 X111.942 Y117.033 E45.88862
G0 F6000 X111.734 Y117.391
G1 F1200 X107.332 Y112.989 E46.1992
G0 F6000 X107.129 Y113.352
G1 F1200 X111.528 Y117.75 E46.50954
G0 F6000 X111.321 Y118.109
G1 F1200 X106.927 Y113.715 E46.81956
G0 F6000 X106.749 Y114.102
G1 F1200 X111.114 Y118.467 E47.12753
G0 F6000 X110.906 Y118.826
G1 F1200 X106.575 Y114.495 E47.43311
G0 F6000 X106.411 Y114.896
G1 F1200 X111.045 Y119.53 E47.76006
G0 F6000 X111.425 Y119.311
G0 X112.199 Y120.651
G0 X111.819 Y120.87
G1 F1200 X106.268 Y115.319 E48.15172
G0 F6000 X106.126 Y115.743
G1 F1200 X112.592 Y122.209 E48.60793
G0 F6000 X112.972 Y121.99
G0 X113.746 Y123.329
G0 X113.366 Y123.548
G1 F1200 X106.013 Y116.196 E49.12669
G0 F6000 X105.587 Y116.096
G0 X106.096 Y114.644
G0 X106.557 Y113.604
G0 X107.105 Y112.619
G0 X107.735 Y111.699
G0 X108.478 Y110.805
G0 X109.246 Y110.037
G0 X110.14 Y109.294
G0 X111.06 Y108.664
G0 X112.049 Y108.114
G0 X113.085 Y107.655
G0 X113.693 Y107.452
G0 X115.767 Y106.905
G0 X115.826 Y107.341
G1 F1200 X129.218 Y120.732 E50.07153
G0 F6000 X129.286 Y120.235
G1 F1200 X116.323 Y107.272 E50.98614
G0 F6000 X116.857 Y107.24
G1 F1200 X129.317 Y119.701 E51.86529
G0 F6000 X129.343 Y119.161
G1 F1200 X117.397 Y107.215 E52.70815
G0 F6000 X117.98 Y107.232
G1 F1200 X129.325 Y118.577 E53.5086
G0 F6000 X129.297 Y117.983
G1 F1200 X118.575 Y107.261 E54.2651
G0 F6000 X119.228 Y107.349
G1 F1200 X129.211 Y117.331 E54.96941
G0 F6000 X129.09 Y116.645
G1 F1200 X119.913 Y107.468 E55.6169
G0 F6000 X120.652 Y107.641
G1 F1200 X128.916 Y115.906 E56.20001
G0 F6000 X128.646 Y115.069
G1 F1200 X121.49 Y107.913 E56.7049
G0 F6000 X121.629 Y107.497
G0 X122.626 Y107.904
G0 X122.448 Y108.306
G1 F1200 X128.252 Y114.11 E57.1144
G0 F6000 X128.655 Y113.933
G0 X128.012 Y112.707
G0 X127.627 Y112.92
G1 F1200 X123.639 Y108.931 E57.39581
G0 F6000 X123.81 Y108.624
G1 F2700 E52.39581
;MESH:NONMESH
G0 F300 X123.81 Y108.624 Z0.5
G0 F6000 X123.853 Y108.548
G0 X124.767 Y109.254
G0 X125.589 Y108.055
G0 X119.82 Y115.041
G0 X120.657 Y113.589
G0 X123.402 Y119.059
G0 X120.449 Y124.169
G0 X114.454 Y124.335
;TIME_ELAPSED:73.956377
;LAYER:1
M106 S127.5
;TYPE:WALL-INNER
;MESH:fanplugcover.stl
G1 F2700 E57.39581
G1 F1350 X120.546 Y124.335 E57.59844
G1 X123.593 Y119.059 E57.80108
G1 X120.546 Y113.782 E58.00375
G1 X114.454 Y113.782 E58.20637
G1 X111.407 Y119.059 E58.40904
G1 X114.454 Y124.335 E58.61168
G0 F7500 X114.685 Y123.935
;TYPE:WALL-OUTER
G1 F1350 X120.315 Y123.935 E58.79894
G1 X123.131 Y119.059 E58.98622
G1 X120.315 Y114.182 E59.17352
G1 X114.685 Y114.182 E59.36078
G1 X111.869 Y119.059 E59.54809
G1 X114.685 Y123.935 E59.73537
G1 F2700 E54.73537
G0 F7500 X114.425 Y124.084
G0 X117.5 Y124.525
G0 X117.5 Y123.07
G0 X117.112 Y132.706
G0 X117.18 Y131.251
G0 X117.5 Y131.458
;TYPE:WALL-INNER
G1 F2700 E59.73537
G1 F1350 X116.347 Y131.404 E59.77376
G1 X115.222 Y131.247 E59.81154
G1 X114.11 Y130.986 E59.84953
G1 X113.023 Y130.622 E59.88766
G1 X111.977 Y130.159 E59.9257
G1 X110.966 Y129.596 E59.96419
G1 X110.035 Y128.959 E60.00171
G1 X109.138 Y128.214 E60.04049
G1 X108.345 Y127.421 E60.07779
G1 X107.6 Y126.524 E60.11657
G1 X106.96 Y125.589 E60.15426
G1 X106.402 Y124.586 E60.19243
