;FLAVOR:Marlin
;TIME:9659
;Filament used: 6.44016m
;Layer height: 0.25
;MINX:75.77
;MINY:96.321
;MINZ:0.3
;MAXX:152.363
;MAXY:135.928
;MAXZ:24.3
;Generated with Cura_SteamEngine 4.8.0
M140 S80
M105
M190 S80
M104 S212
M105
M109 S212
M82 ;absolute extrusion mode
; Ender 3 Custom Start G-code
G92 E0 ; Reset Extruder
G28 ; Home all axes
G1 Z2.0 F3000 ; Move Z Axis up little to prevent scratching of Heat Bed
G1 X0.1 Y20 Z0.3 F5000.0 ; Move to start position
G1 X0.1 Y200.0 Z0.3 F1500.0 E15 ; Draw the first line
G1 X0.4 Y200.0 Z0.3 F5000.0 ; Move to side a little
G1 X0.4 Y20 Z0.3 F1500.0 E30 ; Draw the second line
G92 E0 ; Reset Extruder
G1 Z2.0 F3000 ; Move Z Axis up little to prevent scratching of Heat Bed
G1 X5 Y20 Z0.3 F5000.0 ; Move over to prevent blob squish
G92 E0
G92 E0
G1 F1500 E-6.5
;LAYER_COUNT:97
;LAYER:0
M107
G0 F6000 X87.621 Y115.133 Z0.3
;TYPE:SKIRT
G1 F1500 E0
G1 F1200 X87.697 Y115.269 E0.00777
G1 X88.031 Y115.707 E0.03525
G1 X88.308 Y115.974 E0.05445
G1 X88.186 Y116.247 E0.06937
G1 X88.124 Y116.465 E0.08067
G1 X88.015 Y116.016 E0.10372
G1 X87.81 Y115.504 E0.13124
G1 X87.613 Y115.167 E0.15071
G1 X87.621 Y115.133 E0.15246
G0 F6000 X87.229 Y115.079
G1 F1200 X87.341 Y114.57 E0.17846
G1 X87.369 Y114.185 E0.19772
G1 X87.627 Y114.185 E0.21059
G1 X87.633 Y114.212 E0.21197
G1 X87.828 Y114.695 E0.23796
G1 X88.094 Y115.143 E0.26395
G1 X88.426 Y115.545 E0.28996
G1 X88.708 Y115.806 E0.30913
G1 X88.8 Y115.882 E0.31508
G1 X88.737 Y115.984 E0.32107
G1 X88.534 Y116.464 E0.34707
G1 X88.407 Y116.969 E0.37305
G1 X88.358 Y117.551 E0.40218
G1 X88.358 Y117.712 E0.41022
G1 X88.261 Y117.829 E0.4178
G1 X87.993 Y118.276 E0.4438
G1 X87.796 Y118.758 E0.46978
G1 X87.676 Y119.265 E0.49577
G1 X87.674 Y119.295 E0.49727
G1 X87.605 Y119.032 E0.51084
G1 X87.536 Y118.874 E0.51944
G1 X87.643 Y118.611 E0.5336
G1 X87.764 Y118.104 E0.55961
G1 X87.804 Y117.506 E0.58951
G1 X87.796 Y117.108 E0.60937
G1 X87.746 Y116.589 E0.63538
G1 X87.617 Y116.084 E0.66139
G1 X87.412 Y115.605 E0.68738
G1 X87.174 Y115.221 E0.70992
G1 X87.229 Y115.079 E0.71752
G0 F6000 X86.871 Y114.878
G1 F1200 X86.96 Y114.396 E0.74197
G1 X86.975 Y114.094 E0.75706
G1 X86.975 Y113.785 E0.77247
G1 X87.942 Y113.785 E0.82072
G1 X88.033 Y114.148 E0.83939
G1 X88.227 Y114.597 E0.86379
G1 X88.492 Y115.009 E0.88823
G1 X88.963 Y115.498 E0.9221
G1 X89.322 Y115.794 E0.94531
G1 X89.066 Y116.22 E0.97011
G1 X88.886 Y116.676 E0.99457
G1 X88.783 Y117.154 E1.01896
G1 X88.758 Y117.55 E1.03876
G1 X88.759 Y117.855 E1.05398
G1 X88.57 Y118.084 E1.06879
G1 X88.325 Y118.508 E1.09322
G1 X88.151 Y118.966 E1.11766
G1 X88.055 Y119.445 E1.14204
G1 X88.034 Y119.841 E1.16182
G1 X88.04 Y120.239 E1.18168
G1 X88.088 Y120.726 E1.20609
G1 X88.214 Y121.199 E1.23051
G1 X88.333 Y121.463 E1.24496
G1 X88.287 Y121.543 E1.24956
G1 X88.116 Y122.002 E1.274
G1 X88.022 Y122.482 E1.2984
G1 X88.004 Y122.899 E1.31923
G1 X88.015 Y123.296 E1.33904
G1 X88.069 Y123.783 E1.36349
G1 X88.172 Y124.153 E1.38265
G1 X87.743 Y124.338 E1.40596
G1 X87.662 Y124.321 E1.41009
G1 X87.339 Y124.186 E1.42755
G1 X87.395 Y123.902 E1.44199
G1 X87.413 Y123.509 E1.46162
G1 X87.405 Y123.111 E1.48148
G1 X87.356 Y122.624 E1.5059
G1 X87.227 Y122.151 E1.53036
G1 X87.095 Y121.861 E1.54626
G1 X87.133 Y121.792 E1.55019
G1 X87.3 Y121.332 E1.5746
G1 X87.389 Y120.851 E1.59901
G1 X87.403 Y120.464 E1.61833
G1 X87.392 Y120.065 E1.63824
G1 X87.338 Y119.579 E1.66264
G1 X87.207 Y119.107 E1.68707
G1 X87.115 Y118.861 E1.70018
G1 X87.288 Y118.403 E1.7246
G1 X87.385 Y117.923 E1.74903
G1 X87.404 Y117.514 E1.76946
G1 X87.396 Y117.116 E1.78932
G1 X87.347 Y116.629 E1.81374
G1 X87.218 Y116.156 E1.8382
G1 X87.015 Y115.711 E1.8626
G1 X86.742 Y115.305 E1.88701
G1 X86.724 Y115.285 E1.88835
G1 X86.871 Y114.878 E1.90994
G0 F6000 X85.676 Y114.681
G1 F1200 X85.762 Y114.312 E1.92885
G1 X85.775 Y114.094 E1.93974
G1 X85.775 Y112.585 E2.01503
G1 X89.099 Y112.585 E2.18086
G1 X89.074 Y112.786 E2.19097
G1 X89.074 Y113.185 E2.21087
G1 X89.114 Y113.562 E2.22979
G1 X89.232 Y113.922 E2.24869
G1 X89.422 Y114.249 E2.26755
G1 X89.727 Y114.573 E2.28975
G1 X91.121 Y115.725 E2.37998
G1 X90.97 Y115.813 E2.3887
G1 X90.765 Y115.99 E2.40221
G1 X90.483 Y116.273 E2.42214
G1 X90.245 Y116.569 E2.44109
G1 X90.075 Y116.907 E2.45996
G1 X89.978 Y117.273 E2.47885
G1 X89.958 Y117.548 E2.49261
G1 X89.96 Y118.318 E2.53103
G1 X89.742 Y118.542 E2.54662
G1 X89.509 Y118.841 E2.56553
G1 X89.342 Y119.181 E2.58443
G1 X89.251 Y119.549 E2.60334
G1 X89.234 Y119.823 E2.61704
G1 X89.24 Y120.221 E2.6369
G1 X89.286 Y120.597 E2.6558
G1 X89.409 Y120.956 E2.67473
G1 X89.605 Y121.28 E2.69362
G1 X89.785 Y121.484 E2.70719
G1 X89.704 Y121.569 E2.71305
G1 X89.472 Y121.869 E2.73197
G1 X89.308 Y122.21 E2.75085
G1 X89.219 Y122.579 E2.76979
G1 X89.204 Y122.866 E2.78413
G1 X89.215 Y123.263 E2.80394
G1 X89.265 Y123.638 E2.82281
G1 X89.393 Y123.995 E2.84173
G1 X89.593 Y124.317 E2.86065
G1 X89.784 Y124.528 E2.87485
G1 X89.949 Y124.682 E2.88611
G1 X89.954 Y125.185 E2.9112
G1 X89.155 Y125.185 E2.95106
G1 X88.778 Y125.225 E2.96998
G1 X88.418 Y125.343 E2.98888
G1 X88.079 Y125.542 E3.00849
G1 X87.76 Y125.78 E3.02835
G1 X87.719 Y125.818 E3.03114
G1 X87.678 Y125.78 E3.03392
G1 X87.359 Y125.542 E3.05378
G1 X87.033 Y125.349 E3.07268
G1 X86.674 Y125.228 E3.09158
G1 X86.283 Y125.185 E3.11121
G1 X85.605 Y125.185 E3.14503
G1 X85.529 Y125.007 E3.15469
G1 X85.713 Y124.815 E3.16796
G1 X85.945 Y124.516 E3.18684
G1 X86.109 Y124.174 E3.20576
G1 X86.198 Y123.806 E3.22465
G1 X86.214 Y123.533 E3.23829
G1 X86.206 Y123.135 E3.25815
G1 X86.158 Y122.759 E3.27706
G1 X86.033 Y122.401 E3.29598
G1 X85.836 Y122.078 E3.31486
G1 X85.64 Y121.86 E3.32948
G1 X85.715 Y121.78 E3.33495
G1 X85.944 Y121.478 E3.35386
G1 X86.105 Y121.135 E3.37277
G1 X86.191 Y120.766 E3.39167
G1 X86.203 Y120.497 E3.4051
G1 X86.192 Y120.098 E3.42502
G1 X86.142 Y119.723 E3.44389
G1 X86.014 Y119.366 E3.46281
G1 X85.815 Y119.044 E3.4817
G1 X85.656 Y118.869 E3.49349
G1 X85.697 Y118.827 E3.49642
G1 X85.931 Y118.529 E3.51532
G1 X86.097 Y118.188 E3.53424
G1 X86.188 Y117.82 E3.55316
G1 X86.205 Y117.538 E3.56725
G1 X86.197 Y117.14 E3.58711
G1 X86.149 Y116.764 E3.60602
G1 X86.024 Y116.406 E3.62494
G1 X85.827 Y116.083 E3.64382
G1 X85.644 Y115.878 E3.65753
G1 X85.489 Y115.729 E3.66825
G1 X85.492 Y115.056 E3.70183
G1 X85.516 Y115.025 E3.70379
G1 X85.676 Y114.681 E3.72271
G0 F6000 X85.322 Y114.475
G1 F1200 X85.375 Y114.094 E3.7419
G1 X85.375 Y112.145 E3.83914
G1 X85.636 Y112.185 E3.85231
G1 X89.616 Y112.185 E4.05088
G1 X89.587 Y112.235 E4.05376
G1 X89.493 Y112.556 E4.07045
G1 X89.474 Y112.786 E4.08196
G1 X89.474 Y113.185 E4.10187
G1 X89.514 Y113.517 E4.11855
G1 X89.631 Y113.829 E4.13518
G1 X89.819 Y114.106 E4.15188
G1 X89.982 Y114.264 E4.1632
G1 X91.93 Y115.874 E4.28929
G1 X91.703 Y115.902 E4.3007
G1 X91.391 Y116.021 E4.31736
G1 X91.048 Y116.273 E4.33859
G1 X90.766 Y116.556 E4.35852
G1 X90.56 Y116.819 E4.37519
G1 X90.423 Y117.123 E4.39183
G1 X90.358 Y117.547 E4.41323
G1 X90.36 Y118.48 E4.45977
G1 X90.029 Y118.821 E4.48348
G1 X89.827 Y119.087 E4.50015
G1 X89.693 Y119.393 E4.51681
G1 X89.634 Y119.817 E4.53817
G1 X89.64 Y120.215 E4.55803
G1 X89.685 Y120.546 E4.57469
G1 X89.807 Y120.857 E4.59136
G1 X90.064 Y121.197 E4.61262
G1 X90.344 Y121.469 E4.6321
G1 X90.344 Y121.481 E4.6327
G1 X89.993 Y121.846 E4.65796
G1 X89.792 Y122.113 E4.67464
G1 X89.66 Y122.42 E4.69131
G1 X89.604 Y122.855 E4.71319
G1 X89.615 Y123.252 E4.733
G1 X89.664 Y123.582 E4.74965
G1 X89.789 Y123.892 E4.76632
G1 X90.058 Y124.235 E4.78807
G1 X90.347 Y124.505 E4.8078
G1 X90.356 Y125.357 E4.85031
G1 X90.126 Y125.585 E4.86647
G1 X89.155 Y125.585 E4.91491
G1 X88.823 Y125.625 E4.93159
G1 X88.511 Y125.742 E4.94822
G1 X88.318 Y125.863 E4.95958
G1 X87.999 Y126.101 E4.97944
G1 X87.757 Y126.331 E4.9961
G1 X87.717 Y126.393 E4.99978
G1 X87.439 Y126.101 E5.01989
G1 X87.12 Y125.863 E5.03975
G1 X86.831 Y125.696 E5.0564
G1 X86.51 Y125.603 E5.07307
G1 X86.283 Y125.585 E5.08443
G1 X85.326 Y125.585 E5.13218
G1 X85.271 Y125.421 E5.14081
G1 X85.114 Y125.054 E5.16072
G1 X85.097 Y124.879 E5.1695
G1 X85.424 Y124.538 E5.19307
G1 X85.625 Y124.271 E5.20974
G1 X85.757 Y123.964 E5.22641
G1 X85.814 Y123.541 E5.24771
G1 X85.806 Y123.143 E5.26757
G1 X85.759 Y122.812 E5.28425
G1 X85.636 Y122.502 E5.30088
G1 X85.375 Y122.161 E5.32231
G1 X85.09 Y121.887 E5.34203
G1 X85.09 Y121.861 E5.34333
G1 X85.424 Y121.506 E5.36765
G1 X85.622 Y121.237 E5.38431
G1 X85.751 Y120.929 E5.40097
G1 X85.803 Y120.508 E5.42213
G1 X85.792 Y120.109 E5.44205
G1 X85.743 Y119.779 E5.45869
G1 X85.618 Y119.47 E5.47532
G1 X85.358 Y119.134 E5.49652
G1 X85.092 Y118.881 E5.51483
G1 X85.41 Y118.549 E5.53777
G1 X85.612 Y118.283 E5.55443
G1 X85.746 Y117.977 E5.5711
G1 X85.805 Y117.546 E5.5928
G1 X85.797 Y117.148 E5.61266
G1 X85.75 Y116.817 E5.62934
G1 X85.627 Y116.507 E5.64598
G1 X85.367 Y116.166 E5.66737
G1 X85.089 Y115.899 E5.6866
G1 X85.093 Y114.92 E5.73545
G1 X85.193 Y114.784 E5.74387
G1 X85.322 Y114.475 E5.76057
G0 F6000 X84.53 Y114.321
G1 F1200 X84.575 Y114.094 E5.77212
G1 X84.575 Y110.566 E5.94813
G1 X84.626 Y110.623 E5.95195
G1 X85.212 Y111.209 E5.99329
G1 X85.391 Y111.333 E6.00416
G1 X85.636 Y111.385 E6.01665
G1 X89.801 Y111.385 E6.22445
G1 X90.016 Y111.345 E6.23536
G1 X90.225 Y111.209 E6.2478
G1 X90.811 Y110.623 E6.28914
G1 X90.847 Y110.571 E6.2923
G1 X90.988 Y110.545 E6.29945
G1 X91.314 Y110.292 E6.32004
G1 X91.438 Y110.113 E6.3309
G1 X91.49 Y109.868 E6.3434
G1 X91.49 Y107.583 E6.4574
G1 X91.501 Y107.585 E6.45795
G1 X92.315 Y107.585 E6.49856
G1 X92.315 Y109.62 E6.60009
G1 X91.645 Y110.29 E6.64736
G1 X91.521 Y110.469 E6.65823
G1 X91.469 Y110.714 E6.67072
G1 X91.469 Y111.52 E6.71093
G1 X90.493 Y112.322 E6.77396
G1 X90.352 Y112.489 E6.78486
G1 X90.274 Y112.786 E6.80018
G1 X90.274 Y113.185 E6.82009
G1 X90.314 Y113.4 E6.831
G1 X90.492 Y113.648 E6.84623
G1 X92.581 Y115.374 E6.98142
G1 X93.806 Y116.39 E7.06082
G1 X93.996 Y116.496 E7.07167
G1 X94.22 Y116.527 E7.08296
G1 X96.002 Y116.436 E7.17198
G1 X96.274 Y116.407 E7.18562
G1 X96.275 Y116.646 E7.19755
G1 X92.038 Y116.661 E7.40893
G1 X91.823 Y116.701 E7.41984
G1 X91.615 Y116.837 E7.43224
G1 X91.333 Y117.12 E7.45217
G1 X91.21 Y117.3 E7.46305
G1 X91.158 Y117.545 E7.47555
G1 X91.161 Y118.804 E7.53836
G1 X90.603 Y119.378 E7.5783
G1 X90.482 Y119.56 E7.5892
G1 X90.434 Y119.805 E7.60166
G1 X90.44 Y120.203 E7.62151
G1 X90.483 Y120.417 E7.6324
G1 X90.622 Y120.624 E7.64484
G1 X91.142 Y121.13 E7.68104
G1 X91.145 Y121.801 E7.71452
G1 X90.57 Y122.4 E7.75594
G1 X90.45 Y122.583 E7.76686
G1 X90.403 Y122.833 E7.77955
G1 X90.414 Y123.23 E7.79937
G1 X90.46 Y123.443 E7.81024
G1 X90.604 Y123.651 E7.82286
G1 X91.143 Y124.155 E7.85967
G1 X91.159 Y125.611 E7.93232
G1 X91.174 Y125.687 E7.93618
G1 X91.105 Y125.742 E7.94059
G1 X90.456 Y126.385 E7.98617
G1 X89.155 Y126.385 E8.05107
G1 X88.94 Y126.425 E8.06198
G1 X88.796 Y126.504 E8.07018
G1 X88.477 Y126.742 E8.09003
G1 X88.329 Y126.902 E8.10091
G1 X88.261 Y127.052 E8.10912
G1 X87.805 Y128.584 E8.18887
G1 X87.719 Y128.615 E8.19343
G1 X87.633 Y128.585 E8.19797
G1 X87.177 Y127.052 E8.27777
G1 X87.078 Y126.857 E8.28868
G1 X86.961 Y126.742 E8.29686
G1 X86.642 Y126.504 E8.31672
G1 X86.446 Y126.408 E8.32761
G1 X86.283 Y126.385 E8.33582
G1 X84.994 Y126.385 E8.40013
G1 X84.584 Y125.979 E8.42892
G1 X84.536 Y125.736 E8.44127
G1 X84.379 Y125.369 E8.46119
G1 X84.294 Y125.246 E8.46865
G1 X84.3 Y124.554 E8.50317
G1 X84.847 Y123.984 E8.54259
G1 X84.967 Y123.802 E8.55346
G1 X85.014 Y123.557 E8.56591
G1 X85.006 Y123.159 E8.58577
G1 X84.962 Y122.945 E8.59667
G1 X84.821 Y122.738 E8.60916
G1 X84.288 Y122.226 E8.64604
G1 X84.292 Y121.542 E8.68016
G1 X84.841 Y120.958 E8.72015
G1 X84.959 Y120.775 E8.73101
G1 X85.004 Y120.53 E8.74344
G1 X84.993 Y120.131 E8.76336
G1 X84.947 Y119.918 E8.77423
G1 X84.807 Y119.713 E8.78661
G1 X84.291 Y119.222 E8.82215
G1 X84.29 Y119.111 E8.82769
G1 X84.295 Y118.55 E8.85568
G1 X84.836 Y117.992 E8.89445
G1 X84.957 Y117.81 E8.90535
G1 X85.005 Y117.562 E8.91796
G1 X84.997 Y117.164 E8.93782
G1 X84.953 Y116.95 E8.94872
G1 X84.813 Y116.743 E8.96118
G1 X84.287 Y116.238 E8.99756
G1 X84.294 Y114.631 E9.07774
G1 X84.53 Y114.321 E9.09718
G0 F6000 X84.175 Y114.094
G1 F1200 X84.175 Y110.267 E9.2881
G1 X84.116 Y110.126 E9.29573
G1 X83.834 Y109.844 E9.31563
G1 X83.693 Y109.785 E9.32325
G1 X82.722 Y109.785 E9.3717
G1 X82.723 Y107.187 E9.50131
G1 X83.937 Y107.185 E9.56188
G1 X84.078 Y107.126 E9.5695
G1 X84.36 Y106.844 E9.5894
G1 X84.419 Y106.703 E9.59703
G1 X84.419 Y100.16 E9.92346
G1 X91.019 Y100.16 E10.25273
G1 X91.019 Y106.703 E10.57916
G1 X91.078 Y106.844 E10.58679
G1 X91.36 Y107.126 E10.60669
G1 X91.501 Y107.185 E10.61431
G1 X92.715 Y107.185 E10.67488
G1 X92.715 Y109.786 E10.80464
G1 X91.928 Y110.573 E10.86017
G1 X91.869 Y110.714 E10.8678
G1 X91.869 Y111.709 E10.91744
G1 X90.747 Y112.631 E10.98989
G1 X90.674 Y112.786 E10.99844
G1 X90.674 Y113.185 E11.01834
G1 X90.747 Y113.339 E11.02684
G1 X92.837 Y115.066 E11.16211
G1 X94.062 Y116.082 E11.24151
G1 X94.199 Y116.128 E11.24872
G1 X95.981 Y116.037 E11.33774
G1 X96.105 Y116.011 E11.34406
G1 X96.394 Y116.004 E11.35848
G1 X96.63 Y115.913 E11.3711
G1 X96.673 Y115.9 E11.37334
G1 X96.674 Y117.089 E11.43266
G1 X96.456 Y117.045 E11.44376
G1 X92.039 Y117.061 E11.66412
G1 X91.898 Y117.12 E11.67175
G1 X91.616 Y117.403 E11.69168
G1 X91.558 Y117.544 E11.69929
G1 X91.561 Y118.966 E11.77023
G1 X90.89 Y119.657 E11.81828
G1 X90.834 Y119.799 E11.8259
G1 X90.84 Y120.197 E11.84576
G1 X90.901 Y120.337 E11.85338
G1 X91.541 Y120.96 E11.89794
G1 X91.546 Y121.962 E11.94793
G1 X90.859 Y122.677 E11.9974
G1 X90.803 Y122.822 E12.00515
G1 X90.814 Y123.219 E12.02496
G1 X90.877 Y123.359 E12.03262
G1 X91.541 Y123.98 E12.07798
G1 X91.559 Y125.606 E12.15911
G1 X91.62 Y125.748 E12.16682
G1 X91.79 Y125.912 E12.1786
G1 X91.488 Y125.972 E12.19396
G1 X91.386 Y126.026 E12.19972
G1 X90.62 Y126.785 E12.25352
G1 X89.155 Y126.785 E12.32661
G1 X89.035 Y126.825 E12.33292
G1 X88.716 Y127.063 E12.35278
G1 X88.644 Y127.166 E12.35905
G1 X88.13 Y128.894 E12.44899
G1 X87.726 Y129.037 E12.47037
G1 X87.714 Y129.037 E12.47097
G1 X87.309 Y128.894 E12.4924
G1 X86.794 Y127.166 E12.58236
G1 X86.722 Y127.063 E12.58863
G1 X86.403 Y126.825 E12.60848
G1 X86.283 Y126.785 E12.61479
G1 X84.83 Y126.785 E12.68728
G1 X84.184 Y126.145 E12.73265
G1 X84.168 Y125.893 E12.74525
G1 X84.011 Y125.526 E12.76516
G1 X83.893 Y125.391 E12.77411
G1 X83.901 Y124.391 E12.824
G1 X84.558 Y123.707 E12.87132
G1 X84.614 Y123.565 E12.87893
G1 X84.606 Y123.167 E12.89879
G1 X84.544 Y123.027 E12.90643
G1 X83.887 Y122.396 E12.95188
G1 X83.893 Y121.383 E13.00242
G1 X84.55 Y120.684 E13.05028
G1 X84.604 Y120.541 E13.0579
G1 X84.593 Y120.142 E13.07782
G1 X84.531 Y120.003 E13.08541
G1 X83.892 Y119.395 E13.12942
G1 X83.89 Y119.108 E13.14373
G1 X83.896 Y118.386 E13.17976
G1 X84.549 Y117.713 E13.22654
G1 X84.605 Y117.57 E13.2342
G1 X84.597 Y117.172 E13.25406
G1 X84.536 Y117.032 E13.26168
G1 X83.888 Y116.409 E13.30653
G1 X83.887 Y116.263 E13.31381
G1 X83.895 Y114.472 E13.40317
G1 X84.121 Y114.231 E13.41965
G1 X84.175 Y114.094 E13.427
G0 F6000 X85.636 Y110.985
G1 F1200 X89.801 Y110.985 E13.63479
G1 X89.942 Y110.926 E13.64241
G1 X90.528 Y110.34 E13.68376
G1 X90.587 Y110.185 E13.69203
G1 X90.773 Y110.185 E13.70131
G1 X90.914 Y110.126 E13.70894
G1 X91.031 Y110.009 E13.71719
G1 X91.09 Y109.868 E13.72482
G1 X91.09 Y107.102 E13.86282
G1 X91.031 Y106.961 E13.87044
G1 X90.914 Y106.844 E13.8787
G1 X90.773 Y106.785 E13.88632
G1 X90.587 Y106.771 E13.89563
G1 X90.528 Y106.63 E13.90325
G1 X89.942 Y106.044 E13.9446
G1 X89.801 Y105.985 E13.95222
G1 X85.637 Y105.985 E14.15997
G1 X85.496 Y106.044 E14.16759
G1 X84.91 Y106.63 E14.20894
G1 X84.851 Y106.785 E14.21721
G1 X84.665 Y106.785 E14.22649
G1 X84.524 Y106.844 E14.23412
G1 X84.407 Y106.961 E14.24237
G1 X84.348 Y107.102 E14.25
G1 X84.347 Y109.868 E14.38799
G1 X84.406 Y110.009 E14.39562
G1 X84.523 Y110.126 E14.40387
G1 X84.664 Y110.185 E14.4115
G1 X84.85 Y110.199 E14.42081
G1 X84.909 Y110.34 E14.42843
G1 X85.495 Y110.926 E14.46978
G1 X85.636 Y110.985 E14.4774
G0 F6000 X83.947 Y109.443
G1 F1200 X83.938 Y109.437 E14.47794
G1 X83.693 Y109.385 E14.49044
