;FLAVOR:Marlin
;TIME:12687
;Filament used: 2.16564m
;Layer height: 0.1
;MINX:96.022
;MINY:95.971
;MINZ:0.2
;MAXX:138.164
;MAXY:139.082
;MAXZ:17.2
;Generated with Cura_SteamEngine 4.8.0
M104 S228
M105
M109 S228
M82 ;absolute extrusion mode
; Ender 3 Custom Start G-code
G92 E0 ; Reset Extruder
G28 ; Home all axes
G1 Z2.0 F3000 ; Move Z Axis up little to prevent scratching of Heat Bed
G1 X0.1 Y20 Z0.3 F5000.0 ; Move to start position
G1 X0.1 Y200.0 Z0.3 F1500.0 E15 ; Draw the first line
G1 X0.4 Y200.0 Z0.3 F5000.0 ; Move to side a little
G1 X0.4 Y20 Z0.3 F1500.0 E30 ; Draw the second line
G92 E0 ; Reset Extruder
G1 Z2.0 F3000 ; Move Z Axis up little to prevent scratching of Heat Bed
G1 X5 Y20 Z0.3 F5000.0 ; Move over to prevent blob squish
G92 E0
G92 E0
G1 F1500 E-6.5
;LAYER_COUNT:171
;LAYER:0
M107
G0 F6000 X111.002 Y100.729 Z0.2
;TYPE:SKIRT
G1 F1500 E0
G1 F827.4 X111.003 Y104.672 E0.13114
G1 X110.986 Y104.634 E0.13253
G1 X110.702 Y102.686 E0.198
G1 X110.702 Y102.583 E0.20143
G1 X110.947 Y100.889 E0.25836
G1 X111.002 Y100.729 E0.26399
G0 F6000 X109.317 Y117.727
G1 F827.4 X109.329 Y117.754 E0.26497
G1 X109.607 Y119.741 E0.3317
G1 X109.33 Y121.629 E0.39517
G1 X109.318 Y121.656 E0.39615
G1 X109.317 Y117.727 E0.52683
G0 F6000 X111.002 Y130.329
G1 F827.4 X111.003 Y134.272 E0.65798
G1 X110.986 Y134.234 E0.65936
G1 X110.702 Y132.286 E0.72484
G1 X110.702 Y132.183 E0.72826
G1 X110.947 Y130.489 E0.78519
G1 X111.002 Y130.329 E0.79082
G0 F6000 X124.622 Y116.076
G1 F827.4 X124.623 Y120.007 E0.92156
G1 X124.605 Y119.969 E0.92296
G1 X124.332 Y118.005 E0.98891
G1 X124.61 Y116.103 E1.05285
G1 X124.622 Y116.076 E1.05383
G1 F1500 E-5.44617
;MESH:table leg caps.stl(1)
G0 F6000 X123.212 Y106.756
G0 X123.428 Y105.917
;TYPE:WALL-OUTER
G1 F1500 E1.05383
G1 F827.4 X123.428 Y99.484 E1.26779
G1 X123.604 Y99.87 E1.2819
G1 X123.605 Y105.529 E1.47012
G1 X123.428 Y105.917 E1.4843
G0 F6000 X123.281 Y105.758
G1 F1500 E-5.0157
;MESH:table leg caps.stl
G0 F6000 X123.328 Y105.758
G0 X123.234 Y106.652
G0 X136.832 Y113.976
G0 X137.048 Y121.248
;TYPE:WALL-OUTER
G1 F1500 E1.4843
G1 F827.4 X137.048 Y114.814 E1.6983
G1 X137.224 Y115.2 E1.71241
G1 X137.225 Y120.859 E1.90063
G1 X137.048 Y121.248 E1.91484
G0 F6000 X137.248 Y121.164
G1 F1500 E-4.58516
;MESH:table leg caps.stl(2)
G0 F6000 X137.205 Y121.144
G0 X136.854 Y121.983
G0 X124.406 Y129.147
G0 X123.785 Y129.43
G0 X123.428 Y135.517
;TYPE:WALL-OUTER
G1 F1500 E1.91484
G1 F827.4 X123.428 Y129.084 E2.12881
G1 X123.604 Y129.47 E2.14292
G1 X123.605 Y135.129 E2.33113
G1 X123.428 Y135.517 E2.34532
G0 F6000 X123.281 Y135.358
G1 F1500 E-4.15468
;MESH:table leg caps.stl(3)
G0 F6000 X123.328 Y135.358
G0 X123.234 Y128.348
G0 X97.11 Y123.766
G0 X96.893 Y122.928
;TYPE:WALL-OUTER
G1 F1500 E2.34532
G1 F827.4 X96.716 Y122.54 E2.3595
G1 X96.715 Y116.88 E2.54776
G1 X96.893 Y116.491 E2.56198
G1 X96.893 Y122.928 E2.77608
G0 F6000 X96.693 Y122.845
G1 F1500 E-3.72392
;MESH:NONMESH
G0 F300 X96.693 Y122.845 Z0.3
G0 F6000 X96.738 Y122.827
G0 X97.087 Y115.757
G0 X111.002 Y100.73
;TIME_ELAPSED:17.290139
;LAYER:1
M106 S85
;TYPE:SUPPORT
G1 F1500 E2.77608
G1 F795 X111.003 Y104.672 E2.84164
G1 X110.986 Y104.634 E2.84233
G1 X110.702 Y102.686 E2.87507
G1 X110.702 Y102.583 E2.87678
G1 X110.947 Y100.886 E2.90529
G1 X110.986 Y100.765 E2.90741
G1 X111.002 Y100.73 E2.90805
G1 F1500 E-3.59195
G0 F7500 X110.102 Y100.693
G0 X109.865 Y102.542
G0 X110.102 Y117.365
G0 X109.317 Y117.727
G1 F1500 E2.90805
G1 F795 X109.329 Y117.754 E2.90854
G1 X109.607 Y119.741 E2.9419
G1 X109.33 Y121.629 E2.97364
G1 X109.318 Y121.656 E2.97413
G1 X109.317 Y117.727 E3.03947
G1 F1500 E-3.46053
G0 F7500 X110.181 Y117.606
G0 X110.45 Y119.53
G0 X110.214 Y129.973
G0 X111.002 Y130.33
G1 F1500 E3.03947
G1 F795 X111.003 Y134.272 E3.10502
G1 X110.986 Y134.234 E3.10572
G1 X110.702 Y132.286 E3.13845
G1 X110.702 Y132.183 E3.14017
G1 X110.947 Y130.486 E3.16868
G1 X110.986 Y130.365 E3.17079
G1 X111.002 Y130.33 E3.17143
G1 F1500 E-3.32857
G0 F7500 X111.867 Y130.329
G0 X123.84 Y120.372
G0 X124.623 Y120.007
G1 F1500 E3.17143
G1 F795 X124.605 Y119.969 E3.17213
G1 X124.332 Y118.005 E3.20511
G1 X124.61 Y116.103 E3.23708
G1 X124.622 Y116.076 E3.23757
G1 X124.623 Y120.007 E3.30294
G1 F1500 E-3.19706
;MESH:table leg caps.stl(1)
G0 F7500 X125.487 Y120.006
G0 X125.478 Y115.035
G0 X124.241 Y106.219
G0 X123.359 Y105.817
G0 X123.255 Y106.296
;TYPE:WALL-OUTER
G1 F1500 E3.30294
G1 F795 X123.255 Y99.104 E3.42254
G1 X123.662 Y99.996 E3.43885
G1 X123.663 Y105.403 E3.52877
G1 X123.255 Y106.296 E3.54509
G1 F1500 E-2.95491
;MESH:table leg caps.stl
G0 F7500 X123.364 Y105.697
G0 X124.241 Y106.219
G0 X136.01 Y114.914
G0 X136.979 Y114.914
G0 X136.984 Y121.027
G0 X136.875 Y121.627
;TYPE:WALL-OUTER
G1 F1500 E3.54509
G1 F795 X136.875 Y114.434 E3.66472
G1 X137.282 Y115.326 E3.68102
G1 X137.283 Y120.733 E3.77094
G1 X136.875 Y121.627 E3.78728
G1 F1500 E-2.71272
;MESH:table leg caps.stl(2)
G0 F7500 X136.984 Y121.027
G0 X136.01 Y121.147
G0 X124.24 Y128.782
G0 X123.359 Y129.184
G0 X123.364 Y135.297
G0 X123.255 Y135.896
;TYPE:WALL-OUTER
G1 F1500 E3.78728
G1 F795 X123.255 Y128.704 E3.90688
G1 X123.662 Y129.596 E3.92319
G1 X123.663 Y135.003 E4.01311
G1 X123.255 Y135.896 E4.02944
G1 F1500 E-2.47056
;MESH:table leg caps.stl(3)
G0 F7500 X123.364 Y135.297
G0 X123.359 Y129.184
G0 X122.39 Y129.184
G0 X97.931 Y122.827
G0 X96.962 Y122.827
G0 X97.066 Y123.306
;TYPE:WALL-OUTER
G1 F1500 E4.02944
G1 F795 X96.658 Y122.414 E4.04575
G1 X96.657 Y117.006 E4.13568
G1 X97.066 Y116.113 E4.15202
G1 X97.066 Y123.306 E4.27164
G1 F1500 E-2.22836
;MESH:NONMESH
G0 F300 X97.066 Y123.306 Z0.4
G0 F7500 X96.957 Y122.708
G0 X96.962 Y116.591
G0 X97.931 Y116.591
G0 X110.102 Y100.693
G0 X111.002 Y100.731
;TIME_ELAPSED:33.329245
;LAYER:2
M106 S170
;TYPE:SUPPORT
G1 F1500 E4.27164
G1 F750 X111.003 Y104.672 E4.33718
G1 X110.986 Y104.634 E4.33787
G1 X110.702 Y102.686 E4.37061
G1 X110.702 Y102.583 E4.37232
G1 X110.946 Y100.894 E4.4007
G1 X110.99 Y100.758 E4.40308
G1 X111.002 Y100.731 E4.40357
G1 F1500 E-2.09643
G0 F9000 X110.102 Y100.698
G0 X109.865 Y102.543
G0 X110.102 Y117.365
G0 X109.317 Y117.727
G1 F1500 E4.40357
G1 F750 X109.329 Y117.754 E4.40406
G1 X109.607 Y119.741 E4.43743
G1 X109.33 Y121.629 E4.46916
G1 X109.318 Y121.656 E4.46965
G1 X109.317 Y117.727 E4.53499
G1 F1500 E-1.96501
G0 F9000 X110.181 Y117.606
G0 X110.45 Y119.53
G0 X110.214 Y129.975
G0 X111.002 Y130.331
G1 F1500 E4.53499
G1 F750 X111.003 Y134.272 E4.60053
G1 X110.986 Y134.234 E4.60122
G1 X110.702 Y132.286 E4.63396
G1 X110.702 Y132.183 E4.63567
G1 X110.946 Y130.494 E4.66405
G1 X110.99 Y130.358 E4.66643
G1 X111.002 Y130.331 E4.66692
G1 F1500 E-1.83308
G0 F9000 X111.867 Y130.33
G0 X123.84 Y120.372
G0 X124.623 Y120.007
G1 F1500 E4.66692
G1 F750 X124.605 Y119.969 E4.66762
G1 X124.332 Y118.005 E4.7006
G1 X124.61 Y116.103 E4.73256
G1 X124.622 Y116.076 E4.73305
G1 X124.623 Y120.007 E4.79843
G1 F1500 E-1.70157
;MESH:table leg caps.stl(1)
G0 F9000 X123.755 Y120.128
G0 X123.489 Y118.216
G0 X123.908 Y106.898
G0 X123.185 Y106.198
G0 X123.081 Y106.534
;TYPE:WALL-OUTER
G1 F1500 E4.79843
G1 F750 X123.08 Y102.448 E4.86638
G1 X123.082 Y98.867 E4.92593
G1 X123.219 Y99.025 E4.92941
G1 X123.72 Y100.123 E4.94948
G1 X123.721 Y105.276 E5.03517
G1 X123.219 Y106.375 E5.05526
G1 X123.081 Y106.534 E5.05877
G0 F9000 X123.202 Y106.12
G0 X123.37 Y105.563
G0 X123.323 Y105.504
;TYPE:SKIN
G1 F750 X123.368 Y105.266 E5.06171
G1 X123.399 Y103.317 E5.08543
G1 X123.399 Y100.206 E5.12327
G1 X123.361 Y99.885 E5.12721
G1 F1500 E-1.37279
;MESH:table leg caps.stl
G0 F9000 X123.228 Y99.78
G0 X123.602 Y105.25
G0 X124.497 Y105.657
G0 X135.836 Y117.779
G0 X136.82 Y117.778
G0 X136.81 Y121.41
G0 X136.701 Y121.865
;TYPE:WALL-OUTER
G1 F1500 E5.12721
G1 F750 X136.7 Y117.778 E5.19517
G1 X136.702 Y114.197 E5.25473
G1 X136.839 Y114.355 E5.2582
G1 X137.34 Y115.453 E5.27827
G1 X137.341 Y120.607 E5.36398
G1 X136.839 Y121.706 E5.38408
G1 X136.701 Y121.865 E5.38758
G0 F9000 X136.822 Y121.451
G0 X136.995 Y120.884
G0 X136.945 Y120.823
;TYPE:SKIN
G1 F750 X136.989 Y120.585 E5.39053
G1 X137.019 Y118.634 E5.4143
G1 X137.019 Y115.523 E5.4522
G1 X136.975 Y115.196 E5.45622
G1 F1500 E-1.04378
;MESH:table leg caps.stl(2)
G0 F9000 X136.901 Y115.11
G0 X137.222 Y120.581
G0 X138.117 Y120.988
G0 X137.528 Y122.229
G0 X137.015 Y122.811
G0 X124.495 Y129.341
G0 X123.601 Y129.749
G0 X123.19 Y135.679
G0 X123.081 Y136.134
;TYPE:WALL-OUTER
G1 F1500 E5.45622
G1 F750 X123.08 Y132.048 E5.52417
G1 X123.082 Y128.467 E5.58372
G1 X123.219 Y128.625 E5.5872
G1 X123.72 Y129.723 E5.60727
G1 X123.721 Y134.876 E5.69297
G1 X123.219 Y135.975 E5.71306
G1 X123.081 Y136.134 E5.71656
G0 F9000 X123.308 Y135.187
;TYPE:SKIN
G1 F750 X123.352 Y134.949 E5.71953
G1 X123.4 Y133.865 E5.73286
G1 X123.4 Y129.623 E5.78497
G0 F9000 X123.581 Y129.767
G1 F1500 E-0.71503
;MESH:table leg caps.stl(3)
G0 F9000 X123.52 Y129.765
G0 X123.186 Y128.804
G0 X122.216 Y128.804
G0 X98.104 Y123.206
G0 X97.135 Y123.206
G0 X97.239 Y123.543
;TYPE:WALL-OUTER
G1 F1500 E5.78497
G1 F750 X97.102 Y123.385 E5.78845
G1 X96.6 Y122.287 E5.80853
G1 X96.599 Y117.133 E5.89424
G1 X97.102 Y116.034 E5.91434
G1 X97.239 Y115.876 E5.91781
G1 X97.239 Y123.543 E6.04532
G0 F9000 X97.118 Y123.128
G0 X97.039 Y122.52
G0 X96.919 Y122.375
;TYPE:SKIN
G1 F750 X96.919 Y122.092 E6.04897
G1 X96.923 Y117.288 E6.11103
G1 X96.967 Y117.049 E6.11417
G0 F9000 X97.064 Y116.863
G1 F750 X96.96 Y116.759 E6.11539
G1 F1500 E-0.38461
;MESH:NONMESH
G0 F300 X96.96 Y116.759 Z0.5
G0 F9000 X96.936 Y116.755
G0 X97.135 Y116.213
G0 X98.104 Y116.213
G0 X110.102 Y100.698
G0 X111.002 Y100.731
;TIME_ELAPSED:52.354845
;LAYER:3
M106 S255
;TYPE:SUPPORT
G1 F1500 E6.11539
G1 F750 X111.003 Y104.672 E6.18093
G1 X110.986 Y104.634 E6.18162
G1 X110.702 Y102.686 E6.21436
G1 X110.702 Y102.583 E6.21607
G1 X110.948 Y100.89 E6.24452
G1 X110.989 Y100.76 E6.24679
G1 X111.002 Y100.731 E6.24732
G1 F1500 E-0.25268
G0 F9000 X110.103 Y100.697
G0 X109.865 Y102.542
G0 X110.102 Y117.365
G0 X109.317 Y117.727
G1 F1500 E6.24732
G1 F750 X109.329 Y117.754 E6.24781
G1 X109.607 Y119.741 E6.28117
G1 X109.33 Y121.629 E6.31291
G1 X109.318 Y121.656 E6.3134
G1 X109.317 Y117.727 E6.37874
G1 F1500 E-0.12126
G0 F9000 X110.181 Y117.606
G0 X110.45 Y119.53
G0 X110.214 Y129.974
G0 X111.002 Y130.331
G1 F1500 E6.37874
G1 F750 X111.003 Y134.272 E6.44428
G1 X110.986 Y134.234 E6.44497
G1 X110.702 Y132.286 E6.47771
G1 X110.702 Y132.183 E6.47942
G1 X110.948 Y130.49 E6.50787
G1 X110.989 Y130.36 E6.51014
G1 X111.002 Y130.331 E6.51067
G1 F1500 E0.01067
G0 F9000 X111.867 Y130.33
G0 X123.84 Y120.372
G0 X124.623 Y120.007
G1 F1500 E6.51067
G1 F750 X124.605 Y119.969 E6.51137
G1 X124.332 Y118.005 E6.54434
G1 X124.61 Y116.103 E6.57631
G1 X124.622 Y116.076 E6.5768
G1 X124.623 Y120.007 E6.64217
G1 F1500 E0.14217
;MESH:table leg caps.stl(1)
G0 F9000 X123.755 Y120.128
G0 X123.489 Y118.216
G0 X123.916 Y106.891
G0 X123.112 Y106.118
G0 X123.308 Y105.217
;TYPE:WALL-INNER
G1 F1500 E6.64217
G1 F750 X123.308 Y105.063 E6.64473
G1 X123.308 Y100.336 E6.72334
G1 X123.308 Y100.184 E6.72587
G1 X123.377 Y100.336 E6.72627
G1 X123.378 Y105.063 E6.73996
G1 X123.308 Y105.217 E6.74039
G1 F1500 E0.24039
G0 F9000 X123.129 Y106.04
G0 X122.908 Y106.734
;TYPE:WALL-OUTER
G1 F1500 E6.74039
G1 F750 X122.907 Y103.653 E6.79162
G1 X122.908 Y98.667 E6.87454
G1 X123.219 Y99.025 E6.88243
G1 X123.777 Y100.249 E6.9048
G1 X123.778 Y105.15 E6.9863
G1 X123.219 Y106.375 E7.00869
G1 X122.908 Y106.734 E7.01659
G0 F9000 X123.179 Y105.923
;TYPE:SKIN
G1 F750 X123.248 Y105.57 E7.02157
G1 X123.132 Y105.403 E7.02438
G0 F9000 X123.208 Y105.454
G0 X123.207 Y100.067
G0 X123.234 Y99.927
G1 F750 X123.183 Y99.695 E7.02835
G1 X123.139 Y99.457 E7.03239
G1 F1500 E0.53239
;MESH:table leg caps.stl
G0 F9000 X123.157 Y99.479
G0 X123.559 Y105.102
G0 X124.546 Y105.551
G0 X136.785 Y112.986
G0 X137.515 Y113.84
G0 X138.164 Y115.178
G0 X137.178 Y115.627
G0 X136.928 Y120.548
;TYPE:WALL-INNER
G1 F1500 E7.03239
G1 F750 X136.928 Y120.393 E7.03497
G1 X136.928 Y115.666 E7.11358
G1 X136.928 Y115.514 E7.11611
G1 X136.997 Y115.666 E7.11651
G1 X136.998 Y120.393 E7.1302
G1 X136.928 Y120.548 E7.13062
G1 F1500 E0.63062
G0 F9000 X136.749 Y121.371
G0 X136.528 Y122.065
;TYPE:WALL-OUTER
G1 F1500 E7.13062
G1 F750 X136.527 Y118.983 E7.18188
G1 X136.528 Y113.997 E7.26479
G1 X136.839 Y114.355 E7.27268
G1 X137.397 Y115.579 E7.29505
G1 X137.398 Y120.48 E7.37656
G1 X136.839 Y121.706 E7.39896
G1 X136.528 Y122.065 E7.40686
G0 F9000 X136.84 Y121.111
;TYPE:SKIN
G1 F750 X136.827 Y120.841 E7.41306
G0 F9000 X136.828 Y120.967
G0 X136.951 Y115.344
G0 X137.001 Y115.294
G1 F750 X136.832 Y115.18 E7.41519
G1 X136.743 Y114.703 E7.42025
G1 F1500 E0.92025
;MESH:table leg caps.stl(2)
G0 F9000 X136.777 Y114.752
G0 X136.747 Y118.983
G0 X135.663 Y118.983
G0 X124.544 Y129.448
G0 X123.558 Y129.897
G0 X123.308 Y134.817
;TYPE:WALL-INNER
G1 F1500 E7.42025
G1 F750 X123.308 Y134.663 E7.42281
G1 X123.308 Y129.936 E7.50142
G1 X123.308 Y129.784 E7.50395
G1 X123.377 Y129.936 E7.50435
G1 X123.378 Y134.663 E7.51805
G1 X123.308 Y134.817 E7.51847
G1 F1500 E1.01847
G0 F9000 X123.129 Y135.64
G0 X122.908 Y136.334
;TYPE:WALL-OUTER
G1 F1500 E7.51847
G1 F750 X122.907 Y133.253 E7.5697
G1 X122.908 Y128.267 E7.65262
G1 X123.219 Y128.625 E7.66051
G1 X123.777 Y129.849 E7.68288
G1 X123.778 Y134.75 E7.76438
G1 X123.219 Y135.975 E7.78678
G1 X122.908 Y136.334 E7.79467
G0 F9000 X123.145 Y135.655
;TYPE:SKIN
G1 F750 X123.257 Y135.259 E7.79952
G1 X123.173 Y135.061 E7.80205
G0 F9000 X123.208 Y135.152
G0 X123.223 Y129.638
G0 X123.314 Y129.546
G1 F750 X123.2 Y129.378 E7.80437
G1 X123.102 Y128.91 E7.80982
G1 F1500 E1.30982
;MESH:table leg caps.stl(3)
G0 F9000 X123.113 Y129.115
G0 X122.043 Y128.882
G0 X98.277 Y123.125
G0 X97.208 Y123.125
G0 X97.012 Y122.225
;TYPE:WALL-INNER
G1 F1500 E7.80982
G1 F750 X96.943 Y122.074 E7.81258
G1 X96.942 Y117.346 E7.89121
G1 X97.012 Y117.193 E7.89401
G1 X97.012 Y117.346 E7.89418
G1 X97.012 Y122.074 E7.90788
G1 X97.012 Y122.225 E7.90804
G1 F1500 E1.40804
G0 F9000 X97.191 Y123.047
G0 X97.412 Y123.743
;TYPE:WALL-OUTER
G1 F1500 E7.90804
G1 F750 X97.102 Y123.385 E7.91591
G1 X96.543 Y122.161 E7.93829
G1 X96.542 Y117.259 E8.01981
G1 X97.102 Y116.034 E8.04221
G1 X97.412 Y115.676 E8.05009
G1 X97.412 Y123.743 E8.18424
G0 F9000 X97.167 Y122.883
;TYPE:SKIN
G1 F750 X97.123 Y122.645 E8.18794
G1 X97.021 Y122.464 E8.19111
G0 F9000 X97.033 Y122.514
G0 X97.07 Y117.041
G0 X97.153 Y116.958
G1 F750 X97.054 Y116.774 E8.19735
G0 F9000 X97.111 Y116.435
G1 F750 X97.235 Y116.31 E8.19882
G1 F1500 E1.69882
;MESH:NONMESH
G0 F300 X97.235 Y116.31 Z0.6
G0 F9000 X97.112 Y116.504
G0 X98.277 Y116.294
G0 X110.103 Y100.697
G0 X111.002 Y100.731
;TIME_ELAPSED:77.006518
;LAYER:4
;TYPE:SUPPORT
G1 F1500 E8.19882
G1 F750 X111.003 Y104.672 E8.26436
G1 X110.986 Y104.634 E8.26505
G1 X110.702 Y102.686 E8.29779
G1 X110.702 Y102.588 E8.29942
G1 X110.949 Y100.886 E8.32802
G1 X110.987 Y100.765 E8.33013
G1 X111.002 Y100.731 E8.33075
G1 F1500 E1.83075
G0 F9000 X110.104 Y100.693
G0 X109.865 Y102.542
G0 X110.102 Y117.365
G0 X109.317 Y117.727
G1 F1500 E8.33075
G1 F750 X109.329 Y117.754 E8.33124
G1 X109.607 Y119.741 E8.3646
G1 X109.33 Y121.629 E8.39634
G1 X109.318 Y121.656 E8.39683
G1 X109.317 Y117.727 E8.46217
G1 F1500 E1.96217
G0 F9000 X110.181 Y117.606
G0 X110.45 Y119.53
G0 X110.214 Y129.976
G0 X111.002 Y130.331
G1 F1500 E8.46217
G1 F750 X111.003 Y134.272 E8.52771
G1 X110.986 Y134.234 E8.5284
G1 X110.702 Y132.286 E8.56114
G1 X110.702 Y132.188 E8.56277
G1 X110.949 Y130.486 E8.59137
G1 X110.987 Y130.365 E8.59348
G1 X111.002 Y130.331 E8.59409
G1 F1500 E2.09409
G0 F9000 X111.867 Y130.33
G0 X123.84 Y120.372
G0 X124.623 Y120.007
G1 F1500 E8.59409
G1 F750 X124.605 Y119.969 E8.59479
G1 X124.332 Y118.005 E8.62777
G1 X124.61 Y116.103 E8.65974
G1 X124.622 Y116.076 E8.66023
G1 X124.623 Y120.007 E8.7256
G1 F1500 E2.2256
;MESH:table leg caps.stl(1)
G0 F9000 X123.755 Y120.128
G0 X123.489 Y118.216
G0 X123.751 Y107.082
G0 X122.941 Y106.38
G0 X123.135 Y105.595
;TYPE:WALL-INNER
G1 F1500 E8.7256
G1 F750 X123.135 Y104.936 E8.73656
G1 X123.135 Y100.463 E8.81095
G1 X123.135 Y99.805 E8.82189
