;FLAVOR:Marlin
;TIME:8632
;Filament used: 5.66715m
;Layer height: 0.2
;MINX:90.335
;MINY:107.367
;MINZ:0.2
;MAXX:144.665
;MAXY:138.832
;MAXZ:17
;Generated with Cura_SteamEngine 4.7.1
M104 S200
M105
M109 S200
M82 ;absolute extrusion mode
; Ender 3 Custom Start G-code
G92 E0 ; Reset Extruder
G28 ; Home all axes
G1 Z2.0 F3000 ; Move Z Axis up little to prevent scratching of Heat Bed
G1 X0.1 Y20 Z0.3 F5000.0 ; Move to start position
G1 X0.1 Y200.0 Z0.3 F1500.0 E15 ; Draw the first line
G1 X0.4 Y200.0 Z0.3 F5000.0 ; Move to side a little
G1 X0.4 Y20 Z0.3 F1500.0 E30 ; Draw the second line
G92 E0 ; Reset Extruder
G1 Z2.0 F3000 ; Move Z Axis up little to prevent scratching of Heat Bed
G1 X5 Y20 Z0.3 F5000.0 ; Move over to prevent blob squish
G92 E0
G92 E0
G1 F2700 E-7
;LAYER_COUNT:85
;LAYER:0
M107
;MESH:Quick Clamp Pad.stl
G0 F6000 X143.4 Y137.567 Z0.2
;TYPE:WALL-INNER
G1 F2700 E0
G1 F1200 X91.6 Y137.567 E1.72287
G1 X91.6 Y107.767 E2.71403
G1 X143.4 Y107.767 E4.4369
G1 X143.4 Y137.567 E5.42805
G0 F6000 X143.8 Y137.967
;TYPE:WALL-OUTER
G1 F1200 X91.2 Y137.967 E7.17754
G1 X91.2 Y107.367 E8.1953
G1 X143.8 Y107.367 E9.94478
G1 X143.8 Y137.967 E10.96254
G0 F6000 X143.53 Y137.697
G0 X143.29 Y137.177
G0 X143.01 Y137.177
;TYPE:SKIN
G1 F1200 X91.99 Y137.177 E12.65947
G1 X91.99 Y108.157 E13.62468
G1 X143.01 Y108.157 E15.32161
G1 X143.01 Y137.177 E16.28682
G0 F6000 X143.29 Y137.177
G0 X143.29 Y108.907
G0 X142.849 Y108.907
G1 F1200 X142.257 Y108.316 E16.31465
G0 F6000 X141.692 Y108.316
G1 F1200 X142.849 Y109.473 E16.36907
G0 F6000 X142.849 Y110.039
G1 F1200 X141.126 Y108.316 E16.45011
G0 F6000 X140.56 Y108.316
G1 F1200 X142.849 Y110.604 E16.55776
G0 F6000 X142.849 Y111.17
G1 F1200 X139.995 Y108.316 E16.692
G0 F6000 X139.429 Y108.316
G1 F1200 X142.849 Y111.736 E16.85287
G0 F6000 X142.849 Y112.301
G1 F1200 X138.863 Y108.316 E17.04033
G0 F6000 X138.298 Y108.316
G1 F1200 X142.849 Y112.867 E17.2544
G0 F6000 X142.849 Y113.433
G1 F1200 X137.732 Y108.316 E17.49508
G0 F6000 X137.166 Y108.316
G1 F1200 X142.849 Y113.999 E17.7624
G0 F6000 X142.849 Y114.564
G1 F1200 X136.601 Y108.316 E18.05628
G0 F6000 X136.035 Y108.316
G1 F1200 X142.849 Y115.13 E18.37679
G0 F6000 X142.849 Y115.696
G1 F1200 X135.469 Y108.316 E18.72392
G0 F6000 X134.903 Y108.316
G1 F1200 X142.849 Y116.261 E19.09766
G0 F6000 X142.849 Y116.827
G1 F1200 X134.338 Y108.316 E19.49799
G0 F6000 X133.772 Y108.316
G1 F1200 X142.849 Y117.393 E19.92494
G0 F6000 X142.849 Y117.958
G1 F1200 X133.206 Y108.316 E20.3785
G0 F6000 X132.641 Y108.316
G1 F1200 X142.849 Y118.524 E20.85865
G0 F6000 X142.849 Y119.09
G1 F1200 X132.075 Y108.316 E21.36542
G0 F6000 X131.509 Y108.316
G1 F1200 X142.849 Y119.655 E21.8988
G0 F6000 X142.849 Y120.221
G1 F1200 X130.944 Y108.316 E22.45877
G0 F6000 X130.378 Y108.316
G1 F1200 X142.849 Y120.787 E23.04537
G0 F6000 X142.849 Y121.352
G1 F1200 X129.812 Y108.316 E23.65857
G0 F6000 X129.247 Y108.316
G1 F1200 X142.849 Y121.918 E24.29837
G0 F6000 X142.849 Y122.484
G1 F1200 X128.681 Y108.316 E24.96478
G0 F6000 X128.115 Y108.316
G1 F1200 X142.849 Y123.05 E25.65783
G0 F6000 X142.849 Y123.615
G1 F1200 X127.55 Y108.316 E26.37744
G0 F6000 X126.984 Y108.316
G1 F1200 X142.849 Y124.181 E27.12369
G0 F6000 X142.849 Y124.747
G1 F1200 X126.418 Y108.316 E27.89655
G0 F6000 X125.852 Y108.316
G1 F1200 X142.849 Y125.312 E28.69601
G0 F6000 X142.849 Y125.878
G1 F1200 X125.287 Y108.316 E29.52208
G0 F6000 X124.721 Y108.316
G1 F1200 X142.849 Y126.444 E30.37476
G0 F6000 X142.849 Y127.009
G1 F1200 X124.155 Y108.316 E31.25405
G0 F6000 X123.59 Y108.316
G1 F1200 X142.849 Y127.575 E32.15993
G0 F6000 X142.849 Y128.141
G1 F1200 X123.024 Y108.316 E33.09244
G0 F6000 X122.458 Y108.316
G1 F1200 X142.849 Y128.706 E34.05154
G0 F6000 X142.849 Y129.272
G1 F1200 X121.893 Y108.316 E35.03725
G0 F6000 X121.327 Y108.316
G1 F1200 X142.849 Y129.838 E36.04958
G0 F6000 X142.849 Y130.403
G1 F1200 X120.761 Y108.316 E37.08851
G0 F6000 X120.196 Y108.316
G1 F1200 X142.849 Y130.969 E38.15403
G0 F6000 X142.849 Y131.535
G1 F1200 X119.63 Y108.316 E39.24619
G0 F6000 X119.064 Y108.316
G1 F1200 X142.849 Y132.1 E40.36494
G0 F6000 X142.849 Y132.666
G1 F1200 X118.499 Y108.316 E41.51028
G0 F6000 X117.933 Y108.316
G1 F1200 X142.849 Y133.232 E42.68226
G0 F6000 X142.849 Y133.798
G1 F1200 X117.367 Y108.316 E43.88085
G0 F6000 X116.802 Y108.316
G1 F1200 X142.849 Y134.363 E45.10602
G0 F6000 X142.849 Y134.929
G1 F1200 X116.236 Y108.316 E46.35782
G0 F6000 X115.67 Y108.316
G1 F1200 X142.849 Y135.495 E47.63623
G0 F6000 X142.849 Y136.06
G1 F1200 X115.104 Y108.316 E48.94125
G0 F6000 X114.539 Y108.316
G1 F1200 X142.849 Y136.626 E50.27287
G0 F6000 X142.672 Y137.016
G1 F1200 X113.973 Y108.316 E51.6228
G0 F6000 X113.407 Y108.316
G1 F1200 X142.107 Y137.016 E52.97276
G0 F6000 X141.541 Y137.016
G1 F1200 X112.842 Y108.316 E54.3227
G0 F6000 X112.276 Y108.316
G1 F1200 X140.975 Y137.016 E55.67264
G0 F6000 X140.41 Y137.016
G1 F1200 X111.71 Y108.316 E57.0226
G0 F6000 X111.145 Y108.316
G1 F1200 X139.844 Y137.016 E58.37253
G0 F6000 X139.278 Y137.016
G1 F1200 X110.579 Y108.316 E59.72247
G0 F6000 X110.013 Y108.316
G1 F1200 X138.713 Y137.016 E61.07243
G0 F6000 X138.147 Y137.016
G1 F1200 X109.448 Y108.316 E62.42236
G0 F6000 X108.882 Y108.316
G1 F1200 X137.581 Y137.016 E63.7723
G0 F6000 X137.016 Y137.016
G1 F1200 X108.316 Y108.316 E65.12226
G0 F6000 X107.751 Y108.316
G1 F1200 X136.45 Y137.016 E66.4722
G0 F6000 X135.884 Y137.016
G1 F1200 X107.185 Y108.316 E67.82213
G0 F6000 X106.619 Y108.316
G1 F1200 X135.319 Y137.016 E69.17209
G0 F6000 X134.753 Y137.016
G1 F1200 X106.053 Y108.316 E70.52205
G0 F6000 X105.488 Y108.316
G1 F1200 X134.187 Y137.016 E71.87199
G0 F6000 X133.621 Y137.016
G1 F1200 X104.922 Y108.316 E73.22193
G0 F6000 X104.356 Y108.316
G1 F1200 X133.056 Y137.016 E74.57189
G0 F6000 X132.49 Y137.016
G1 F1200 X103.791 Y108.316 E75.92182
G0 F6000 X103.225 Y108.316
G1 F1200 X131.924 Y137.016 E77.27176
G0 F6000 X131.359 Y137.016
G1 F1200 X102.659 Y108.316 E78.62172
G0 F6000 X102.094 Y108.316
G1 F1200 X130.793 Y137.016 E79.97166
G0 F6000 X130.227 Y137.016
G1 F1200 X101.528 Y108.316 E81.32159
G0 F6000 X100.962 Y108.316
G1 F1200 X129.662 Y137.016 E82.67155
G0 F6000 X129.096 Y137.016
G1 F1200 X100.397 Y108.316 E84.02149
G0 F6000 X99.831 Y108.316
G1 F1200 X128.53 Y137.016 E85.37143
G0 F6000 X127.965 Y137.016
G1 F1200 X99.265 Y108.316 E86.72139
G0 F6000 X98.7 Y108.316
G1 F1200 X127.399 Y137.016 E88.07132
G0 F6000 X126.833 Y137.016
G1 F1200 X98.134 Y108.316 E89.42126
G0 F6000 X97.568 Y108.316
G1 F1200 X126.268 Y137.016 E90.77122
G0 F6000 X125.702 Y137.016
G1 F1200 X97.003 Y108.316 E92.12116
G0 F6000 X96.437 Y108.316
G1 F1200 X125.136 Y137.016 E93.47109
G0 F6000 X124.571 Y137.016
G1 F1200 X95.871 Y108.316 E94.82105
G0 F6000 X95.305 Y108.316
G1 F1200 X124.005 Y137.016 E96.17101
G0 F6000 X123.439 Y137.016
G1 F1200 X94.74 Y108.316 E97.52095
G0 F6000 X94.174 Y108.316
G1 F1200 X122.873 Y137.016 E98.87089
G0 F6000 X122.308 Y137.016
G1 F1200 X93.608 Y108.316 E100.22085
G0 F6000 X93.043 Y108.316
G1 F1200 X121.742 Y137.016 E101.57078
G0 F6000 X121.176 Y137.016
G1 F1200 X92.477 Y108.316 E102.92072
G0 F6000 X92.15 Y108.555
G1 F1200 X120.611 Y137.016 E104.25944
G0 F6000 X120.045 Y137.016
G1 F1200 X92.15 Y109.12 E105.57156
G0 F6000 X92.15 Y109.686
G1 F1200 X119.479 Y137.016 E106.85705
G0 F6000 X118.914 Y137.016
G1 F1200 X92.15 Y110.252 E108.11595
G0 F6000 X92.15 Y110.817
G1 F1200 X118.348 Y137.016 E109.34824
G0 F6000 X117.782 Y137.016
G1 F1200 X92.15 Y111.383 E110.55392
G0 F6000 X92.15 Y111.949
G1 F1200 X117.217 Y137.016 E111.73299
G0 F6000 X116.651 Y137.016
G1 F1200 X92.15 Y112.514 E112.88547
G0 F6000 X92.15 Y113.08
G1 F1200 X116.085 Y137.016 E114.01132
G0 F6000 X115.52 Y137.016
G1 F1200 X92.15 Y113.646 E115.11057
G0 F6000 X92.15 Y114.211
G1 F1200 X114.954 Y137.016 E116.18323
G0 F6000 X114.388 Y137.016
G1 F1200 X92.15 Y114.777 E117.22926
G0 F6000 X92.15 Y115.343
G1 F1200 X113.822 Y137.016 E118.24867
G0 F6000 X113.257 Y137.016
G1 F1200 X92.15 Y115.908 E119.2415
G0 F6000 X92.15 Y116.474
G1 F1200 X112.691 Y137.016 E120.20771
G0 F6000 X112.125 Y137.016
G1 F1200 X92.15 Y117.04 E121.14729
G0 F6000 X92.15 Y117.605
G1 F1200 X111.56 Y137.016 E122.06031
G0 F6000 X110.994 Y137.016
G1 F1200 X92.15 Y118.171 E122.94669
G0 F6000 X92.15 Y118.737
G1 F1200 X110.428 Y137.016 E123.80646
G0 F6000 X109.863 Y137.016
G1 F1200 X92.15 Y119.303 E124.63962
G0 F6000 X92.15 Y119.868
G1 F1200 X109.297 Y137.016 E125.44619
G0 F6000 X108.731 Y137.016
G1 F1200 X92.15 Y120.434 E126.22613
G0 F6000 X92.15 Y121
G1 F1200 X108.166 Y137.016 E126.97947
G0 F6000 X107.6 Y137.016
G1 F1200 X92.15 Y121.565 E127.70622
G0 F6000 X92.15 Y122.131
G1 F1200 X107.034 Y137.016 E128.40634
G0 F6000 X106.469 Y137.016
G1 F1200 X92.15 Y122.697 E129.07986
G0 F6000 X92.15 Y123.262
G1 F1200 X105.903 Y137.016 E129.72678
G0 F6000 X105.337 Y137.016
G1 F1200 X92.15 Y123.828 E130.34708
G0 F6000 X92.15 Y124.394
G1 F1200 X104.772 Y137.016 E130.94078
G0 F6000 X104.206 Y137.016
G1 F1200 X92.15 Y124.959 E131.50789
G0 F6000 X92.15 Y125.525
G1 F1200 X103.64 Y137.016 E132.04836
G0 F6000 X103.074 Y137.016
G1 F1200 X92.15 Y126.091 E132.56222
G0 F6000 X92.15 Y126.656
G1 F1200 X102.509 Y137.016 E133.0495
G0 F6000 X101.943 Y137.016
G1 F1200 X92.15 Y127.222 E133.51015
G0 F6000 X92.15 Y127.788
G1 F1200 X101.377 Y137.016 E133.94419
G0 F6000 X100.812 Y137.016
G1 F1200 X92.15 Y128.354 E134.35162
G0 F6000 X92.15 Y128.919
G1 F1200 X100.246 Y137.016 E134.73246
G0 F6000 X99.68 Y137.016
G1 F1200 X92.15 Y129.485 E135.08667
G0 F6000 X92.15 Y130.051
G1 F1200 X99.115 Y137.016 E135.41428
G0 F6000 X98.549 Y137.016
G1 F1200 X92.15 Y130.616 E135.71529
G0 F6000 X92.15 Y131.182
G1 F1200 X97.983 Y137.016 E135.98968
G0 F6000 X97.418 Y137.016
G1 F1200 X92.15 Y131.748 E136.23747
G0 F6000 X92.15 Y132.313
G1 F1200 X96.852 Y137.016 E136.45866
G0 F6000 X96.286 Y137.016
G1 F1200 X92.15 Y132.879 E136.65323
G0 F6000 X92.15 Y133.445
G1 F1200 X95.721 Y137.016 E136.8212
G0 F6000 X95.155 Y137.016
G1 F1200 X92.15 Y134.01 E136.96257
G0 F6000 X92.15 Y134.576
G1 F1200 X94.589 Y137.016 E137.07732
G0 F6000 X94.023 Y137.016
G1 F1200 X92.15 Y135.142 E137.16544
G0 F6000 X92.15 Y135.707
G1 F1200 X93.458 Y137.016 E137.22699
G0 F6000 X92.892 Y137.016
G1 F1200 X92.15 Y136.273 E137.26191
G0 F6000 X92.15 Y136.839
G1 F1200 X92.326 Y137.016 E137.27022
G0 F6000 X92.326 Y137.367
G1 F2700 E130.27022
;MESH:NONMESH
G0 F300 X92.326 Y137.367 Z0.4
G0 F6000 X92.326 Y137.457
G0 X143.4 Y137.567
;TIME_ELAPSED:222.550206
;LAYER:1
M106 S85
;TYPE:WALL-INNER
;MESH:Quick Clamp Pad.stl
G1 F2700 E137.27022
G1 F1350 X91.6 Y137.567 E138.99309
G1 X91.6 Y107.767 E139.98424
G1 X143.4 Y107.767 E141.70712
G1 X143.4 Y137.567 E142.69827
G0 F7500 X143.8 Y137.967
;TYPE:WALL-OUTER
G1 F1350 X91.2 Y137.967 E144.44775
G1 X91.2 Y107.367 E145.46551
G1 X143.8 Y107.367 E147.215
G1 X143.8 Y137.967 E148.23276
G0 F7500 X143.53 Y137.697
G0 X143.29 Y137.177
G0 X143.01 Y137.177
;TYPE:SKIN
G1 F1350 X91.99 Y137.177 E149.92969
G1 X91.99 Y108.157 E150.8949
G1 X143.01 Y108.157 E152.59183
G1 X143.01 Y137.177 E153.55704
G0 F7500 X142.849 Y136.599
G1 F1350 X142.431 Y137.016 E153.57668
G0 F7500 X141.866 Y137.016
G1 F1350 X142.849 Y136.033 E153.62291
G0 F7500 X142.849 Y135.468
G1 F1350 X141.3 Y137.016 E153.69575
G0 F7500 X140.734 Y137.016
G1 F1350 X142.849 Y134.902 E153.79521
G0 F7500 X142.849 Y134.336
G1 F1350 X140.169 Y137.016 E153.92127
G0 F7500 X139.603 Y137.016
G1 F1350 X142.849 Y133.771 E154.07393
G0 F7500 X142.849 Y133.205
G1 F1350 X139.037 Y137.016 E154.25321
G0 F7500 X138.472 Y137.016
G1 F1350 X142.849 Y132.639 E154.45909
G0 F7500 X142.849 Y132.074
G1 F1350 X137.906 Y137.016 E154.69157
G0 F7500 X137.34 Y137.016
G1 F1350 X142.849 Y131.508 E154.95067
G0 F7500 X142.849 Y130.942
G1 F1350 X136.774 Y137.016 E155.2364
G0 F7500 X136.209 Y137.016
G1 F1350 X142.849 Y130.377 E155.5487
G0 F7500 X142.849 Y129.811
G1 F1350 X135.643 Y137.016 E155.88762
G0 F7500 X135.077 Y137.016
G1 F1350 X142.849 Y129.245 E156.25317
G0 F7500 X142.849 Y128.679
G1 F1350 X134.512 Y137.016 E156.64532
G0 F7500 X133.946 Y137.016
G1 F1350 X142.849 Y128.114 E157.06407
G0 F7500 X142.849 Y127.548
G1 F1350 X133.38 Y137.016 E157.50943
G0 F7500 X132.815 Y137.016
G1 F1350 X142.849 Y126.982 E157.9814
G0 F7500 X142.849 Y126.417
G1 F1350 X132.249 Y137.016 E158.47997
G0 F7500 X131.683 Y137.016
G1 F1350 X142.849 Y125.851 E159.00516
G0 F7500 X142.849 Y125.285
G1 F1350 X131.118 Y137.016 E159.55695
G0 F7500 X130.552 Y137.016
G1 F1350 X142.849 Y124.72 E160.13534
G0 F7500 X142.849 Y124.154
G1 F1350 X129.986 Y137.016 E160.74035
G0 F7500 X129.421 Y137.016
G1 F1350 X142.849 Y123.588 E161.37197
G0 F7500 X142.849 Y123.023
G1 F1350 X128.855 Y137.016 E162.03018
G0 F7500 X128.289 Y137.016
G1 F1350 X142.849 Y122.457 E162.71501
G0 F7500 X142.849 Y121.891
G1 F1350 X127.723 Y137.016 E163.42647
G0 F7500 X127.158 Y137.016
G1 F1350 X142.849 Y121.326 E164.1645
G0 F7500 X142.849 Y120.76
G1 F1350 X126.592 Y137.016 E164.92916
G0 F7500 X126.026 Y137.016
G1 F1350 X142.849 Y120.194 E165.72044
G0 F7500 X142.849 Y119.629
G1 F1350 X125.461 Y137.016 E166.53829
G0 F7500 X124.895 Y137.016
G1 F1350 X142.849 Y119.063 E167.38277
G0 F7500 X142.849 Y118.497
G1 F1350 X124.329 Y137.016 E168.25387
G0 F7500 X123.764 Y137.016
G1 F1350 X142.849 Y117.931 E169.15157
G0 F7500 X142.849 Y117.366
G1 F1350 X123.198 Y137.016 E170.07587
G0 F7500 X122.632 Y137.016
G1 F1350 X142.849 Y116.8 E171.02679
G0 F7500 X142.849 Y116.234
G1 F1350 X122.067 Y137.016 E172.00431
G0 F7500 X121.501 Y137.016
G1 F1350 X142.849 Y115.669 E173.00843
G0 F7500 X142.849 Y115.103
G1 F1350 X120.935 Y137.016 E174.03918
G0 F7500 X120.37 Y137.016
G1 F1350 X142.849 Y114.537 E175.09652
G0 F7500 X142.849 Y113.972
G1 F1350 X119.804 Y137.016 E176.18046
G0 F7500 X119.238 Y137.016
G1 F1350 X142.849 Y113.406 E177.29103
G0 F7500 X142.849 Y112.84
G1 F1350 X118.673 Y137.016 E178.42819
G0 F7500 X118.107 Y137.016
G1 F1350 X142.849 Y112.275 E179.59196
G0 F7500 X142.849 Y111.709
G1 F1350 X117.541 Y137.016 E180.78235
G0 F7500 X116.975 Y137.016
G1 F1350 X142.849 Y111.143 E181.99936
G0 F7500 X142.849 Y110.578
G1 F1350 X116.41 Y137.016 E183.24294
G0 F7500 X115.844 Y137.016
G1 F1350 X142.849 Y110.012 E184.51315
G0 F7500 X142.849 Y109.446
G1 F1350 X115.278 Y137.016 E185.80998
G0 F7500 X114.713 Y137.016
G1 F1350 X142.849 Y108.881 E187.13339
G0 F7500 X142.848 Y108.316
G1 F1350 X114.147 Y137.016 E188.48337
G0 F7500 X113.581 Y137.016
G1 F1350 X142.282 Y108.316 E189.83336
G0 F7500 X141.716 Y108.316
G1 F1350 X113.016 Y137.016 E191.18332
G0 F7500 X112.45 Y137.016
G1 F1350 X141.151 Y108.316 E192.5333
G0 F7500 X140.585 Y108.316
G1 F1350 X111.884 Y137.016 E193.88328
G0 F7500 X111.319 Y137.016
G1 F1350 X140.019 Y108.316 E195.23324
G0 F7500 X139.454 Y108.316
G1 F1350 X110.753 Y137.016 E196.58323
G0 F7500 X110.187 Y137.016
G1 F1350 X138.888 Y108.316 E197.93321
G0 F7500 X138.322 Y108.316
G1 F1350 X109.622 Y137.016 E199.28317
G0 F7500 X109.056 Y137.016
G1 F1350 X137.757 Y108.316 E200.63315
G0 F7500 X137.191 Y108.316
G1 F1350 X108.49 Y137.016 E201.98314
G0 F7500 X107.925 Y137.016
G1 F1350 X136.625 Y108.316 E203.3331
G0 F7500 X136.06 Y108.316
G1 F1350 X107.359 Y137.016 E204.68308
G0 F7500 X106.793 Y137.016
G1 F1350 X135.494 Y108.316 E206.03306
G0 F7500 X134.928 Y108.316
G1 F1350 X106.227 Y137.016 E207.38305
G0 F7500 X105.662 Y137.016
G1 F1350 X134.363 Y108.316 E208.73303
G0 F7500 X133.797 Y108.316
G1 F1350 X105.096 Y137.016 E210.08302
G0 F7500 X104.53 Y137.016
G1 F1350 X133.231 Y108.316 E211.433
G0 F7500 X132.665 Y108.316
G1 F1350 X103.965 Y137.016 E212.78296
G0 F7500 X103.399 Y137.016
G1 F1350 X132.1 Y108.316 E214.13294
G0 F7500 X131.534 Y108.316
G1 F1350 X102.833 Y137.016 E215.48293
G0 F7500 X102.268 Y137.016
G1 F1350 X130.968 Y108.316 E216.83289
G0 F7500 X130.403 Y108.316
G1 F1350 X101.702 Y137.016 E218.18287
G0 F7500 X101.136 Y137.016
G1 F1350 X129.837 Y108.316 E219.53285
G0 F7500 X129.271 Y108.316
G1 F1350 X100.571 Y137.016 E220.88281
G0 F7500 X100.005 Y137.016
G1 F1350 X128.706 Y108.316 E222.2328
G0 F7500 X128.14 Y108.316
G1 F1350 X99.439 Y137.016 E223.58278
G0 F7500 X98.874 Y137.016
