;FLAVOR:Marlin
;TIME:10026
;Filament used: 6.58993m
;Layer height: 0.2
;MINX:90.335
;MINY:97.033
;MINZ:0.2
;MAXX:143.8
;MAXY:127.633
;MAXZ:24.6
;Generated with Cura_SteamEngine 4.7.1
M104 S200
M105
M109 S200
M82 ;absolute extrusion mode
; Ender 3 Custom Start G-code
G92 E0 ; Reset Extruder
G28 ; Home all axes
G1 Z2.0 F3000 ; Move Z Axis up little to prevent scratching of Heat Bed
G1 X0.1 Y20 Z0.3 F5000.0 ; Move to start position
G1 X0.1 Y200.0 Z0.3 F1500.0 E15 ; Draw the first line
G1 X0.4 Y200.0 Z0.3 F5000.0 ; Move to side a little
G1 X0.4 Y20 Z0.3 F1500.0 E30 ; Draw the second line
G92 E0 ; Reset Extruder
G1 Z2.0 F3000 ; Move Z Axis up little to prevent scratching of Heat Bed
G1 X5 Y20 Z0.3 F5000.0 ; Move over to prevent blob squish
G92 E0
G92 E0
G1 F2700 E-7
;LAYER_COUNT:123
;LAYER:0
M107
;MESH:QuickClampPad2.stl
G0 F6000 X143.4 Y127.233 Z0.2
;TYPE:WALL-INNER
G1 F2700 E0
G1 F1200 X91.6 Y127.233 E1.72287
G1 X91.6 Y97.433 E2.71403
G1 X143.4 Y97.433 E4.4369
G1 X143.4 Y127.233 E5.42805
G0 F6000 X143.8 Y127.633
;TYPE:WALL-OUTER
G1 F1200 X91.2 Y127.633 E7.17754
G1 X91.2 Y97.033 E8.1953
G1 X143.8 Y97.033 E9.94478
G1 X143.8 Y127.633 E10.96254
G0 F6000 X143.53 Y127.363
G0 X143.29 Y126.843
G0 X143.01 Y126.843
;TYPE:SKIN
G1 F1200 X91.99 Y126.843 E12.65947
G1 X91.99 Y97.823 E13.62468
G1 X143.01 Y97.823 E15.32161
G1 X143.01 Y126.843 E16.28682
G0 F6000 X143.29 Y126.843
G0 X143.29 Y98.159
G0 X142.849 Y98.159
G1 F1200 X142.672 Y97.983 E16.29512
G0 F6000 X142.106 Y97.983
G1 F1200 X142.849 Y98.725 E16.33005
G0 F6000 X142.849 Y99.291
G1 F1200 X141.54 Y97.983 E16.3916
G0 F6000 X140.975 Y97.983
G1 F1200 X142.849 Y99.856 E16.47972
G0 F6000 X142.849 Y100.422
G1 F1200 X140.409 Y97.983 E16.59447
G0 F6000 X139.843 Y97.983
G1 F1200 X142.849 Y100.988 E16.73584
G0 F6000 X142.849 Y101.553
G1 F1200 X139.278 Y97.983 E16.90378
G0 F6000 X138.712 Y97.983
G1 F1200 X142.849 Y102.119 E17.09835
G0 F6000 X142.849 Y102.685
G1 F1200 X138.146 Y97.983 E17.31954
G0 F6000 X137.581 Y97.983
G1 F1200 X142.849 Y103.251 E17.56733
G0 F6000 X142.849 Y103.816
G1 F1200 X137.015 Y97.983 E17.84172
G0 F6000 X136.449 Y97.983
G1 F1200 X142.849 Y104.382 E18.14274
G0 F6000 X142.849 Y104.948
G1 F1200 X135.884 Y97.983 E18.47035
G0 F6000 X135.318 Y97.983
G1 F1200 X142.849 Y105.513 E18.82456
G0 F6000 X142.849 Y106.079
G1 F1200 X134.752 Y97.983 E19.20539
G0 F6000 X134.186 Y97.983
G1 F1200 X142.849 Y106.645 E19.61285
G0 F6000 X142.849 Y107.21
G1 F1200 X133.621 Y97.983 E20.04688
G0 F6000 X133.055 Y97.983
G1 F1200 X142.849 Y107.776 E20.50754
G0 F6000 X142.849 Y108.342
G1 F1200 X132.489 Y97.983 E20.99482
G0 F6000 X131.924 Y97.983
G1 F1200 X142.849 Y108.907 E21.50868
G0 F6000 X142.849 Y109.473
G1 F1200 X131.358 Y97.983 E22.04915
G0 F6000 X130.792 Y97.983
G1 F1200 X142.849 Y110.039 E22.61625
G0 F6000 X142.849 Y110.604
G1 F1200 X130.227 Y97.983 E23.20993
G0 F6000 X129.661 Y97.983
G1 F1200 X142.849 Y111.17 E23.83023
G0 F6000 X142.849 Y111.736
G1 F1200 X129.095 Y97.983 E24.47715
G0 F6000 X128.53 Y97.983
G1 F1200 X142.849 Y112.301 E25.15065
G0 F6000 X142.849 Y112.867
G1 F1200 X127.964 Y97.983 E25.85077
G0 F6000 X127.398 Y97.983
G1 F1200 X142.849 Y113.433 E26.57752
G0 F6000 X142.849 Y113.999
G1 F1200 X126.833 Y97.983 E27.33086
G0 F6000 X126.267 Y97.983
G1 F1200 X142.849 Y114.564 E28.1108
G0 F6000 X142.849 Y115.13
G1 F1200 X125.701 Y97.983 E28.91737
G0 F6000 X125.135 Y97.983
G1 F1200 X142.849 Y115.696 E29.75056
G0 F6000 X142.849 Y116.261
G1 F1200 X124.57 Y97.983 E30.61032
G0 F6000 X124.004 Y97.983
G1 F1200 X142.849 Y116.827 E31.49671
G0 F6000 X142.849 Y117.393
G1 F1200 X123.438 Y97.983 E32.40972
G0 F6000 X122.873 Y97.983
G1 F1200 X142.849 Y117.958 E33.34931
G0 F6000 X142.849 Y118.524
G1 F1200 X122.307 Y97.983 E34.31552
G0 F6000 X121.741 Y97.983
G1 F1200 X142.849 Y119.09 E35.30835
G0 F6000 X142.849 Y119.655
G1 F1200 X121.176 Y97.983 E36.32776
G0 F6000 X120.61 Y97.983
G1 F1200 X142.849 Y120.221 E37.37379
G0 F6000 X142.849 Y120.787
G1 F1200 X120.044 Y97.983 E38.44644
G0 F6000 X119.479 Y97.983
G1 F1200 X142.849 Y121.352 E39.54567
G0 F6000 X142.849 Y121.918
G1 F1200 X118.913 Y97.983 E40.67152
G0 F6000 X118.347 Y97.983
G1 F1200 X142.849 Y122.484 E41.824
G0 F6000 X142.849 Y123.05
G1 F1200 X117.782 Y97.983 E43.00307
G0 F6000 X117.216 Y97.983
G1 F1200 X142.849 Y123.615 E44.20875
G0 F6000 X142.849 Y124.181
G1 F1200 X116.65 Y97.983 E45.44104
G0 F6000 X116.085 Y97.983
G1 F1200 X142.849 Y124.747 E46.69994
G0 F6000 X142.849 Y125.312
G1 F1200 X115.519 Y97.983 E47.98544
G0 F6000 X114.953 Y97.983
G1 F1200 X142.849 Y125.878 E49.29755
G0 F6000 X142.849 Y126.444
G1 F1200 X114.387 Y97.983 E50.6363
G0 F6000 X113.822 Y97.983
G1 F1200 X142.521 Y126.682 E51.98621
G0 F6000 X141.955 Y126.682
G1 F1200 X113.256 Y97.983 E53.33612
G0 F6000 X112.69 Y97.983
G1 F1200 X141.39 Y126.682 E54.68606
G0 F6000 X140.824 Y126.682
G1 F1200 X112.125 Y97.983 E56.03597
G0 F6000 X111.559 Y97.983
G1 F1200 X140.258 Y126.682 E57.38589
G0 F6000 X139.693 Y126.682
G1 F1200 X110.993 Y97.983 E58.73582
G0 F6000 X110.428 Y97.983
G1 F1200 X139.127 Y126.682 E60.08573
G0 F6000 X138.561 Y126.682
G1 F1200 X109.862 Y97.983 E61.43565
G0 F6000 X109.296 Y97.983
G1 F1200 X137.996 Y126.682 E62.78558
G0 F6000 X137.43 Y126.682
G1 F1200 X108.731 Y97.983 E64.1355
G0 F6000 X108.165 Y97.983
G1 F1200 X136.864 Y126.682 E65.48541
G0 F6000 X136.299 Y126.682
G1 F1200 X107.599 Y97.983 E66.83535
G0 F6000 X107.034 Y97.983
G1 F1200 X135.733 Y126.682 E68.18526
G0 F6000 X135.167 Y126.682
G1 F1200 X106.468 Y97.983 E69.53517
G0 F6000 X105.902 Y97.983
G1 F1200 X134.602 Y126.682 E70.88511
G0 F6000 X134.036 Y126.682
G1 F1200 X105.336 Y97.983 E72.23505
G0 F6000 X104.771 Y97.983
G1 F1200 X133.47 Y126.682 E73.58496
G0 F6000 X132.904 Y126.682
G1 F1200 X104.205 Y97.983 E74.93487
G0 F6000 X103.639 Y97.983
G1 F1200 X132.339 Y126.682 E76.28481
G0 F6000 X131.773 Y126.682
G1 F1200 X103.074 Y97.983 E77.63472
G0 F6000 X102.508 Y97.983
G1 F1200 X131.207 Y126.682 E78.98463
G0 F6000 X130.642 Y126.682
G1 F1200 X101.942 Y97.983 E80.33457
G0 F6000 X101.377 Y97.983
G1 F1200 X130.076 Y126.682 E81.68448
G0 F6000 X129.51 Y126.682
G1 F1200 X100.811 Y97.983 E83.0344
G0 F6000 X100.245 Y97.983
G1 F1200 X128.945 Y126.682 E84.38433
G0 F6000 X128.379 Y126.682
G1 F1200 X99.68 Y97.983 E85.73425
G0 F6000 X99.114 Y97.983
G1 F1200 X127.813 Y126.682 E87.08416
G0 F6000 X127.248 Y126.682
G1 F1200 X98.548 Y97.983 E88.4341
G0 F6000 X97.983 Y97.983
G1 F1200 X126.682 Y126.682 E89.78401
G0 F6000 X126.116 Y126.682
G1 F1200 X97.417 Y97.983 E91.13392
G0 F6000 X96.851 Y97.983
G1 F1200 X125.551 Y126.682 E92.48386
G0 F6000 X124.985 Y126.682
G1 F1200 X96.286 Y97.983 E93.83377
G0 F6000 X95.72 Y97.983
G1 F1200 X124.419 Y126.682 E95.18368
G0 F6000 X123.853 Y126.682
G1 F1200 X95.154 Y97.983 E96.5336
G0 F6000 X94.588 Y97.983
G1 F1200 X123.288 Y126.682 E97.88353
G0 F6000 X122.722 Y126.682
G1 F1200 X94.023 Y97.983 E99.23345
G0 F6000 X93.457 Y97.983
G1 F1200 X122.156 Y126.682 E100.58336
G0 F6000 X121.591 Y126.682
G1 F1200 X92.891 Y97.983 E101.9333
G0 F6000 X92.326 Y97.983
G1 F1200 X121.025 Y126.682 E103.28321
G0 F6000 X120.459 Y126.682
G1 F1200 X92.15 Y98.372 E104.6148
G0 F6000 X92.15 Y98.938
G1 F1200 X119.894 Y126.682 E105.91979
G0 F6000 X119.328 Y126.682
G1 F1200 X92.15 Y99.504 E107.19816
G0 F6000 X92.15 Y100.069
G1 F1200 X118.762 Y126.682 E108.44993
G0 F6000 X118.197 Y126.682
G1 F1200 X92.15 Y100.635 E109.6751
G0 F6000 X92.15 Y101.201
G1 F1200 X117.631 Y126.682 E110.87365
G0 F6000 X117.065 Y126.682
G1 F1200 X92.15 Y101.766 E112.0456
G0 F6000 X92.15 Y102.332
G1 F1200 X116.5 Y126.682 E113.19095
G0 F6000 X115.934 Y126.682
G1 F1200 X92.15 Y102.898 E114.30968
G0 F6000 X92.15 Y103.463
G1 F1200 X115.368 Y126.682 E115.4018
G0 F6000 X114.803 Y126.682
G1 F1200 X92.15 Y104.029 E116.46733
G0 F6000 X92.15 Y104.595
G1 F1200 X114.237 Y126.682 E117.50624
G0 F6000 X113.671 Y126.682
G1 F1200 X92.15 Y105.16 E118.51854
G0 F6000 X92.15 Y105.726
G1 F1200 X113.105 Y126.682 E119.50422
G0 F6000 X112.54 Y126.682
G1 F1200 X92.15 Y106.292 E120.46331
G0 F6000 X92.15 Y106.857
G1 F1200 X111.974 Y126.682 E121.39579
G0 F6000 X111.408 Y126.682
G1 F1200 X92.15 Y107.423 E122.30165
G0 F6000 X92.15 Y107.989
G1 F1200 X110.843 Y126.682 E123.18091
G0 F6000 X110.277 Y126.682
G1 F1200 X92.15 Y108.555 E124.03355
G0 F6000 X92.15 Y109.12
G1 F1200 X109.711 Y126.682 E124.85959
G0 F6000 X109.146 Y126.682
G1 F1200 X92.15 Y109.686 E125.65903
G0 F6000 X92.15 Y110.252
G1 F1200 X108.58 Y126.682 E126.43185
G0 F6000 X108.014 Y126.682
G1 F1200 X92.15 Y110.817 E127.17806
G0 F6000 X92.15 Y111.383
G1 F1200 X107.449 Y126.682 E127.89768
G0 F6000 X106.883 Y126.682
G1 F1200 X92.15 Y111.949 E128.59068
G0 F6000 X92.15 Y112.514
G1 F1200 X106.317 Y126.682 E129.25707
G0 F6000 X105.752 Y126.682
G1 F1200 X92.15 Y113.08 E129.89687
G0 F6000 X92.15 Y113.646
G1 F1200 X105.186 Y126.682 E130.51004
G0 F6000 X104.62 Y126.682
G1 F1200 X92.15 Y114.211 E131.09662
G0 F6000 X92.15 Y114.777
G1 F1200 X104.055 Y126.682 E131.65659
G0 F6000 X103.489 Y126.682
G1 F1200 X92.15 Y115.343 E132.18994
G0 F6000 X92.15 Y115.908
G1 F1200 X102.923 Y126.682 E132.6967
G0 F6000 X102.357 Y126.682
G1 F1200 X92.15 Y116.474 E133.17683
G0 F6000 X92.15 Y117.04
G1 F1200 X101.792 Y126.682 E133.63036
G0 F6000 X101.226 Y126.682
G1 F1200 X92.15 Y117.605 E134.05729
G0 F6000 X92.15 Y118.171
G1 F1200 X100.66 Y126.682 E134.45759
G0 F6000 X100.095 Y126.682
G1 F1200 X92.15 Y118.737 E134.8313
G0 F6000 X92.15 Y119.303
G1 F1200 X99.529 Y126.682 E135.17839
G0 F6000 X98.963 Y126.682
G1 F1200 X92.15 Y119.868 E135.49888
G0 F6000 X92.15 Y120.434
G1 F1200 X98.398 Y126.682 E135.79276
G0 F6000 X97.832 Y126.682
G1 F1200 X92.15 Y121 E136.06003
G0 F6000 X92.15 Y121.565
G1 F1200 X97.266 Y126.682 E136.30069
G0 F6000 X96.701 Y126.682
G1 F1200 X92.15 Y122.131 E136.51476
G0 F6000 X92.15 Y122.697
G1 F1200 X96.135 Y126.682 E136.7022
G0 F6000 X95.569 Y126.682
G1 F1200 X92.15 Y123.262 E136.86304
G0 F6000 X92.15 Y123.828
G1 F1200 X95.004 Y126.682 E136.99728
G0 F6000 X94.438 Y126.682
G1 F1200 X92.15 Y124.394 E137.1049
G0 F6000 X92.15 Y124.959
G1 F1200 X93.872 Y126.682 E137.18593
G0 F6000 X93.306 Y126.682
G1 F1200 X92.15 Y125.525 E137.24032
G0 F6000 X92.15 Y126.091
G1 F1200 X92.741 Y126.682 E137.26812
G0 F6000 X92.741 Y127.033
G1 F2700 E130.26812
;MESH:NONMESH
G0 F300 X92.741 Y127.033 Z0.4
G0 F6000 X92.741 Y127.123
G0 X143.4 Y127.233
;TIME_ELAPSED:222.539852
;LAYER:1
M106 S85
;TYPE:WALL-INNER
;MESH:QuickClampPad2.stl
G1 F2700 E137.26812
G1 F1350 X91.6 Y127.233 E138.991
G1 X91.6 Y97.433 E139.98215
G1 X143.4 Y97.433 E141.70502
G1 X143.4 Y127.233 E142.69618
G0 F7500 X143.8 Y127.633
;TYPE:WALL-OUTER
G1 F1350 X91.2 Y127.633 E144.44566
G1 X91.2 Y97.033 E145.46342
G1 X143.8 Y97.033 E147.2129
G1 X143.8 Y127.633 E148.23066
G0 F7500 X143.53 Y127.363
G0 X143.29 Y126.843
G0 X143.01 Y126.843
;TYPE:SKIN
G1 F1350 X91.99 Y126.843 E149.92759
G1 X91.99 Y97.823 E150.8928
G1 X143.01 Y97.823 E152.58974
G1 X143.01 Y126.843 E153.55495
G0 F7500 X142.849 Y126.417
G1 F1350 X142.583 Y126.683 E153.56746
G0 F7500 X142.017 Y126.683
G1 F1350 X142.849 Y125.851 E153.60659
G0 F7500 X142.849 Y125.285
G1 F1350 X141.451 Y126.683 E153.67235
G0 F7500 X140.886 Y126.683
G1 F1350 X142.849 Y124.72 E153.76468
G0 F7500 X142.849 Y124.154
G1 F1350 X140.32 Y126.683 E153.88364
G0 F7500 X139.754 Y126.683
G1 F1350 X142.849 Y123.588 E154.02922
G0 F7500 X142.849 Y123.023
G1 F1350 X139.189 Y126.683 E154.20137
G0 F7500 X138.623 Y126.683
G1 F1350 X142.849 Y122.457 E154.40015
G0 F7500 X142.849 Y121.891
G1 F1350 X138.057 Y126.683 E154.62555
G0 F7500 X137.491 Y126.683
G1 F1350 X142.849 Y121.326 E154.87755
G0 F7500 X142.849 Y120.76
G1 F1350 X136.926 Y126.683 E155.15615
G0 F7500 X136.36 Y126.683
G1 F1350 X142.849 Y120.194 E155.46138
G0 F7500 X142.849 Y119.629
G1 F1350 X135.794 Y126.683 E155.7932
G0 F7500 X135.229 Y126.683
G1 F1350 X142.849 Y119.063 E156.15162
G0 F7500 X142.849 Y118.497
G1 F1350 X134.663 Y126.683 E156.53666
G0 F7500 X134.097 Y126.683
G1 F1350 X142.849 Y117.931 E156.94833
G0 F7500 X142.849 Y117.366
G1 F1350 X133.532 Y126.683 E157.38657
G0 F7500 X132.966 Y126.683
G1 F1350 X142.849 Y116.8 E157.85144
G0 F7500 X142.849 Y116.234
G1 F1350 X132.4 Y126.683 E158.34293
G0 F7500 X131.835 Y126.683
G1 F1350 X142.849 Y115.669 E158.86099
G0 F7500 X142.849 Y115.103
G1 F1350 X131.269 Y126.683 E159.40568
G0 F7500 X130.703 Y126.683
G1 F1350 X142.849 Y114.537 E159.97699
G0 F7500 X142.849 Y113.972
G1 F1350 X130.138 Y126.683 E160.57488
G0 F7500 X129.572 Y126.683
G1 F1350 X142.849 Y113.406 E161.19939
G0 F7500 X142.849 Y112.84
G1 F1350 X129.006 Y126.683 E161.85052
G0 F7500 X128.44 Y126.683
G1 F1350 X142.849 Y112.275 E162.52825
G0 F7500 X142.849 Y111.709
G1 F1350 X127.875 Y126.683 E163.23258
G0 F7500 X127.309 Y126.683
G1 F1350 X142.849 Y111.143 E163.96354
G0 F7500 X142.849 Y110.578
G1 F1350 X126.743 Y126.683 E164.72109
G0 F7500 X126.178 Y126.683
G1 F1350 X142.849 Y110.012 E165.50524
G0 F7500 X142.849 Y109.446
G1 F1350 X125.612 Y126.683 E166.31602
G0 F7500 X125.046 Y126.683
G1 F1350 X142.849 Y108.881 E167.15339
G0 F7500 X142.849 Y108.315
G1 F1350 X124.481 Y126.683 E168.01737
G0 F7500 X123.915 Y126.683
G1 F1350 X142.849 Y107.749 E168.90797
G0 F7500 X142.849 Y107.183
G1 F1350 X123.349 Y126.683 E169.82519
G0 F7500 X122.784 Y126.683
G1 F1350 X142.849 Y106.618 E170.76898
G0 F7500 X142.849 Y106.052
G1 F1350 X122.218 Y126.683 E171.7394
G0 F7500 X121.652 Y126.683
G1 F1350 X142.849 Y105.486 E172.73644
G0 F7500 X142.849 Y104.921
G1 F1350 X121.087 Y126.683 E173.76006
G0 F7500 X120.521 Y126.683
G1 F1350 X142.849 Y104.355 E174.8103
G0 F7500 X142.849 Y103.789
G1 F1350 X119.955 Y126.683 E175.88716
G0 F7500 X119.39 Y126.683
G1 F1350 X142.849 Y103.224 E176.9906
G0 F7500 X142.849 Y102.658
G1 F1350 X118.824 Y126.683 E178.12067
G0 F7500 X118.258 Y126.683
G1 F1350 X142.849 Y102.092 E179.27735
G0 F7500 X142.849 Y101.527
G1 F1350 X117.692 Y126.683 E180.46064
G0 F7500 X117.127 Y126.683
G1 F1350 X142.849 Y100.961 E181.67052
G0 F7500 X142.849 Y100.395
G1 F1350 X116.561 Y126.683 E182.90703
G0 F7500 X115.995 Y126.683
G1 F1350 X142.849 Y99.83 E184.17013
G0 F7500 X142.849 Y99.264
G1 F1350 X115.43 Y126.683 E185.45984
G0 F7500 X114.864 Y126.683
G1 F1350 X142.849 Y98.698 E186.77617
G0 F7500 X142.849 Y98.132
G1 F1350 X114.298 Y126.683 E188.11912
G0 F7500 X113.733 Y126.683
G1 F1350 X142.433 Y97.982 E189.4691
G0 F7500 X141.868 Y97.982
G1 F1350 X113.167 Y126.683 E190.81911
G0 F7500 X112.601 Y126.683
G1 F1350 X141.302 Y97.982 E192.16912
G0 F7500 X140.736 Y97.982
G1 F1350 X112.036 Y126.683 E193.5191
G0 F7500 X111.47 Y126.683
G1 F1350 X140.171 Y97.982 E194.86911
G0 F7500 X139.605 Y97.982
G1 F1350 X110.904 Y126.683 E196.21911
G0 F7500 X110.339 Y126.683
G1 F1350 X139.039 Y97.982 E197.5691
G0 F7500 X138.474 Y97.982
G1 F1350 X109.773 Y126.683 E198.9191
G0 F7500 X109.207 Y126.683
G1 F1350 X137.908 Y97.982 E200.26911
G0 F7500 X137.342 Y97.982
G1 F1350 X108.642 Y126.683 E201.6191
G0 F7500 X108.076 Y126.683
G1 F1350 X136.777 Y97.982 E202.9691
G0 F7500 X136.211 Y97.982
G1 F1350 X107.51 Y126.683 E204.31911
G0 F7500 X106.944 Y126.683
G1 F1350 X135.645 Y97.982 E205.66912
G0 F7500 X135.08 Y97.982
G1 F1350 X106.379 Y126.683 E207.01912
G0 F7500 X105.813 Y126.683
G1 F1350 X134.514 Y97.982 E208.36913
G0 F7500 X133.948 Y97.982
G1 F1350 X105.247 Y126.683 E209.71914
G0 F7500 X104.682 Y126.683
G1 F1350 X133.382 Y97.982 E211.06912
G0 F7500 X132.817 Y97.982
G1 F1350 X104.116 Y126.683 E212.41913
G0 F7500 X103.55 Y126.683
G1 F1350 X132.251 Y97.982 E213.76914
G0 F7500 X131.685 Y97.982
G1 F1350 X102.985 Y126.683 E215.11912
G0 F7500 X102.419 Y126.683
G1 F1350 X131.12 Y97.982 E216.46913
G0 F7500 X130.554 Y97.982
G1 F1350 X101.853 Y126.683 E217.81913
G0 F7500 X101.288 Y126.683
G1 F1350 X129.988 Y97.982 E219.16912
G0 F7500 X129.423 Y97.982
G1 F1350 X100.722 Y126.683 E220.51912
G0 F7500 X100.156 Y126.683
G1 F1350 X128.857 Y97.982 E221.86913
G0 F7500 X128.291 Y97.982
G1 F1350 X99.591 Y126.683 E223.21911
G0 F7500 X99.025 Y126.683
G1 F1350 X127.726 Y97.982 E224.56912
G0 F7500 X127.16 Y97.982
G1 F1350 X98.459 Y126.683 E225.91913
G0 F7500 X97.893 Y126.683
G1 F1350 X126.594 Y97.982 E227.26914
