;FLAVOR:Marlin
;TIME:9165
;Filament used: 4.81468m
;Layer height: 0.3
;MINX:89.179
;MINY:97.61
;MINZ:0.2
;MAXX:145.037
;MAXY:137.361
;MAXZ:20.9
;Generated with Cura_SteamEngine 4.8.0
M140 S60
M105
M190 S60
M104 S228
M105
M109 S228
M82 ;absolute extrusion mode
; Ender 3 Custom Start G-code
G92 E0 ; Reset Extruder
G28 ; Home all axes
G1 Z2.0 F3000 ; Move Z Axis up little to prevent scratching of Heat Bed
G1 X0.1 Y20 Z0.3 F5000.0 ; Move to start position
G1 X0.1 Y200.0 Z0.3 F1500.0 E15 ; Draw the first line
G1 X0.4 Y200.0 Z0.3 F5000.0 ; Move to side a little
G1 X0.4 Y20 Z0.3 F1500.0 E30 ; Draw the second line
G92 E0 ; Reset Extruder
G1 Z2.0 F3000 ; Move Z Axis up little to prevent scratching of Heat Bed
G1 X5 Y20 Z0.3 F5000.0 ; Move over to prevent blob squish
G92 E0
G92 E0
G1 F1500 E-6.5
;LAYER_COUNT:70
;LAYER:0
M107
G0 F6000 X116.397 Y112.33 Z0.2
;TYPE:SKIRT
G1 F1500 E0
G1 F1200 X117.095 Y112.33 E0.02322
G1 X117.095 Y114.645 E0.10021
G1 X116.397 Y115.343 E0.13304
G1 X116.397 Y112.33 E0.23326
G0 F6000 X115.997 Y111.93
G1 F1200 X117.495 Y111.93 E0.28308
G1 X117.495 Y114.811 E0.3789
G1 X115.997 Y116.309 E0.44936
G1 X115.997 Y111.93 E0.59501
G0 F6000 X115.597 Y111.53
G1 F1200 X117.895 Y111.53 E0.67144
G1 X117.895 Y114.977 E0.78609
G1 X116.278 Y116.594 E0.86215
G1 X116.109 Y116.82 E0.87154
G1 X116.009 Y117.084 E0.88092
G1 X115.985 Y117.301 E0.88819
G1 X115.985 Y117.699 E0.90142
G1 X116.025 Y117.978 E0.9108
G1 X116.141 Y118.235 E0.92018
G1 X116.278 Y118.406 E0.92746
G1 X117.895 Y120.023 E1.00352
G1 X117.895 Y123.47 E1.11817
G1 X115.597 Y123.47 E1.1946
G1 X115.597 Y111.53 E1.59173
G0 F6000 X115.197 Y111.13
G1 F1200 X118.295 Y111.13 E1.69477
G1 X118.295 Y115.143 E1.82824
G1 X116.561 Y116.877 E1.9098
G1 X116.437 Y117.056 E1.91705
G1 X116.385 Y117.301 E1.92538
G1 X116.385 Y117.699 E1.93861
G1 X116.425 Y117.914 E1.94589
G1 X116.561 Y118.123 E1.95418
G1 X118.295 Y119.857 E2.03574
G1 X118.295 Y123.87 E2.16922
G1 X115.197 Y123.87 E2.27226
G1 X115.197 Y111.13 E2.69599
G0 F6000 X114.797 Y110.73
G1 F1200 X118.695 Y110.73 E2.82564
G1 X118.695 Y115.309 E2.97794
G1 X116.844 Y117.16 E3.065
G1 X116.785 Y117.301 E3.07008
G1 X116.785 Y117.699 E3.08332
G1 X116.844 Y117.84 E3.08841
G1 X118.695 Y119.691 E3.17547
G1 X118.695 Y124.27 E3.32777
G1 X114.797 Y124.27 E3.45742
G1 X114.797 Y110.73 E3.90776
G0 F6000 X115.997 Y118.691
G1 F1200 X117.495 Y120.189 E3.97822
G1 X117.495 Y123.07 E4.07404
G1 X115.997 Y123.07 E4.12387
G1 X115.997 Y118.691 E4.26951
G0 F6000 X116.397 Y119.657
G1 F1200 X117.095 Y120.355 E4.30235
G1 X117.095 Y122.67 E4.37934
G1 X116.397 Y122.67 E4.40256
G1 X116.397 Y119.657 E4.50277
G1 F1500 E-1.99723
G0 F6000 X129.383 Y112.672
G0 X129.447 Y105.655
G0 X138.767 Y106.104
G0 X140.798 Y106.11
G0 X141.75 Y106.022
G0 X142.655 Y105.537
G0 X142.314 Y105.197
G1 F1500 E4.50277
G1 F1200 X142.357 Y105.095 E4.50645
G1 X142.358 Y98.613 E4.72204
G1 X142.541 Y98.613 E4.72813
G1 X142.792 Y98.627 E4.73649
G1 X143.073 Y98.654 E4.74588
G1 X143.432 Y98.668 E4.75783
G1 X143.559 Y98.681 E4.76208
G1 X143.559 Y104.232 E4.9467
G1 X143.593 Y104.343 E4.95057
G1 X143.814 Y104.674 E4.9638
G1 X143.904 Y104.748 E4.96768
G1 X144.838 Y105.133 E5.00128
G1 X144.837 Y129.864 E5.82384
G1 X143.904 Y130.249 E5.85741
G1 X143.814 Y130.323 E5.86128
G1 X143.593 Y130.654 E5.87452
G1 X143.559 Y130.765 E5.87838
G1 X143.558 Y136.309 E6.06277
G1 X143.27 Y136.333 E6.07239
G1 X142.821 Y136.361 E6.08735
G1 X142.54 Y136.388 E6.09674
G1 X142.357 Y136.388 E6.10282
G1 X142.358 Y129.904 E6.31848
G1 X142.321 Y129.816 E6.32166
G1 X142.499 Y129.822 E6.32758
G1 X142.645 Y129.765 E6.33279
G1 X142.931 Y129.486 E6.34608
G1 X142.991 Y129.343 E6.35124
G1 X142.991 Y105.669 E7.13864
G1 X142.93 Y105.526 E7.14381
G1 X142.644 Y105.248 E7.15708
G1 X142.499 Y105.191 E7.16226
G1 X142.314 Y105.197 E7.16842
G0 F6000 X142.757 Y104.85
G1 F1200 X142.758 Y99.027 E7.36209
G1 X143.073 Y99.054 E7.37261
G1 X143.159 Y99.054 E7.37547
G1 X143.159 Y104.232 E7.54769
G1 X143.26 Y104.565 E7.55926
G1 X143.481 Y104.896 E7.5725
G1 X143.751 Y105.118 E7.58412
G1 X144.438 Y105.401 E7.60884
G1 X144.437 Y129.596 E8.41357
G1 X143.751 Y129.879 E8.43825
G1 X143.481 Y130.101 E8.44987
G1 X143.26 Y130.432 E8.46311
G1 X143.159 Y130.765 E8.47468
G1 X143.158 Y135.947 E8.64704
G1 X142.821 Y135.961 E8.65826
G1 X142.757 Y135.973 E8.66042
G1 X142.758 Y130.154 E8.85396
G1 X142.924 Y130.051 E8.86046
G1 X143.21 Y129.772 E8.87375
G1 X143.336 Y129.594 E8.881
G1 X143.391 Y129.343 E8.88955
G1 X143.391 Y105.669 E9.67695
G1 X143.351 Y105.454 E9.68422
G1 X143.209 Y105.239 E9.69279
G1 X142.923 Y104.961 E9.70606
G1 X142.757 Y104.85 E9.7127
G0 F6000 X143.791 Y105.669
G1 F1200 X143.775 Y105.561 E9.71633
G1 X144.038 Y105.669 E9.72579
G1 X144.037 Y129.329 E10.51272
G1 X143.78 Y129.435 E10.52197
G1 X143.791 Y129.343 E10.52505
G1 X143.791 Y105.669 E11.31245
G1 F1500 E4.81245
G0 F6000 X141.957 Y105.013
;TYPE:SUPPORT-INTERFACE
G1 F1500 E11.31245
G1 F1200 X141.755 Y105.215 E11.32195
G1 X140.782 Y105.246 E11.35433
G1 X139.636 Y105.246 E11.39245
G1 X139.636 Y105.146 E11.39577
G1 X139.806 Y104.976 E11.40377
G1 X139.807 Y98.53 E11.61817
G1 X140.132 Y98.53 E11.62898
G1 X140.146 Y98.544 E11.62963
G1 X140.713 Y98.544 E11.64849
G1 X140.727 Y98.558 E11.64915
G1 X141.142 Y98.558 E11.66295
G1 X141.155 Y98.571 E11.66357
G1 X141.558 Y98.571 E11.67697
G1 X141.572 Y98.585 E11.67763
G1 X141.882 Y98.585 E11.68794
G1 X141.896 Y98.599 E11.6886
G1 X141.958 Y98.599 E11.69066
G1 X141.957 Y105.013 E11.90399
G1 F1500 E5.40399
G0 F6000 X142.568 Y105.624
G0 X141.799 Y128.934
G0 X141.772 Y129.8
G1 F1500 E11.90399
G1 F1200 X141.958 Y129.986 E11.91274
G1 X141.957 Y136.401 E12.1261
G1 X141.896 Y136.401 E12.12813
G1 X141.881 Y136.416 E12.12884
G1 X141.571 Y136.416 E12.13915
G1 X141.557 Y136.43 E12.13981
G1 X141.154 Y136.43 E12.15321
G1 X141.141 Y136.443 E12.15382
G1 X140.726 Y136.443 E12.16762
G1 X140.712 Y136.457 E12.16828
G1 X140.144 Y136.457 E12.18717
G1 X140.131 Y136.47 E12.18779
G1 X139.806 Y136.47 E12.1986
G1 X139.806 Y135.8 E12.22088
G1 X139.807 Y130.023 E12.41302
G1 X139.636 Y129.852 E12.42107
G1 X139.636 Y129.753 E12.42436
G1 X140.311 Y129.753 E12.44681
G1 X140.465 Y129.758 E12.45193
G1 X141.772 Y129.8 E12.49543
G1 F1500 E5.99543
G0 F6000 X141.799 Y128.934
G0 X142.818 Y105.369
G0 X142.812 Y97.791
G0 X140.489 Y97.669
G0 X92.128 Y97.61
G0 X91.313 Y97.679
G0 X91.277 Y98.543
G1 F1500 E12.49543
G1 F1200 X91.277 Y136.457 E13.75645
G1 X91.11 Y136.457 E13.76201
G1 X91.095 Y136.442 E13.76271
G1 X90.844 Y136.442 E13.77106
G1 X90.844 Y98.557 E15.03112
G1 X91.096 Y98.557 E15.0395
G1 X91.11 Y98.543 E15.04016
G1 X91.277 Y98.543 E15.04572
G1 F1500 E8.54572
G0 F6000 X91.313 Y97.679
G0 X92.128 Y97.61
G0 X138.793 Y97.643
G0 X138.997 Y97.866
G0 X140.005 Y99.276
G1 F1500 E15.04572
G1 F1200 X141.757 Y101.027 E15.1281
G0 F6000 X141.755 Y102.62
G1 F1200 X140.005 Y104.37 E15.21042
G0 F6000 X140.005 Y102.669
G1 F1200 X141.756 Y104.421 E15.2928
G0 F6000 X140.006 Y100.975
G1 F1200 X141.756 Y99.225 E15.37512
G1 F1500 E8.87512
G0 F6000 X142.823 Y99.225
G0 X142.819 Y104.754
G0 X141.57 Y128.927
G0 X141.537 Y129.991
G1 F1500 E15.37512
G1 F1200 X140.006 Y131.522 E15.44713
G0 F6000 X140.135 Y129.953
G1 F1200 X141.757 Y131.575 E15.52342
G0 F6000 X141.756 Y133.166
G1 F1200 X140.006 Y134.916 E15.60574
G0 F6000 X140.005 Y133.217
G1 F1200 X141.757 Y134.969 E15.68815
G1 F1500 E9.18815
;MESH:NRSBuckleBumper.stl
G0 F6000 X142.823 Y134.969
G0 X119.469 Y129.332
G0 X119.469 Y130.767
G0 X121.396 Y130.597
;TYPE:WALL-INNER
G1 F1500 E15.68815
G1 F1200 X121.396 Y104.403 E16.55936
G1 X103.2 Y104.403 E17.16456
G1 X103.2 Y109.602 E17.33748
G1 X113.197 Y109.602 E17.66998
G1 X113.197 Y125.398 E18.19536
G1 X103.2 Y125.398 E18.52786
G1 X103.2 Y130.597 E18.70078
G1 X121.396 Y130.597 E19.30598
G0 F6000 X120.996 Y130.197
;TYPE:WALL-OUTER
G1 F1200 X120.996 Y104.803 E20.15059
G1 X103.6 Y104.803 E20.72919
G1 X103.6 Y109.202 E20.8755
G1 X113.597 Y109.202 E21.208
G1 X113.597 Y125.798 E21.75998
G1 X103.6 Y125.798 E22.09249
G1 X103.6 Y130.197 E22.2388
G1 X120.996 Y130.197 E22.81739
G1 F1500 E16.31739
G0 F6000 X121.296 Y130.197
G0 X119.469 Y130.767
G0 X119.469 Y129.332
G0 X121.59 Y137.361
G0 X121.59 Y135.905
G0 X138.036 Y136.096
;TYPE:WALL-INNER
G1 F1500 E22.81739
G1 F1200 X137.837 Y136.096 E22.82401
G1 X92.877 Y136.095 E24.31938
G1 X92.877 Y98.905 E25.55633
G1 X137.837 Y98.904 E27.0517
G1 X138.036 Y98.904 E27.05832
G1 X138.036 Y99.103 E27.06261
G1 X138.036 Y104.204 E27.23227
G1 X138.036 Y104.403 E27.23888
G1 X137.837 Y104.403 E27.24317
G1 X128.393 Y104.402 E27.55728
G1 X128.194 Y104.402 E27.56389
G1 X128.194 Y104.601 E27.56818
G1 X128.194 Y130.399 E28.42622
G1 X128.194 Y130.598 E28.43284
G1 X128.393 Y130.598 E28.43712
G1 X137.837 Y130.597 E28.75123
G1 X138.036 Y130.597 E28.75785
G1 X138.036 Y130.796 E28.76213
G1 X138.036 Y135.897 E28.93179
G1 X138.036 Y136.096 E28.93607
G0 F6000 X138.436 Y136.496
;TYPE:WALL-OUTER
G1 F1200 X92.477 Y136.495 E30.46468
G1 X92.477 Y98.505 E31.72823
G1 X138.436 Y98.504 E33.25683
G1 X138.436 Y104.803 E33.46634
G1 X128.594 Y104.802 E33.79368
G1 X128.594 Y130.198 E34.63836
G1 X138.436 Y130.197 E34.9657
G1 X138.436 Y136.496 E35.17521
G0 F6000 X138.166 Y136.226
G0 X137.645 Y135.985
G0 X137.646 Y135.706
;TYPE:SKIN
G1 F1200 X93.267 Y135.705 E36.65126
G1 X93.267 Y99.295 E37.86226
G1 X137.646 Y99.294 E39.33831
G1 X137.646 Y104.013 E39.49527
G1 X127.804 Y104.012 E39.82262
G1 X127.804 Y130.988 E40.71984
G1 X137.646 Y130.987 E41.04719
G1 X137.646 Y135.706 E41.20414
G1 F1500 E34.70414
G0 F6000 X137.645 Y135.985
G0 X121.504 Y135.905
G0 X121.504 Y137.361
G0 X120.143 Y129.344
G0 X121.504 Y130.787
G0 X121.786 Y130.987
G1 F1500 E41.20414
G1 F1200 X121.786 Y104.013 E42.1013
G1 X102.81 Y104.013 E42.73244
G1 X102.81 Y109.992 E42.93131
G1 X112.807 Y109.992 E43.26381
G1 X112.807 Y125.008 E43.76324
G1 X102.81 Y125.008 E44.09574
G1 X102.81 Y130.987 E44.29461
G1 X121.786 Y130.987 E44.92575
G1 F1500 E38.42575
G0 F6000 X121.506 Y130.737
G0 X117.332 Y130.767
G0 X117.332 Y129.332
G0 X103.002 Y137.361
G0 X103.002 Y135.905
G0 X93.682 Y135.985
G0 X93.683 Y135.543
G1 F1500 E44.92575
G1 F1200 X93.427 Y135.287 E44.93779
G0 F6000 X93.427 Y134.722
G1 F1200 X94.248 Y135.543 E44.97641
G0 F6000 X94.814 Y135.543
G1 F1200 X93.427 Y134.156 E45.04165
G0 F6000 X93.427 Y133.59
G1 F1200 X95.38 Y135.543 E45.13351
G0 F6000 X95.945 Y135.543
G1 F1200 X93.427 Y133.025 E45.25195
G0 F6000 X93.427 Y132.459
G1 F1200 X96.511 Y135.543 E45.39701
G0 F6000 X97.077 Y135.543
G1 F1200 X93.427 Y131.893 E45.5687
G0 F6000 X93.427 Y131.328
G1 F1200 X97.642 Y135.543 E45.76696
G0 F6000 X98.208 Y135.543
G1 F1200 X93.427 Y130.762 E45.99184
G0 F6000 X93.427 Y130.196
G1 F1200 X98.774 Y135.543 E46.24335
G0 F6000 X99.34 Y135.543
G1 F1200 X93.427 Y129.631 E46.52146
G0 F6000 X93.427 Y129.065
G1 F1200 X99.905 Y135.543 E46.82616
G0 F6000 X100.471 Y135.543
G1 F1200 X93.427 Y128.499 E47.15749
G0 F6000 X93.427 Y127.934
G1 F1200 X101.037 Y135.543 E47.51542
G0 F6000 X101.602 Y135.543
G1 F1200 X93.427 Y127.368 E47.89994
G0 F6000 X93.427 Y126.802
G1 F1200 X102.168 Y135.543 E48.31109
G0 F6000 X102.734 Y135.543
G1 F1200 X93.427 Y126.236 E48.74887
G0 F6000 X93.427 Y125.671
G1 F1200 X103.299 Y135.543 E49.21321
G0 F6000 X103.865 Y135.543
G1 F1200 X93.427 Y125.105 E49.70419
G0 F6000 X93.427 Y124.539
G1 F1200 X104.431 Y135.543 E50.22178
G0 F6000 X104.996 Y135.543
G1 F1200 X93.427 Y123.974 E50.76595
G0 F6000 X93.427 Y123.408
G1 F1200 X105.562 Y135.543 E51.33674
G0 F6000 X106.128 Y135.543
G1 F1200 X93.427 Y122.842 E51.93416
G0 F6000 X93.427 Y122.277
G1 F1200 X106.693 Y135.543 E52.55815
G0 F6000 X107.259 Y135.543
G1 F1200 X102.862 Y131.146 E52.76497
G0 F6000 X102.649 Y130.934
G1 F1200 X93.427 Y121.711 E53.19877
G0 F6000 X93.427 Y121.145
G1 F1200 X102.649 Y130.368 E53.63257
G0 F6000 X102.649 Y129.802
G1 F1200 X93.427 Y120.58 E54.06634
G0 F6000 X93.427 Y120.014
G1 F1200 X102.649 Y129.237 E54.50014
G0 F6000 X102.649 Y128.671
G1 F1200 X93.427 Y119.448 E54.93394
G0 F6000 X93.427 Y118.883
G1 F1200 X102.649 Y128.105 E55.36772
G0 F6000 X102.649 Y127.54
G1 F1200 X93.427 Y118.317 E55.80151
G0 F6000 X93.427 Y117.751
G1 F1200 X102.649 Y126.974 E56.23531
G0 F6000 X102.649 Y126.408
G1 F1200 X93.427 Y117.185 E56.66911
G0 F6000 X93.427 Y116.62
G1 F1200 X102.649 Y125.843 E57.10291
G0 F6000 X102.649 Y125.277
G1 F1200 X93.427 Y116.054 E57.53671
G0 F6000 X93.427 Y115.488
G1 F1200 X102.785 Y124.847 E57.9769
G0 F6000 X103.351 Y124.847
G1 F1200 X93.427 Y114.923 E58.4437
G0 F6000 X93.427 Y114.357
G1 F1200 X103.917 Y124.847 E58.93711
G0 F6000 X104.482 Y124.847
G1 F1200 X93.427 Y113.791 E59.45713
G0 F6000 X93.427 Y113.226
G1 F1200 X105.048 Y124.847 E60.00375
G0 F6000 X105.614 Y124.847
G1 F1200 X93.427 Y112.66 E60.57699
G0 F6000 X93.427 Y112.094
G1 F1200 X106.179 Y124.847 E61.17682
G0 F6000 X106.745 Y124.847
G1 F1200 X93.427 Y111.529 E61.80326
G0 F6000 X93.427 Y110.963
G1 F1200 X107.311 Y124.847 E62.45632
G0 F6000 X107.876 Y124.847
G1 F1200 X93.427 Y110.397 E63.13598
G0 F6000 X93.427 Y109.832
G1 F1200 X108.442 Y124.847 E63.84224
G0 F6000 X109.008 Y124.847
G1 F1200 X93.427 Y109.266 E64.57512
G0 F6000 X93.427 Y108.7
G1 F1200 X109.573 Y124.847 E65.33461
G0 F6000 X110.139 Y124.847
G1 F1200 X93.427 Y108.135 E66.12069
G0 F6000 X93.427 Y107.569
G1 F1200 X110.705 Y124.847 E66.93339
G0 F6000 X111.271 Y124.847
G1 F1200 X93.427 Y107.003 E67.77272
G0 F6000 X93.427 Y106.437
G1 F1200 X111.836 Y124.847 E68.63865
G0 F6000 X112.402 Y124.847
G1 F1200 X93.427 Y105.872 E69.53117
G0 F6000 X93.427 Y105.306
G1 F1200 X112.647 Y124.526 E70.43522
G0 F6000 X112.647 Y123.96
G1 F1200 X93.427 Y104.74 E71.33927
G0 F6000 X93.427 Y104.175
G1 F1200 X112.647 Y123.395 E72.24332
G0 F6000 X112.647 Y122.829
G1 F1200 X93.427 Y103.609 E73.14737
G0 F6000 X93.427 Y103.043
G1 F1200 X112.647 Y122.263 E74.05142
G0 F6000 X112.647 Y121.698
G1 F1200 X93.427 Y102.478 E74.95547
G0 F6000 X93.427 Y101.912
G1 F1200 X112.647 Y121.132 E75.85952
G0 F6000 X112.647 Y120.566
G1 F1200 X93.427 Y101.346 E76.76357
G0 F6000 X93.427 Y100.781
G1 F1200 X102.649 Y110.003 E77.19734
G0 F6000 X102.797 Y110.151
G1 F1200 X112.647 Y120 E77.66064
G0 F6000 X112.647 Y119.435
G1 F1200 X103.363 Y110.151 E78.09733
G0 F6000 X103.929 Y110.151
G1 F1200 X112.647 Y118.869 E78.50739
G0 F6000 X112.647 Y118.303
G1 F1200 X104.494 Y110.151 E78.89086
G0 F6000 X105.06 Y110.151
G1 F1200 X112.647 Y117.738 E79.24773
G0 F6000 X112.647 Y117.172
G1 F1200 X105.626 Y110.151 E79.57798
G0 F6000 X106.191 Y110.151
G1 F1200 X112.647 Y116.606 E79.88163
G0 F6000 X112.647 Y116.041
G1 F1200 X106.757 Y110.151 E80.15867
G0 F6000 X107.323 Y110.151
G1 F1200 X112.647 Y115.475 E80.4091
G0 F6000 X112.647 Y114.909
G1 F1200 X107.888 Y110.151 E80.63292
G0 F6000 X108.454 Y110.151
G1 F1200 X112.647 Y114.344 E80.83015
G0 F6000 X112.647 Y113.778
G1 F1200 X109.02 Y110.151 E81.00075
G0 F6000 X109.585 Y110.151
G1 F1200 X112.647 Y113.212 E81.14475
G0 F6000 X112.647 Y112.647
G1 F1200 X110.151 Y110.151 E81.26216
G0 F6000 X110.717 Y110.151
G1 F1200 X112.647 Y112.081 E81.35294
G0 F6000 X112.647 Y111.515
G1 F1200 X111.283 Y110.151 E81.4171
G0 F6000 X111.848 Y110.151
G1 F1200 X112.647 Y110.95 E81.45468
G0 F6000 X112.647 Y110.384
G1 F1200 X112.414 Y110.151 E81.46564
G0 F6000 X112.414 Y109.712
G0 X103.372 Y109.43
G0 X103.372 Y104.575
G0 X112.338 Y104.293
G0 X112.338 Y103.852
G1 F1200 X107.939 Y99.454 E81.67253
G0 F6000 X107.374 Y99.454
G1 F1200 X111.771 Y103.852 E81.87938
G0 F6000 X111.205 Y103.852
G1 F1200 X106.808 Y99.454 E82.08622
G0 F6000 X106.242 Y99.454
G1 F1200 X110.64 Y103.852 E82.29309
G0 F6000 X110.074 Y103.852
G1 F1200 X105.677 Y99.454 E82.49994
G0 F6000 X105.111 Y99.454
G1 F1200 X109.508 Y103.852 E82.70678
G0 F6000 X108.943 Y103.852
G1 F1200 X104.545 Y99.454 E82.91365
G0 F6000 X103.98 Y99.454
G1 F1200 X108.377 Y103.852 E83.12049
G0 F6000 X107.811 Y103.852
G1 F1200 X103.414 Y99.454 E83.32734
G0 F6000 X102.848 Y99.454
G1 F1200 X107.246 Y103.852 E83.53421
G0 F6000 X106.68 Y103.852
G1 F1200 X102.282 Y99.454 E83.74108
G0 F6000 X101.717 Y99.454
G1 F1200 X106.114 Y103.852 E83.94792
G0 F6000 X105.549 Y103.852
G1 F1200 X101.151 Y99.454 E84.15479
