;FLAVOR:Marlin
;TIME:9135
;Filament used: 3.37541m
;Layer height: 0.12
;MINX:105.268
;MINY:99.696
;MINZ:0.2
;MAXX:129.732
;MAXY:135.277
;MAXZ:24.4
;Generated with Cura_SteamEngine 4.8.0
M140 S110
M105
M190 S110
M104 S255
M105
M109 S255
M82 ;absolute extrusion mode
; Ender 3 Custom Start G-code
G92 E0 ; Reset Extruder
G28 ; Home all axes
G1 Z2.0 F3000 ; Move Z Axis up little to prevent scratching of Heat Bed
G1 X0.1 Y20 Z0.3 F5000.0 ; Move to start position
G1 X0.1 Y200.0 Z0.3 F1500.0 E15 ; Draw the first line
G1 X0.4 Y200.0 Z0.3 F5000.0 ; Move to side a little
G1 X0.4 Y20 Z0.3 F1500.0 E30 ; Draw the second line
G92 E0 ; Reset Extruder
G1 Z2.0 F3000 ; Move Z Axis up little to prevent scratching of Heat Bed
G1 X5 Y20 Z0.3 F5000.0 ; Move over to prevent blob squish
G92 E0
G92 E0
G1 F2700 E-5
;LAYER_COUNT:201
;LAYER:0
M107
G1 F300 Z0.4
G0 F6000 X123.193 Y103.705 Z0.4
;TYPE:SKIRT
G1 F300 Z0.2
G1 F2700 E0
G1 F1200 X125.117 Y103.705 E0.06399
G1 X125.118 Y105.696 E0.13021
G1 X124.775 Y105.696 E0.14162
G1 X124.703 Y105.477 E0.14929
G1 X124.457 Y104.984 E0.16761
G1 X124.142 Y104.532 E0.18594
G1 X123.765 Y104.13 E0.20427
G1 X123.334 Y103.787 E0.22259
G1 X123.193 Y103.705 E0.22801
G0 F6000 X122.966 Y104.026
G1 F1200 X122.412 Y103.752 E0.24857
G1 X122.038 Y103.608 E0.2619
G1 X121.538 Y103.459 E0.27925
G1 X120.814 Y103.381 E0.30347
G1 X116.64 Y103.384 E0.4423
G1 X116.12 Y103.424 E0.45965
G1 X115.613 Y103.544 E0.47698
G1 X115.358 Y103.636 E0.48599
G1 X113.175 Y104.526 E0.5644
G1 X112.709 Y104.759 E0.58173
G1 X112.284 Y105.06 E0.59905
G1 X112.074 Y105.251 E0.60849
G1 X111.946 Y105.377 E0.61447
G1 X111.604 Y105.77 E0.6318
G1 X111.368 Y106.143 E0.64648
G1 X110.827 Y106.096 E0.66454
G1 X109.483 Y106.096 E0.70924
G1 X109.482 Y103.305 E0.80207
G1 X125.517 Y103.305 E1.33539
G1 X125.518 Y106.096 E1.42822
G1 X124.486 Y106.096 E1.46255
G1 X124.481 Y106.07 E1.46343
G1 X124.312 Y105.577 E1.48076
G1 X124.069 Y105.116 E1.49809
G1 X123.759 Y104.697 E1.51543
G1 X123.388 Y104.331 E1.53276
G1 X122.966 Y104.026 E1.55008
G0 F6000 X122.602 Y104.278
G1 F1200 X122.268 Y104.125 E1.5623
G1 X121.894 Y103.981 E1.57563
G1 X121.424 Y103.843 E1.59192
G1 X120.814 Y103.781 E1.61232
G1 X116.64 Y103.784 E1.75114
G1 X116.152 Y103.824 E1.76743
G1 X115.509 Y104.006 E1.78966
G1 X113.326 Y104.896 E1.86806
G1 X112.89 Y105.117 E1.88432
G1 X112.354 Y105.536 E1.90695
G1 X112.226 Y105.662 E1.91292
G1 X111.907 Y106.033 E1.9292
G1 X111.652 Y106.45 E1.94546
G1 X111.585 Y106.601 E1.95095
G1 X111.222 Y106.522 E1.96331
G1 X110.827 Y106.496 E1.97647
G1 X109.083 Y106.496 E2.03448
G1 X109.082 Y102.905 E2.15391
G1 X125.917 Y102.905 E2.71385
G1 X125.918 Y106.496 E2.83329
G1 X124.173 Y106.496 E2.89133
G1 X124.152 Y106.498 E2.89203
G1 X124.086 Y106.142 E2.90407
G1 X123.92 Y105.682 E2.92033
G1 X123.682 Y105.254 E2.93662
G1 X123.377 Y104.871 E2.95291
G1 X123.014 Y104.543 E2.96918
G1 X122.602 Y104.278 E2.98547
G0 F6000 X122.643 Y104.769
G1 F1200 X122.124 Y104.499 E3.00493
G1 X121.75 Y104.355 E3.01826
G1 X121.312 Y104.229 E3.03342
G1 X120.814 Y104.181 E3.05006
G1 X116.64 Y104.184 E3.18889
G1 X116.186 Y104.224 E3.20405
G1 X115.66 Y104.376 E3.22226
G1 X113.477 Y105.266 E3.30067
G1 X113.072 Y105.475 E3.31582
G1 X112.635 Y105.821 E3.33436
G1 X112.507 Y105.947 E3.34034
G1 X112.212 Y106.294 E3.35548
G1 X111.901 Y106.875 E3.3774
G1 X111.815 Y107.1 E3.38541
G1 X111.493 Y106.983 E3.39681
G1 X110.827 Y106.896 E3.41915
G1 X108.683 Y106.896 E3.49046
G1 X108.682 Y102.505 E3.6365
G1 X126.317 Y102.505 E4.22305
G1 X126.318 Y106.896 E4.36909
G1 X124.173 Y106.896 E4.44043
G1 X123.804 Y106.929 E4.45276
G1 X123.777 Y106.664 E4.46162
G1 X123.692 Y106.216 E4.47678
G1 X123.529 Y105.79 E4.49195
G1 X123.295 Y105.399 E4.50711
G1 X122.997 Y105.055 E4.52225
G1 X122.643 Y104.769 E4.53738
G0 F6000 X122.276 Y105.012
G1 F1200 X121.98 Y104.872 E4.54827
G1 X121.606 Y104.728 E4.5616
G1 X121.203 Y104.615 E4.57552
G1 X120.814 Y104.581 E4.58851
G1 X116.64 Y104.584 E4.72734
G1 X116.223 Y104.624 E4.74127
G1 X115.811 Y104.747 E4.75557
G1 X113.628 Y105.637 E4.83398
G1 X113.257 Y105.831 E4.84791
G1 X112.916 Y106.106 E4.86248
G1 X112.788 Y106.232 E4.86845
G1 X112.518 Y106.553 E4.8824
G1 X112.275 Y107.017 E4.89982
G1 X112.133 Y107.39 E4.9131
G1 X112.055 Y107.672 E4.92283
G1 X111.692 Y107.473 E4.9366
G1 X111.292 Y107.346 E4.95056
G1 X110.827 Y107.296 E4.96611
G1 X108.283 Y107.296 E5.05073
G1 X108.282 Y102.105 E5.22338
G1 X126.717 Y102.105 E5.83653
G1 X126.718 Y107.296 E6.00918
G1 X124.173 Y107.296 E6.09383
G1 X123.756 Y107.336 E6.10776
G1 X123.421 Y107.434 E6.11937
G1 X123.419 Y107.1 E6.13048
G1 X123.379 Y106.704 E6.14372
G1 X123.297 Y106.293 E6.15766
G1 X123.139 Y105.905 E6.17159
G1 X122.91 Y105.554 E6.18553
G1 X122.619 Y105.252 E6.19948
G1 X122.276 Y105.012 E6.2134
G0 F6000 X122.245 Y105.467
G1 F1200 X121.837 Y105.245 E6.22885
G1 X121.463 Y105.101 E6.24218
G1 X121.097 Y105.003 E6.25478
G1 X120.815 Y104.981 E6.26419
G1 X116.641 Y104.984 E6.40302
G1 X116.264 Y105.024 E6.41563
G1 X115.962 Y105.117 E6.42614
G1 X113.779 Y106.007 E6.50455
G1 X113.446 Y106.186 E6.51712
G1 X113.196 Y106.391 E6.52788
G1 X113.068 Y106.517 E6.53385
G1 X112.828 Y106.81 E6.54645
G1 X112.649 Y107.16 E6.55952
G1 X112.507 Y107.533 E6.5728
G1 X112.41 Y107.899 E6.58539
G1 X112.392 Y108.283 E6.59818
G1 X112.417 Y108.546 E6.60696
G1 X112.382 Y108.505 E6.60876
G1 X112.1 Y108.223 E6.62202
G1 X111.805 Y107.985 E6.63463
G1 X111.467 Y107.814 E6.64723
G1 X111.101 Y107.717 E6.65982
G1 X110.827 Y107.696 E6.66896
G1 X107.883 Y107.696 E6.76688
G1 X107.882 Y101.714 E6.96584
G1 X107.889 Y101.705 E6.96622
G1 X127.11 Y101.705 E7.60551
G1 X127.117 Y101.715 E7.60592
G1 X127.118 Y107.696 E7.80485
G1 X124.173 Y107.696 E7.9028
G1 X123.796 Y107.736 E7.91541
G1 X123.436 Y107.854 E7.92801
G1 X123.109 Y108.044 E7.94059
G1 X122.9 Y108.223 E7.94974
G1 X122.738 Y108.385 E7.95736
G1 X122.893 Y108.011 E7.97082
G1 X123 Y107.647 E7.98344
G1 X123.021 Y107.14 E8.00032
G1 X122.981 Y106.744 E8.01356
G1 X122.903 Y106.373 E8.02617
G1 X122.75 Y106.027 E8.03875
G1 X122.527 Y105.72 E8.05137
G1 X122.245 Y105.467 E8.06397
G0 F6000 X121.878 Y105.705
G1 F1200 X121.693 Y105.618 E8.07077
G1 X121.319 Y105.474 E8.0841
G1 X120.995 Y105.393 E8.09521
G1 X120.815 Y105.381 E8.10121
G1 X116.641 Y105.384 E8.24004
G1 X116.309 Y105.424 E8.25116
G1 X116.113 Y105.488 E8.25802
G1 X113.93 Y106.378 E8.33643
G1 X113.638 Y106.54 E8.34753
G1 X113.349 Y106.802 E8.36051
G1 X113.14 Y107.063 E8.37163
G1 X113.023 Y107.302 E8.38048
G1 X112.881 Y107.675 E8.39375
G1 X112.8 Y107.999 E8.40486
G1 X112.792 Y108.258 E8.41348
G1 X112.803 Y108.438 E8.41948
G1 X112.906 Y108.888 E8.43483
G1 X113.138 Y109.449 E8.45502
G1 X113.113 Y109.613 E8.46054
G1 X113.113 Y112.045 E8.54143
G1 X113.056 Y111.953 E8.54503
G1 X112.847 Y111.691 E8.55618
G1 X112.545 Y111.466 E8.5687
G1 X112.509 Y111.446 E8.57007
G1 X112.509 Y109.778 E8.62555
G1 X112.469 Y109.446 E8.63667
G1 X112.352 Y109.134 E8.64776
G1 X112.099 Y108.788 E8.66201
G1 X111.817 Y108.506 E8.67528
G1 X111.554 Y108.3 E8.68639
G1 X111.25 Y108.161 E8.69751
G1 X110.827 Y108.096 E8.71174
G1 X107.483 Y108.096 E8.82296
G1 X107.482 Y101.581 E9.03965
G1 X107.688 Y101.305 E9.05111
G1 X127.311 Y101.305 E9.70377
G1 X127.517 Y101.582 E9.71525
G1 X127.518 Y108.096 E9.93191
G1 X124.173 Y108.096 E10.04316
G1 X123.841 Y108.136 E10.05428
G1 X123.529 Y108.253 E10.06537
G1 X123.183 Y108.506 E10.07962
G1 X122.901 Y108.788 E10.09289
G1 X122.695 Y109.051 E10.104
G1 X122.556 Y109.355 E10.11512
G1 X122.491 Y109.778 E10.12935
G1 X122.491 Y111.444 E10.18476
G1 X122.452 Y111.466 E10.18625
G1 X122.181 Y111.662 E10.19738
G1 X121.94 Y111.955 E10.20999
G1 X121.887 Y112.041 E10.21335
G1 X121.887 Y109.613 E10.29411
G1 X121.866 Y109.441 E10.29987
G1 X122.523 Y107.857 E10.35691
G1 X122.613 Y107.536 E10.368
G1 X122.623 Y107.18 E10.37984
G1 X122.583 Y106.784 E10.39308
G1 X122.51 Y106.458 E10.40419
G1 X122.362 Y106.159 E10.41529
G1 X122.147 Y105.903 E10.42641
G1 X121.878 Y105.705 E10.43752
G0 F6000 X121.772 Y106.112
G1 F1200 X121.549 Y105.992 E10.44594
G1 X121.175 Y105.848 E10.45927
G1 X120.815 Y105.781 E10.47145
G1 X116.641 Y105.784 E10.61028
G1 X116.264 Y105.858 E10.62305
G1 X114.081 Y106.748 E10.70146
G1 X113.757 Y106.961 E10.71436
G1 X113.629 Y107.087 E10.72033
G1 X113.458 Y107.312 E10.72973
G1 X113.396 Y107.444 E10.73458
G1 X113.254 Y107.817 E10.74786
G1 X113.192 Y108.092 E10.75723
G1 X113.202 Y108.414 E10.76795
G1 X113.276 Y108.735 E10.77891
G1 X113.543 Y109.379 E10.80209
G1 X113.513 Y109.613 E10.80994
G1 X113.513 Y112.379 E10.90194
G1 X113.553 Y112.658 E10.91131
G1 X113.669 Y112.915 E10.92069
G1 X113.923 Y113.203 E10.93346
G1 X114.149 Y113.372 E10.94285
G1 X114.413 Y113.472 E10.95224
G1 X114.533 Y113.485 E10.95625
G1 X115.051 Y114.003 E10.98062
G1 X115.277 Y114.172 E10.99
G1 X115.541 Y114.272 E10.99939
G1 X115.758 Y114.296 E11.00665
G1 X119.242 Y114.296 E11.12253
G1 X119.521 Y114.256 E11.13191
G1 X119.778 Y114.14 E11.14129
G1 X119.949 Y114.003 E11.14857
G1 X120.47 Y113.482 E11.17308
G1 X120.649 Y113.456 E11.1791
G1 X120.906 Y113.34 E11.18847
G1 X121.194 Y113.086 E11.20125
G1 X121.363 Y112.86 E11.21063
G1 X121.463 Y112.596 E11.22002
G1 X121.487 Y112.379 E11.22728
G1 X121.487 Y109.613 E11.31928
G1 X121.455 Y109.39 E11.32677
G1 X122.154 Y107.704 E11.38748
G1 X122.224 Y107.431 E11.39685
G1 X122.225 Y107.221 E11.40384
G1 X122.185 Y106.825 E11.41708
G1 X122.117 Y106.551 E11.42646
G1 X121.976 Y106.307 E11.43584
G1 X121.772 Y106.112 E11.44522
G0 F6000 X121.594 Y106.481
G1 F1200 X121.406 Y106.365 E11.45257
G1 X121.032 Y106.221 E11.4659
G1 X120.816 Y106.181 E11.47321
G1 X116.642 Y106.184 E11.61204
G1 X116.415 Y106.228 E11.61973
G1 X114.232 Y107.118 E11.69814
G1 X113.91 Y107.372 E11.71178
G1 X113.77 Y107.587 E11.72031
G1 X113.628 Y107.96 E11.73358
G1 X113.59 Y108.21 E11.74199
G1 X113.646 Y108.582 E11.75451
G1 X113.969 Y109.362 E11.78259
G1 X113.965 Y109.368 E11.78283
G1 X113.913 Y109.613 E11.79116
G1 X113.913 Y112.379 E11.88315
G1 X113.953 Y112.594 E11.89043
G1 X114.206 Y112.92 E11.90415
G1 X114.385 Y113.044 E11.91139
G1 X114.63 Y113.096 E11.91972
G1 X114.723 Y113.096 E11.92282
G1 X114.748 Y113.134 E11.92433
G1 X115.334 Y113.72 E11.95189
G1 X115.513 Y113.844 E11.95914
G1 X115.758 Y113.896 E11.96747
G1 X119.242 Y113.896 E12.08335
G1 X119.457 Y113.856 E12.09062
G1 X119.666 Y113.72 E12.09891
G1 X120.252 Y113.134 E12.12648
G1 X120.278 Y113.096 E12.12801
G1 X120.585 Y113.056 E12.13831
G1 X120.911 Y112.803 E12.15203
G1 X121.035 Y112.624 E12.15927
G1 X121.087 Y112.379 E12.1676
G1 X121.087 Y109.613 E12.2596
G1 X121.029 Y109.371 E12.26788
G1 X121.784 Y107.551 E12.33341
G1 X121.827 Y107.261 E12.34316
G1 X121.787 Y106.865 E12.3564
G1 X121.726 Y106.655 E12.36367
G1 X121.594 Y106.481 E12.37094
G0 F6000 X121.262 Y106.738
G1 F1200 X120.888 Y106.594 E12.38427
G1 X120.816 Y106.581 E12.3867
G1 X116.642 Y106.584 E12.52553
G1 X116.566 Y106.599 E12.52811
G1 X114.383 Y107.489 E12.60652
G1 X114.191 Y107.657 E12.615
G1 X114.144 Y107.729 E12.61786
G1 X114.002 Y108.102 E12.63114
G1 X114 Y108.365 E12.63988
G1 X114.015 Y108.429 E12.64207
G1 X114.425 Y109.419 E12.67771
G1 X114.313 Y109.613 E12.68516
G1 X114.313 Y112.379 E12.77716
G1 X114.372 Y112.52 E12.78224
G1 X114.489 Y112.637 E12.78774
G1 X114.63 Y112.696 E12.79283
G1 X114.972 Y112.696 E12.8042
G1 X115.031 Y112.851 E12.80972
G1 X115.617 Y113.437 E12.83728
G1 X115.758 Y113.496 E12.84237
G1 X119.242 Y113.496 E12.95824
G1 X119.383 Y113.437 E12.96333
G1 X119.969 Y112.851 E12.99089
G1 X120.028 Y112.696 E12.99641
G1 X120.37 Y112.696 E13.00778
G1 X120.511 Y112.637 E13.01287
G1 X120.628 Y112.52 E13.01837
G1 X120.687 Y112.379 E13.02345
G1 X120.687 Y109.613 E13.11545
G1 X120.576 Y109.42 E13.12286
G1 X121.415 Y107.398 E13.19567
G1 X121.429 Y107.301 E13.19893
G1 X121.389 Y106.905 E13.21217
G1 X121.338 Y106.791 E13.21632
G1 X121.262 Y106.738 E13.2194
G1 F2700 E8.2194
G1 F300 Z0.4
G0 F6000 X123.894 Y108.536 Z0.4
G1 F300 Z0.2
G1 F2700 E13.2194
G1 F1200 X123.637 Y108.652 E13.22878
G1 X123.466 Y108.789 E13.23607
G1 X123.184 Y109.071 E13.24933
G1 X123.015 Y109.297 E13.25872
G1 X122.915 Y109.561 E13.26811
G1 X122.891 Y109.778 E13.27537
G1 X122.891 Y111.68 E13.33863
G1 X122.646 Y111.816 E13.34795
G1 X122.421 Y111.986 E13.35733
G1 X122.281 Y112.165 E13.36489
G1 X121.486 Y113.454 E13.41526
G1 X120.66 Y114.766 E13.46682
G1 X120.545 Y115.024 E13.47622
G1 X120.506 Y115.299 E13.48546
G1 X120.506 Y115.698 E13.49873
G1 X120.546 Y115.977 E13.5081
G1 X120.659 Y116.229 E13.51729
G1 X121.287 Y117.23 E13.55659
G1 X121.286 Y120.819 E13.67596
G1 X121.265 Y121.204 E13.68878
G1 X121.264 Y121.267 E13.69088
G1 X121.28 Y123.373 E13.76093
G1 X120.834 Y123.842 E13.78245
G1 X120.671 Y124.072 E13.79183
G1 X120.578 Y124.338 E13.8012
G1 X120.559 Y124.556 E13.80848
G1 X120.569 Y124.954 E13.82172
G1 X120.616 Y125.232 E13.8311
G1 X120.739 Y125.486 E13.84049
G1 X120.879 Y125.653 E13.84773
G1 X121.282 Y126.037 E13.86625
G1 X121.283 Y126.323 E13.87576
G1 X120.831 Y126.77 E13.89691
G1 X120.66 Y126.995 E13.9063
G1 X120.559 Y127.258 E13.91567
G1 X120.534 Y127.486 E13.9233
G1 X120.536 Y127.884 E13.93654
G1 X120.577 Y128.163 E13.94592
G1 X120.695 Y128.42 E13.95533
G1 X120.84 Y128.597 E13.96294
G1 X121.295 Y129.038 E13.98401
G1 X121.33 Y129.192 E13.98926
G1 X121.247 Y129.328 E13.99456
G1 X120.394 Y131.385 E14.06863
G1 X117.491 Y132.589 E14.17316
G1 X114.606 Y131.392 E14.27705
G1 X113.749 Y129.33 E14.35131
G1 X113.651 Y129.164 E14.35773
G1 X113.962 Y128.15 E14.393
G1 X114.006 Y127.872 E14.40236
G1 X113.973 Y127.601 E14.41144
G1 X113.871 Y127.216 E14.42469
G1 X113.761 Y126.956 E14.43408
G1 X113.717 Y126.902 E14.4364
G1 X113.718 Y126.517 E14.4492
G1 X114.161 Y126.052 E14.47056
G1 X114.325 Y125.822 E14.47996
G1 X114.418 Y125.556 E14.48933
G1 X114.437 Y125.337 E14.49664
G1 X114.427 Y124.938 E14.50992
G1 X114.38 Y124.66 E14.5193
G1 X114.257 Y124.406 E14.52868
G1 X114.117 Y124.239 E14.53593
G1 X113.717 Y123.859 E14.55428
G1 X113.742 Y120.963 E14.65061
G1 X113.705 Y120.684 E14.65997
G1 X113.585 Y120.42 E14.66961
G1 X113.608 Y120.388 E14.67092
G1 X113.702 Y120.122 E14.68031
G1 X113.721 Y119.924 E14.68692
G1 X113.715 Y117.292 E14.77446
G1 X113.962 Y117.019 E14.78671
G1 X114.12 Y116.786 E14.79607
G1 X114.206 Y116.517 E14.80546
G1 X114.217 Y116.388 E14.80977
G1 X114.326 Y116.21 E14.81671
G1 X114.439 Y115.951 E14.82611
G1 X114.474 Y115.684 E14.83507
G1 X114.473 Y115.286 E14.8483
G1 X114.432 Y115.007 E14.85768
G1 X114.323 Y114.763 E14.86657
G1 X112.715 Y112.163 E14.96825
G1 X112.535 Y111.946 E14.97763
G1 X112.351 Y111.815 E14.98514
G1 X112.109 Y111.68 E14.99436
G1 X112.109 Y109.778 E15.05762
G1 X112.069 Y109.499 E15.06699
G1 X111.953 Y109.242 E15.07637
G1 X111.816 Y109.071 E15.08366
G1 X111.534 Y108.789 E15.09692
G1 X111.308 Y108.62 E15.10631
G1 X111.044 Y108.52 E15.1157
G1 X110.827 Y108.496 E15.12296
G1 X107.083 Y108.496 E15.24749
G1 X107.082 Y101.448 E15.4819
G1 X107.487 Y100.905 E15.50443
G1 X127.512 Y100.905 E16.17047
G1 X127.917 Y101.449 E16.19302
G1 X127.918 Y108.496 E16.42741
G1 X124.173 Y108.496 E16.55197
G1 X123.894 Y108.536 E16.56134
G0 F6000 X124.173 Y108.896
G1 F1200 X123.958 Y108.936 E16.56862
G1 X123.749 Y109.072 E16.57691
G1 X123.467 Y109.354 E16.59017
G1 X123.343 Y109.533 E16.59742
G1 X123.291 Y109.778 E16.60575
G1 X123.291 Y111.945 E16.67782
G1 X123.189 Y111.972 E16.68133
G1 X122.84 Y112.166 E16.69461
G1 X122.621 Y112.375 E16.70468
G1 X121.824 Y113.667 E16.75517
G1 X120.998 Y114.979 E16.80674
G1 X120.906 Y115.299 E16.81781
G1 X120.906 Y115.698 E16.83108
G1 X120.998 Y116.017 E16.84212
G1 X121.687 Y117.115 E16.88524
G1 X121.686 Y120.841 E17.00917
G1 X121.664 Y121.264 E17.02325
G1 X121.681 Y123.531 E17.09866
G1 X121.124 Y124.117 E17.12555
G1 X121.005 Y124.3 E17.13281
G1 X120.959 Y124.546 E17.14113
G1 X120.969 Y124.944 E17.15437
G1 X121.014 Y125.158 E17.16165
G1 X121.155 Y125.363 E17.16992
G1 X121.681 Y125.864 E17.19408
G1 X121.683 Y126.489 E17.21487
G1 X121.112 Y127.054 E17.24159
G1 X120.987 Y127.234 E17.24888
G1 X120.934 Y127.484 E17.25738
G1 X120.936 Y127.882 E17.27061
G1 X120.977 Y128.096 E17.27786
G1 X121.118 Y128.31 E17.28638
