;FLAVOR:Marlin
;TIME:5734
;Filament used: 6.89975m
;Layer height: 0.3
;MINX:42.701
;MINY:82.892
;MINZ:0.2
;MAXX:192.299
;MAXY:152.108
;MAXZ:3.1
;Generated with Cura_SteamEngine 4.8.0
M140 S110
M105
M190 S110
M104 S255
M105
M109 S255
M82 ;absolute extrusion mode
; Ender 3 Custom Start G-code
G92 E0 ; Reset Extruder
G28 ; Home all axes
G1 Z2.0 F3000 ; Move Z Axis up little to prevent scratching of Heat Bed
G1 X0.1 Y20 Z0.3 F5000.0 ; Move to start position
G1 X0.1 Y200.0 Z0.3 F1500.0 E15 ; Draw the first line
G1 X0.4 Y200.0 Z0.3 F5000.0 ; Move to side a little
G1 X0.4 Y20 Z0.3 F1500.0 E30 ; Draw the second line
G92 E0 ; Reset Extruder
G1 Z2.0 F3000 ; Move Z Axis up little to prevent scratching of Heat Bed
G1 X5 Y20 Z0.3 F5000.0 ; Move over to prevent blob squish
G92 E0
G92 E0
G1 F2700 E-5
;LAYER_COUNT:10
;LAYER:0
M107
G1 F300 Z0.4
;MESH:LeafieldC7ValveWrench.stl
G0 F6000 X82.154 Y143.362 Z0.4
;TYPE:WALL-INNER
G1 F300 Z0.2
G1 F2700 E0
G1 F1200 X85.66 Y142.613 E0.11924
G1 X90.704 Y140.369 E0.30286
G1 X95.171 Y137.125 E0.48648
G1 X97.57 Y134.462 E0.60569
G1 X93.494 Y127.404 E0.87677
G1 X94.074 Y126.4 E0.91534
G1 X102.224 Y126.4 E1.18641
G1 X103.33 Y122.992 E1.30558
G1 X103.907 Y117.5 E1.48925
G1 X103.33 Y112.008 E1.67292
G1 X102.224 Y108.6 E1.79209
G1 X94.074 Y108.6 E2.06316
G1 X93.494 Y107.596 E2.10172
G1 X97.57 Y100.538 E2.37281
G1 X95.171 Y97.875 E2.49202
G1 X90.704 Y94.631 E2.67564
G1 X85.699 Y92.405 E2.85782
G1 X85.66 Y92.387 E2.85925
G1 X85.62 Y92.379 E2.86061
G1 X82.154 Y91.638 E2.97849
G1 X78.08 Y98.696 E3.24955
G1 X76.92 Y98.696 E3.28813
G1 X72.847 Y91.638 E3.55916
G1 X69.341 Y92.387 E3.6784
G1 X64.296 Y94.631 E3.86205
G1 X59.83 Y97.875 E4.04564
G1 X57.43 Y100.538 E4.16488
G1 X61.507 Y107.596 E4.43598
G1 X60.927 Y108.6 E4.47454
G1 X52.777 Y108.6 E4.74561
G1 X51.671 Y112.008 E4.86478
G1 X51.093 Y117.5 E5.04845
G1 X51.671 Y122.992 E5.23213
G1 X52.777 Y126.4 E5.3513
G1 X60.927 Y126.4 E5.62237
G1 X61.507 Y127.404 E5.66093
G1 X57.43 Y134.462 E5.93203
G1 X59.83 Y137.125 E6.05127
G1 X64.296 Y140.369 E6.23486
G1 X69.302 Y142.595 E6.41708
G1 X69.341 Y142.613 E6.41851
G1 X69.381 Y142.621 E6.41986
G1 X72.847 Y143.362 E6.53775
G1 X76.92 Y136.304 E6.80878
G1 X78.08 Y136.304 E6.84736
G1 X82.154 Y143.362 E7.11841
G0 F6000 X82.355 Y142.91
G1 F1200 X85.536 Y142.231 E7.2266
G1 X90.503 Y140.021 E7.40741
G1 X94.902 Y136.826 E7.58824
G1 X97.078 Y134.41 E7.69639
G1 X93.149 Y127.604 E7.95777
G1 X93.033 Y127.404 E7.96546
G1 X93.843 Y126 E8.01937
G1 X101.933 Y126 E8.28845
G1 X102.937 Y122.908 E8.39657
G1 X103.505 Y117.5 E8.57743
G1 X102.937 Y112.092 E8.75829
G1 X101.933 Y109 E8.86642
G1 X93.843 Y109 E9.13549
G1 X93.149 Y107.796 E9.18171
G1 X93.033 Y107.596 E9.1894
G1 X97.078 Y100.59 E9.45847
G1 X94.902 Y98.174 E9.56662
G1 X90.503 Y94.979 E9.74745
G1 X85.575 Y92.787 E9.92684
G1 X85.536 Y92.769 E9.92827
G1 X85.496 Y92.761 E9.92962
G1 X82.355 Y92.09 E10.03645
G1 X78.311 Y99.096 E10.3055
G1 X76.689 Y99.096 E10.35945
G1 X72.646 Y92.09 E10.62849
G1 X69.465 Y92.769 E10.73667
G1 X64.497 Y94.979 E10.91752
G1 X60.099 Y98.174 E11.09832
G1 X57.922 Y100.59 E11.20649
G1 X61.852 Y107.396 E11.46789
G1 X61.968 Y107.596 E11.47558
G1 X61.158 Y109 E11.52949
G1 X53.068 Y109 E11.79856
G1 X52.064 Y112.092 E11.90669
G1 X51.495 Y117.5 E12.08755
G1 X52.064 Y122.908 E12.26842
G1 X53.068 Y126 E12.37654
G1 X61.158 Y126 E12.64562
G1 X61.852 Y127.204 E12.69184
G1 X61.968 Y127.404 E12.69953
G1 X57.922 Y134.41 E12.96862
G1 X60.099 Y136.826 E13.07678
G1 X64.497 Y140.021 E13.25758
G1 X69.426 Y142.213 E13.437
G1 X69.465 Y142.231 E13.43843
G1 X69.505 Y142.239 E13.43979
G1 X72.646 Y142.91 E13.54662
G1 X76.689 Y135.904 E13.81565
G1 X78.311 Y135.904 E13.8696
G1 X82.355 Y142.91 E14.13866
G0 F6000 X82.556 Y142.458
G1 F1200 X85.412 Y141.849 E14.23578
G1 X90.302 Y139.673 E14.4138
G1 X94.633 Y136.527 E14.59184
G1 X96.586 Y134.358 E14.68892
G1 X92.571 Y127.404 E14.95599
G1 X93.613 Y125.6 E15.02528
G1 X101.642 Y125.6 E15.29233
G1 X102.544 Y122.824 E15.38941
G1 X103.103 Y117.5 E15.56746
G1 X102.544 Y112.176 E15.74551
G1 X101.642 Y109.4 E15.84259
G1 X93.613 Y109.4 E16.10964
G1 X93.498 Y109.2 E16.11731
G1 X92.571 Y107.596 E16.17893
G1 X96.586 Y100.642 E16.446
G1 X94.633 Y98.473 E16.54308
G1 X90.302 Y95.327 E16.72112
G1 X85.412 Y93.151 E16.89914
G1 X82.556 Y92.542 E16.99627
G1 X78.542 Y99.496 E17.26332
G1 X76.458 Y99.496 E17.33264
G1 X72.445 Y92.542 E17.59968
G1 X69.589 Y93.151 E17.69681
G1 X64.698 Y95.327 E17.87485
G1 X60.368 Y98.473 E18.05287
G1 X58.414 Y100.642 E18.14997
G1 X62.43 Y107.596 E18.41706
G1 X61.388 Y109.4 E18.48635
G1 X53.359 Y109.4 E18.75339
G1 X52.457 Y112.176 E18.85048
G1 X51.897 Y117.5 E19.02853
G1 X52.457 Y122.824 E19.20658
G1 X53.359 Y125.6 E19.30367
G1 X61.388 Y125.6 E19.57071
G1 X61.503 Y125.8 E19.57838
G1 X62.43 Y127.404 E19.64
G1 X58.414 Y134.358 E19.90709
G1 X60.368 Y136.527 E20.00419
G1 X64.698 Y139.673 E20.18221
G1 X69.589 Y141.849 E20.36026
G1 X72.445 Y142.458 E20.45738
G1 X76.458 Y135.504 E20.72442
G1 X78.542 Y135.504 E20.79374
G1 X82.556 Y142.458 E21.06079
G0 F6000 X82.757 Y142.006
;TYPE:WALL-OUTER
G1 F1200 X85.288 Y141.467 E21.14686
G1 X90.101 Y139.325 E21.32208
G1 X94.364 Y136.228 E21.49734
G1 X96.094 Y134.306 E21.58334
G1 X92.11 Y127.404 E21.8484
G1 X93.382 Y125.2 E21.93304
G1 X101.351 Y125.2 E22.19809
G1 X102.151 Y122.74 E22.28413
G1 X102.701 Y117.5 E22.45937
G1 X102.151 Y112.26 E22.63461
G1 X101.351 Y109.8 E22.72065
G1 X93.382 Y109.8 E22.9857
G1 X92.11 Y107.596 E23.07034
G1 X96.094 Y100.694 E23.3354
G1 X94.364 Y98.772 E23.4214
G1 X90.101 Y95.675 E23.59666
G1 X85.288 Y93.533 E23.77188
G1 X82.757 Y92.994 E23.85795
G1 X78.773 Y99.896 E24.12301
G1 X76.227 Y99.896 E24.20769
G1 X72.244 Y92.994 E24.47273
G1 X69.713 Y93.533 E24.5588
G1 X64.899 Y95.675 E24.73405
G1 X60.637 Y98.772 E24.90928
G1 X58.906 Y100.694 E24.99531
G1 X62.891 Y107.596 E25.26038
G1 X61.619 Y109.8 E25.34502
G1 X53.65 Y109.8 E25.61007
G1 X52.85 Y112.26 E25.69611
G1 X52.299 Y117.5 E25.87135
G1 X52.85 Y122.74 E26.0466
G1 X53.65 Y125.2 E26.13263
G1 X61.619 Y125.2 E26.39768
G1 X62.891 Y127.404 E26.48232
G1 X58.906 Y134.306 E26.7474
G1 X60.637 Y136.228 E26.83343
G1 X64.899 Y139.325 E27.00866
G1 X69.713 Y141.467 E27.18391
G1 X72.244 Y142.006 E27.26998
G1 X76.227 Y135.104 E27.53502
G1 X78.773 Y135.104 E27.6197
G1 X82.757 Y142.006 E27.88476
G1 F2700 E22.88476
G1 F300 Z0.4
G0 F6000 X81.016 Y150.908 Z0.4
;TYPE:WALL-INNER
G1 F300 Z0.2
G1 F2700 E27.88476
G1 F1200 X73.988 Y150.908 E28.11851
G1 X67.118 Y149.449 E28.3521
G1 X60.711 Y146.596 E28.58537
G1 X55.02 Y142.46 E28.81937
G1 X50.318 Y137.238 E29.05308
G1 X46.811 Y131.165 E29.28633
G1 X44.644 Y124.493 E29.51966
G1 X43.907 Y117.5 E29.75353
G1 X44.644 Y110.507 E29.98741
G1 X46.811 Y103.835 E30.22073
G1 X50.318 Y97.762 E30.45398
G1 X55.02 Y92.54 E30.6877
G1 X60.711 Y88.404 E30.92169
G1 X67.118 Y85.551 E31.15496
G1 X73.988 Y84.092 E31.38855
G1 X81.016 Y84.092 E31.6223
G1 X178.888 Y103.975 E34.94404
G1 X181.703 Y104.572 E35.03974
G1 X184.289 Y105.725 E35.13392
G1 X186.598 Y107.403 E35.22885
G1 X188.494 Y109.508 E35.32308
G1 X189.921 Y111.982 E35.41807
G1 X190.794 Y114.665 E35.51191
G1 X191.093 Y117.5 E35.60673
G1 X190.794 Y120.335 E35.70154
G1 X189.921 Y123.018 E35.79539
G1 X188.494 Y125.492 E35.89038
G1 X186.598 Y127.597 E35.9846
G1 X184.289 Y129.275 E36.07954
G1 X181.703 Y130.428 E36.17371
G1 X178.786 Y131.046 E36.27289
G1 X81.016 Y150.908 E39.59115
G0 F6000 X81.057 Y151.308
G1 F1200 X73.947 Y151.308 E39.82763
G1 X66.994 Y149.831 E40.06405
G1 X60.508 Y146.943 E40.30019
G1 X54.752 Y142.76 E40.53685
G1 X49.994 Y137.476 E40.77335
G1 X46.466 Y131.365 E41.00804
G1 X46.444 Y131.328 E41.00947
G1 X46.432 Y131.289 E41.01083
G1 X44.25 Y124.574 E41.24567
G1 X43.505 Y117.5 E41.48225
G1 X44.25 Y110.426 E41.71883
G1 X46.444 Y103.672 E41.95503
G1 X49.994 Y97.524 E42.19115
G1 X54.752 Y92.24 E42.42765
G1 X60.508 Y88.057 E42.66431
G1 X66.955 Y85.187 E42.89902
G1 X66.994 Y85.169 E42.90045
G1 X67.035 Y85.161 E42.90184
G1 X73.947 Y83.692 E43.13687
G1 X81.057 Y83.692 E43.37335
G1 X178.968 Y103.583 E46.69641
G1 X181.827 Y104.19 E46.79362
G1 X184.492 Y105.378 E46.89066
G1 X186.866 Y107.103 E46.98827
G1 X188.821 Y109.273 E47.08541
G1 X190.287 Y111.815 E47.18301
G1 X191.188 Y114.584 E47.27986
G1 X191.495 Y117.5 E47.37738
G1 X191.188 Y120.416 E47.47491
G1 X190.287 Y123.185 E47.57176
G1 X188.821 Y125.727 E47.66936
G1 X186.866 Y127.897 E47.7665
G1 X184.492 Y129.622 E47.8641
G1 X184.452 Y129.639 E47.86555
G1 X181.866 Y130.792 E47.95972
G1 X181.827 Y130.81 E47.96115
G1 X181.786 Y130.818 E47.96254
G1 X178.866 Y131.438 E48.06183
G1 X81.057 Y151.308 E51.38142
G0 F6000 X81.098 Y151.708
G1 F1200 X73.906 Y151.708 E51.62062
G1 X66.87 Y150.213 E51.85987
G1 X60.305 Y147.29 E52.09888
G1 X54.484 Y143.06 E52.33821
G1 X49.67 Y137.714 E52.57749
G1 X46.099 Y131.528 E52.81505
G1 X46.077 Y131.491 E52.81649
G1 X46.065 Y131.452 E52.81784
G1 X43.856 Y124.655 E53.05555
G1 X43.103 Y117.5 E53.29484
G1 X43.856 Y110.345 E53.53413
G1 X46.077 Y103.509 E53.7732
G1 X49.67 Y97.286 E54.0122
G1 X54.484 Y91.94 E54.25147
G1 X60.305 Y87.71 E54.4908
G1 X66.831 Y84.805 E54.72839
G1 X66.87 Y84.787 E54.72982
G1 X66.91 Y84.779 E54.73117
G1 X73.906 Y83.292 E54.96906
G1 X81.098 Y83.292 E55.20827
G1 X179.048 Y103.191 E58.53265
G1 X181.951 Y103.808 E58.63136
G1 X184.695 Y105.031 E58.73128
G1 X187.134 Y106.803 E58.83155
G1 X189.148 Y109.038 E58.93161
G1 X190.653 Y111.648 E59.03182
G1 X191.582 Y114.503 E59.13168
G1 X191.897 Y117.5 E59.23191
G1 X191.582 Y120.497 E59.33214
G1 X190.653 Y123.352 E59.432
G1 X189.148 Y125.962 E59.5322
G1 X187.134 Y128.197 E59.63227
G1 X184.695 Y129.969 E59.73254
G1 X184.655 Y129.986 E59.73399
G1 X181.99 Y131.174 E59.83103
G1 X181.951 Y131.192 E59.83246
G1 X181.91 Y131.2 E59.83385
G1 X178.946 Y131.83 E59.93464
G1 X81.098 Y151.708 E63.25555
G0 F6000 X81.139 Y152.108
;TYPE:WALL-OUTER
G1 F1200 X73.865 Y152.108 E63.49748
G1 X66.746 Y150.595 E63.73955
G1 X60.102 Y147.637 E63.98144
G1 X54.216 Y143.36 E64.22344
G1 X49.346 Y137.952 E64.46549
G1 X45.71 Y131.654 E64.70737
G1 X43.462 Y124.736 E64.9493
G1 X42.701 Y117.5 E65.1913
G1 X43.462 Y110.264 E65.4333
G1 X45.71 Y103.346 E65.67524
G1 X49.346 Y97.048 E65.91711
G1 X54.216 Y91.64 E66.15917
G1 X60.102 Y87.363 E66.40116
G1 X66.746 Y84.405 E66.64305
G1 X73.865 Y82.892 E66.88512
G1 X81.139 Y82.892 E67.12705
G1 X179.128 Y102.799 E70.45276
G1 X182.075 Y103.426 E70.55297
G1 X184.898 Y104.684 E70.65576
G1 X187.402 Y106.503 E70.7587
G1 X189.475 Y108.803 E70.86169
G1 X191.019 Y111.481 E70.9645
G1 X191.976 Y114.422 E71.06737
G1 X192.299 Y117.5 E71.1703
G1 X191.976 Y120.578 E71.27324
G1 X191.019 Y123.519 E71.37611
G1 X189.475 Y126.197 E71.47892
G1 X187.402 Y128.497 E71.58191
G1 X184.898 Y130.316 E71.68485
G1 X182.075 Y131.574 E71.78764
G1 X179.026 Y132.222 E71.89131
G1 X81.139 Y152.108 E75.21355
G0 F6000 X81.095 Y151.671
G0 X80.978 Y150.518
;TYPE:SKIN
G1 F1200 X74.031 Y150.518 E75.44461
G1 X67.239 Y149.075 E75.67556
G1 X60.909 Y146.257 E75.90601
G1 X55.281 Y142.166 E76.13743
G1 X50.635 Y137.008 E76.36832
G1 X47.17 Y131.005 E76.59885
G1 X45.028 Y124.411 E76.82945
G1 X44.299 Y117.5 E77.06059
G1 X45.028 Y110.589 E77.29173
G1 X47.17 Y103.995 E77.52232
G1 X50.635 Y97.992 E77.75286
G1 X55.281 Y92.834 E77.98375
G1 X60.909 Y88.743 E78.21516
G1 X67.239 Y85.925 E78.44562
G1 X74.031 Y84.482 E78.67657
G1 X80.978 Y84.482 E78.90762
G1 X178.808 Y104.357 E82.22793
G1 X181.581 Y104.946 E82.32222
G1 X184.091 Y106.064 E82.41361
G1 X186.337 Y107.697 E82.50597
G1 X188.177 Y109.738 E82.59737
G1 X189.562 Y112.142 E82.68965
G1 X190.41 Y114.747 E82.78076
G1 X190.701 Y117.5 E82.87284
G1 X190.41 Y120.253 E82.96491
G1 X189.562 Y122.858 E83.05603
G1 X188.177 Y125.262 E83.14831
G1 X186.337 Y127.303 E83.23971
G1 X184.091 Y128.936 E83.33207
G1 X181.581 Y130.054 E83.42346
G1 X178.706 Y130.664 E83.52121
G1 X80.978 Y150.518 E86.83805
G1 F2700 E81.83805
G1 F300 Z0.4
G0 F6000 X81.959 Y143.803 Z0.4
G1 F300 Z0.2
G1 F2700 E86.83805
G1 F1200 X85.781 Y142.986 E86.96805
G1 X90.9 Y140.708 E87.1544
G1 X95.434 Y137.416 E87.34076
G1 X98.05 Y134.513 E87.47073
G1 X93.945 Y127.404 E87.74377
G1 X94.299 Y126.79 E87.76734
G1 X102.507 Y126.79 E88.04034
G1 X103.714 Y123.074 E88.17029
G1 X104.299 Y117.5 E88.3567
G1 X103.714 Y111.926 E88.54311
G1 X102.507 Y108.21 E88.67306
G1 X94.299 Y108.21 E88.94606
G1 X93.945 Y107.596 E88.96964
G1 X98.05 Y100.487 E89.24267
G1 X95.434 Y97.584 E89.37264
G1 X90.9 Y94.292 E89.559
G1 X85.781 Y92.014 E89.74536
G1 X81.959 Y91.197 E89.87535
G1 X77.855 Y98.306 E90.14837
G1 X77.145 Y98.306 E90.17198
G1 X73.043 Y91.197 E90.44497
G1 X69.22 Y92.014 E90.57499
G1 X64.1 Y94.292 E90.76138
G1 X59.567 Y97.584 E90.94771
G1 X56.95 Y100.487 E91.07771
G1 X61.056 Y107.596 E91.35076
G1 X60.702 Y108.21 E91.37433
G1 X52.494 Y108.21 E91.64733
G1 X51.287 Y111.926 E91.77728
G1 X50.701 Y117.5 E91.9637
G1 X51.287 Y123.074 E92.15011
G1 X52.494 Y126.79 E92.28006
G1 X60.702 Y126.79 E92.55306
G1 X61.056 Y127.404 E92.57663
G1 X56.95 Y134.513 E92.84969
G1 X59.567 Y137.416 E92.97968
G1 X64.1 Y140.708 E93.16601
G1 X69.22 Y142.986 E93.3524
G1 X73.043 Y143.803 E93.48242
G1 X77.145 Y136.694 E93.75541
G1 X77.855 Y136.694 E93.77902
G1 X81.959 Y143.803 E94.05204
G1 F2700 E89.05204
G1 F300 Z0.4
G0 F6000 X55.777 Y142.327 Z0.4
G1 F300 Z0.2
G1 F2700 E94.05204
G1 F1200 X54.422 Y140.972 E94.11578
G1 F2700 E89.11578
G1 F300 Z0.4
G0 F6000 X57.848 Y143.832 Z0.4
G1 F300 Z0.2
G1 F2700 E94.11578
G1 F1200 X50.539 Y136.523 E94.45957
G1 F2700 E89.45957
G1 F300 Z0.4
G0 F6000 X49.767 Y135.186 Z0.4
G1 F300 Z0.2
G1 F2700 E94.45957
G1 F1200 X59.919 Y145.338 E94.93709
G1 F2700 E89.93709
G1 F300 Z0.4
G0 F6000 X61.482 Y146.335 Z0.4
G1 F300 Z0.2
G1 F2700 E94.93709
G1 F1200 X48.996 Y133.849 E95.52439
G1 F2700 E90.52439
G1 F300 Z0.4
G0 F6000 X48.225 Y132.512 Z0.4
G1 F300 Z0.2
G1 F2700 E95.52439
G1 F1200 X62.502 Y146.789 E96.19594
G0 F6000 X63.522 Y147.243
G1 F1200 X47.453 Y131.175 E96.95175
G0 F6000 X47.093 Y130.249
G1 F1200 X64.541 Y147.697 E97.77245
G0 F6000 X65.561 Y148.151
G1 F1200 X46.821 Y129.411 E98.65392
G0 F6000 X46.548 Y128.573
G1 F1200 X66.581 Y148.605 E99.59619
G0 F6000 X67.508 Y148.966
G1 F1200 X46.276 Y127.735 E100.59486
G0 F6000 X46.004 Y126.897
G1 F1200 X68.226 Y149.119 E101.64011
G0 F6000 X68.945 Y149.272
G1 F1200 X45.732 Y126.059 E102.73198
G0 F6000 X45.459 Y125.22
G1 F1200 X69.662 Y149.424 E103.87044
G0 F6000 X70.381 Y149.577
G1 F1200 X45.186 Y124.382 E105.05553
G0 F6000 X45.119 Y123.749
G1 F1200 X71.099 Y149.729 E106.27755
G0 F6000 X71.818 Y149.882
G1 F1200 X59.501 Y137.566 E106.85688
G0 F6000 X59.357 Y137.421
G1 F1200 X45.052 Y123.117 E107.52972
G0 F6000 X44.985 Y122.484
G1 F1200 X56.857 Y134.355 E108.08812
G0 F6000 X57.064 Y133.997
G1 F1200 X44.918 Y121.852 E108.65941
G0 F6000 X44.851 Y121.219
G1 F1200 X57.271 Y133.638 E109.24359
G0 F6000 X57.478 Y133.28
G1 F1200 X44.785 Y120.587 E109.84062
G0 F6000 X44.718 Y119.955
G1 F1200 X57.685 Y132.921 E110.45053
G0 F6000 X57.892 Y132.563
G1 F1200 X44.651 Y119.322 E111.07335
G0 F6000 X44.585 Y118.689
G1 F1200 X52.154 Y126.258 E111.42937
G0 F6000 X51.881 Y125.42
G1 F1200 X44.518 Y118.057 E111.7757
G0 F6000 X44.465 Y117.439
G1 F1200 X51.609 Y124.583 E112.11173
G0 F6000 X51.337 Y123.745
G1 F1200 X44.52 Y116.927 E112.43241
G0 F6000 X44.573 Y116.415
G1 F1200 X51.114 Y122.956 E112.74008
G0 F6000 X51.048 Y122.324
G1 F1200 X44.627 Y115.903 E113.0421
G0 F6000 X44.682 Y115.392
G1 F1200 X50.981 Y121.692 E113.33841
G0 F6000 X50.915 Y121.06
G1 F1200 X44.735 Y114.88 E113.6291
G0 F6000 X44.789 Y114.368
G1 F1200 X50.848 Y120.428 E113.91412
G0 F6000 X50.782 Y119.795
G1 F1200 X44.844 Y113.857 E114.19342
G0 F6000 X44.897 Y113.345
G1 F1200 X50.715 Y119.163 E114.46708
G0 F6000 X50.649 Y118.531
G1 F1200 X44.951 Y112.833 E114.7351
G0 F6000 X45.005 Y112.322
G1 F1200 X50.582 Y117.899 E114.99743
G0 F6000 X50.56 Y117.311
G1 F1200 X45.059 Y111.81 E115.25618
G0 F6000 X45.113 Y111.298
G1 F1200 X50.614 Y116.799 E115.51493
G0 F6000 X50.668 Y116.287
G1 F1200 X45.167 Y110.787 E115.77365
G0 F6000 X45.278 Y110.332
G1 F1200 X50.722 Y115.776 E116.02972
G0 F6000 X50.775 Y115.264
G1 F1200 X45.417 Y109.905 E116.28177
